;FLAVOR:Marlin
;TIME:4270
;Filament used: 7.23931m
;Layer height: 0.4
;MINX:47.922
;MINY:45.408
;MINZ:0.3
;MAXX:174.025
;MAXY:164.97
;MAXZ:9.9
;Generated with Cura_SteamEngine 4.8.0
M140 S60
M105
M190 S60
M104 S200
M105
M109 S200
M82 ;absolute extrusion mode
G28 ;Home
G1 Z15.0 F2000 ;Move the platform
G92 E0
G92 E0
G1 F1500 E-6.5
;LAYER_COUNT:25
;LAYER:0
M107
M204 S1000
G0 F9000 X53.348 Y79.512 Z0.3
;TYPE:SKIRT
G1 F1500 E0
G1 F3000 X53.939 Y79.251 E0.03223
G1 X54.432 Y79.091 E0.05809
G1 X57.015 Y78.217 E0.19413
G1 X59.613 Y77.254 E0.33237
G1 X62.128 Y76.24 E0.46766
G1 X64.64 Y75.144 E0.60439
G1 X67.123 Y73.976 E0.74129
G1 X69.569 Y72.739 E0.87804
G1 X71.968 Y71.441 E1.01412
G1 X74.352 Y70.061 E1.15155
G1 X76.679 Y68.625 E1.28797
G1 X78.957 Y67.129 E1.42393
G1 X81.204 Y65.559 E1.56069
G1 X83.418 Y63.92 E1.69812
G1 X85.54 Y62.251 E1.83281
G1 X87.663 Y60.485 E1.97058
G1 X89.718 Y58.672 E2.1073
G1 X91.731 Y56.795 E2.24462
G1 X93.657 Y54.893 E2.37966
G1 X95.548 Y52.917 E2.51611
G1 X97.405 Y50.863 E2.65426
G1 X98.31 Y49.818 E2.72323
G1 X99.076 Y48.921 E2.78208
G1 X99.434 Y48.564 E2.8073
G1 X99.83 Y48.276 E2.83173
G1 X100.187 Y48.057 E2.85262
G1 X103.523 Y46.131 E3.0448
G1 X104.092 Y45.813 E3.07732
G1 X104.551 Y45.602 E3.10253
G1 X105.038 Y45.466 E3.12775
G1 X105.54 Y45.408 E3.15297
G1 X106.046 Y45.43 E3.17823
G1 X106.541 Y45.532 E3.20345
G1 X107.014 Y45.71 E3.22866
G1 X107.453 Y45.96 E3.25387
G1 X107.657 Y46.111 E3.26653
G1 X108.307 Y46.633 E3.30812
G1 X110.467 Y48.323 E3.44495
G1 X112.66 Y49.944 E3.581
G1 X114.913 Y51.509 E3.71786
G1 X117.188 Y52.996 E3.85346
G1 X119.553 Y54.449 E3.99194
G1 X121.899 Y55.799 E4.12697
G1 X124.33 Y57.11 E4.26477
G1 X126.793 Y58.349 E4.40232
G1 X129.22 Y59.485 E4.53601
G1 X131.78 Y60.595 E4.67522
G1 X134.294 Y61.603 E4.81035
G1 X136.871 Y62.553 E4.94737
G1 X139.464 Y63.425 E5.08386
G1 X142.083 Y64.224 E5.22047
G1 X144.746 Y64.957 E5.35826
G1 X147.404 Y65.607 E5.49478
G1 X150.04 Y66.171 E5.62927
G1 X152.766 Y66.676 E5.76758
G1 X155.48 Y67.099 E5.90462
G1 X158.146 Y67.439 E6.0387
G1 X160.921 Y67.713 E6.17782
G1 X163.617 Y67.902 E6.31266
G1 X165.751 Y67.977 E6.41919
G1 X167.148 Y68.038 E6.48895
G1 X167.649 Y68.1 E6.51414
G1 X168.135 Y68.24 E6.53937
G1 X168.593 Y68.455 E6.56461
G1 X169.011 Y68.739 E6.58982
G1 X169.46 Y69.179 E6.62119
G1 X169.538 Y69.272 E6.62724
G1 X169.71 Y69.497 E6.64137
G1 X171.161 Y71.577 E6.7679
G1 X172.783 Y73.767 E6.90386
G1 X173.361 Y74.526 E6.95146
G1 X173.634 Y74.951 E6.97666
G1 X173.838 Y75.414 E7.0019
G1 X173.965 Y75.904 E7.02715
G1 X174.013 Y76.367 E7.05038
G1 X174.025 Y76.79 E7.07149
G1 X174.025 Y81.803 E7.32159
G1 X174.014 Y82.513 E7.35702
G1 X173.975 Y82.96 E7.3794
G1 X173.779 Y84.207 E7.44238
G1 X173.742 Y84.424 E7.45336
G1 X173.352 Y87.158 E7.59114
G1 X173.043 Y89.856 E7.72662
G1 X172.81 Y92.571 E7.86257
G1 X172.654 Y95.314 E7.99964
G1 X172.574 Y98.069 E8.13715
G1 X172.572 Y100.788 E8.2728
G1 X172.648 Y103.536 E8.40995
G1 X172.801 Y106.254 E8.54577
G1 X173.033 Y108.997 E8.68311
G1 X173.341 Y111.731 E8.82037
G1 X173.725 Y114.439 E8.95682
G1 X173.972 Y115.939 E9.03267
G1 X174.014 Y116.362 E9.05387
G1 X174.024 Y116.693 E9.07039
G1 X174.025 Y121.795 E9.32493
G1 X174.015 Y122.501 E9.36016
G1 X173.968 Y123.005 E9.38541
G1 X173.842 Y123.494 E9.41061
G1 X173.641 Y123.958 E9.43583
G1 X173.441 Y124.284 E9.45492
G1 X172.912 Y125.044 E9.50111
G1 X172.307 Y125.888 E9.55292
G1 X170.798 Y128.123 E9.68746
G1 X170.123 Y129.185 E9.75024
G1 X169.692 Y129.841 E9.7894
G1 X169.382 Y130.24 E9.81461
G1 X169.013 Y130.586 E9.83985
G1 X168.594 Y130.869 E9.86507
G1 X168.006 Y131.128 E9.89713
G1 X167.544 Y131.278 E9.92136
G1 X164.959 Y132.152 E10.0575
G1 X162.373 Y133.109 E10.19507
G1 X159.85 Y134.126 E10.33078
G1 X157.315 Y135.23 E10.46872
G1 X154.849 Y136.389 E10.60466
G1 X152.415 Y137.619 E10.74072
G1 X150.006 Y138.921 E10.87734
G1 X147.613 Y140.306 E11.01528
G1 X145.298 Y141.733 E11.15095
G1 X143.022 Y143.227 E11.28678
G1 X140.741 Y144.82 E11.42559
G1 X138.577 Y146.421 E11.55988
G1 X136.401 Y148.129 E11.69789
G1 X134.304 Y149.873 E11.83397
G1 X132.269 Y151.668 E11.96934
G1 X130.237 Y153.563 E12.10796
G1 X128.327 Y155.447 E12.24181
G1 X126.4 Y157.46 E12.38084
G1 X124.562 Y159.49 E12.51746
G1 X123.621 Y160.577 E12.58919
G1 X122.884 Y161.442 E12.64588
G1 X122.466 Y161.851 E12.67506
G1 X122.12 Y162.099 E12.6963
G1 X121.851 Y162.266 E12.7121
G1 X118.424 Y164.246 E12.90955
G1 X117.856 Y164.564 E12.94203
G1 X117.397 Y164.776 E12.96725
G1 X116.91 Y164.912 E12.99248
G1 X116.408 Y164.97 E13.01769
G1 X115.903 Y164.948 E13.04291
G1 X115.407 Y164.847 E13.06816
G1 X114.934 Y164.669 E13.09338
G1 X114.495 Y164.419 E13.11858
G1 X114.289 Y164.267 E13.13135
G1 X113.639 Y163.745 E13.17295
G1 X111.479 Y162.055 E13.30977
G1 X109.286 Y160.434 E13.44583
G1 X107.033 Y158.869 E13.58269
G1 X104.758 Y157.382 E13.71828
G1 X102.393 Y155.929 E13.85676
G1 X100.047 Y154.579 E13.9918
G1 X97.616 Y153.268 E14.12959
G1 X95.153 Y152.029 E14.26715
G1 X92.726 Y150.893 E14.40084
G1 X90.166 Y149.783 E14.54004
G1 X87.652 Y148.775 E14.67517
G1 X85.075 Y147.825 E14.8122
G1 X82.482 Y146.953 E14.94868
G1 X79.863 Y146.154 E15.08529
G1 X77.2 Y145.421 E15.22309
G1 X74.542 Y144.771 E15.35961
G1 X71.906 Y144.207 E15.49409
G1 X69.18 Y143.702 E15.63241
G1 X66.466 Y143.279 E15.76944
G1 X63.8 Y142.939 E15.90353
G1 X61.025 Y142.665 E16.04265
G1 X58.329 Y142.476 E16.17748
G1 X56.196 Y142.401 E16.28396
G1 X54.799 Y142.34 E16.35373
G1 X54.298 Y142.278 E16.37891
G1 X53.656 Y142.075 E16.4125
G1 X53.195 Y141.829 E16.43857
G1 X52.792 Y141.523 E16.46382
G1 X52.32 Y140.997 E16.49908
G1 X52.175 Y140.793 E16.51156
G1 X50.82 Y138.849 E16.62979
G1 X49.13 Y136.566 E16.7715
G1 X48.587 Y135.854 E16.81617
G1 X48.313 Y135.428 E16.84144
G1 X48.11 Y134.966 E16.86662
G1 X47.982 Y134.476 E16.89188
G1 X47.934 Y134.012 E16.91515
G1 X47.922 Y133.589 E16.93627
G1 X47.922 Y128.551 E17.18761
G1 X47.933 Y127.865 E17.22184
G1 X47.972 Y127.419 E17.24418
G1 X48.168 Y126.172 E17.30716
G1 X48.205 Y125.955 E17.31814
G1 X48.595 Y123.221 E17.45592
G1 X48.904 Y120.523 E17.5914
G1 X49.137 Y117.808 E17.72735
G1 X49.293 Y115.065 E17.86442
G1 X49.373 Y112.31 E18.00193
G1 X49.375 Y109.591 E18.13758
G1 X49.299 Y106.843 E18.27473
G1 X49.146 Y104.124 E18.4106
G1 X48.914 Y101.382 E18.54788
G1 X48.606 Y98.647 E18.6852
G1 X48.228 Y95.979 E18.81963
G1 X47.973 Y94.425 E18.8982
G1 X47.932 Y93.998 E18.9196
G1 X47.922 Y93.589 E18.94001
G1 X47.922 Y88.581 E19.18986
G1 X47.932 Y87.877 E19.22499
G1 X47.979 Y87.373 E19.25024
G1 X48.105 Y86.884 E19.27543
G1 X48.307 Y86.42 E19.30068
G1 X48.505 Y86.094 E19.31971
G1 X49.034 Y85.335 E19.36587
G1 X49.639 Y84.491 E19.41767
G1 X51.165 Y82.23 E19.55376
G1 X51.827 Y81.188 E19.61535
G1 X52.251 Y80.541 E19.65395
G1 X52.56 Y80.141 E19.67916
G1 X52.929 Y79.795 E19.7044
G1 X53.348 Y79.512 E19.72963
G1 F1500 E13.22963
;MESH:rpi_screen-Support (Meshed).stl
G0 F9000 X55.336 Y81.621
G0 X55.336 Y82.7
G0 X56.322 Y83.686
;TYPE:WALL-INNER
G1 F1500 E19.72963
G1 F3000 X58.322 Y83.686 E19.82941
G1 X58.322 Y93.102 E20.29917
G1 X58.371 Y93.683 E20.32826
G1 X58.537 Y94.311 E20.36067
G1 X58.804 Y94.899 E20.39289
G1 X59.166 Y95.436 E20.4252
G1 X59.617 Y95.902 E20.45755
G1 X60.139 Y96.287 E20.48991
G1 X60.502 Y96.468 E20.51015
G1 X60.718 Y96.575 E20.52217
G1 X61.002 Y96.661 E20.53698
G1 X60.786 Y96.746 E20.53896
G1 X60.561 Y96.834 E20.54804
G1 X60.431 Y96.885 E20.55501
G1 X59.877 Y97.224 E20.58741
G1 X59.389 Y97.647 E20.61963
G1 X58.976 Y98.153 E20.65221
G1 X58.66 Y98.72 E20.6846
G1 X58.442 Y99.33 E20.71692
G1 X58.437 Y99.364 E20.71863
G1 X58.343 Y99.916 E20.74657
G1 X58.338 Y99.941 E20.74784
G1 X58.322 Y100.264 E20.76397
G1 X58.322 Y116.969 E21.59739
G1 X58.369 Y117.552 E21.62657
G1 X58.536 Y118.183 E21.65913
G1 X58.789 Y118.742 E21.68975
G1 X58.987 Y119.068 E21.70877
G1 X59.374 Y119.546 E21.73946
G1 X59.865 Y119.976 E21.77202
G1 X60.412 Y120.312 E21.80405
G1 X61.01 Y120.551 E21.83618
G1 X61.606 Y120.678 E21.86658
G1 X61.639 Y120.686 E21.86827
G1 X62.285 Y120.715 E21.90053
G1 X62.464 Y120.691 E21.90954
G1 X62.929 Y120.631 E21.93294
G1 X62.95 Y120.625 E21.93403
G1 X63.149 Y120.563 E21.94442
G1 X62.992 Y120.701 E21.94577
G1 X62.978 Y120.714
G1 X62.637 Y121.034 E21.96065
G1 X59.441 Y124.034 E22.17934
G1 X59.071 Y124.455 E22.2073
G1 X58.748 Y124.972 E22.23772
G1 X58.513 Y125.53 E22.26792
G1 X58.368 Y126.116 E22.29804
G1 X58.323 Y126.67 E22.32577
G1 X58.322 Y137.752 E22.87865
G1 X56.322 Y137.752 E22.97843
G1 X56.322 Y131.319 E23.29938
G1 X52.522 Y131.319 E23.48896
G1 X52.522 Y129.319 E23.58874
G1 X56.322 Y129.319 E23.77832
G1 X56.322 Y91.319 E25.67415
G1 X52.522 Y91.319 E25.86373
G1 X52.522 Y89.319 E25.96351
G1 X56.322 Y89.319 E26.1531
G1 X56.322 Y83.686 E26.43413
G1 F1500 E19.93413
G0 F9000 X58.14 Y83.868
G0 X59.322 Y93.519
G0 X59.445 Y93.988
G0 X59.645 Y94.428
G0 X59.915 Y94.828
G0 X60.251 Y95.177
G0 X60.641 Y95.463
G0 X61.074 Y95.68
G0 X61.537 Y95.818
G0 X62.017 Y95.878
G0 X62.485 Y95.854
G0 X65.128 Y95.442
G0 X67.699 Y94.923
G0 X69.12 Y94.573
G0 X81.374 Y91.126
G1 F1500 E26.43413
G1 F3000 X81.55 Y91.04 E26.4439
G1 X82.044 Y90.797 E26.47137
G1 X82.178 Y90.731 E26.47882
G1 X82.845 Y90.402 E26.51593
G1 X85.213 Y89.098 E26.65079
G1 X87.491 Y87.715 E26.78375
G1 X89.528 Y86.356 E26.90592
G1 X89.604 Y86.305 E26.91048
G1 X89.673 Y86.259 E26.91462
G1 X90.059 Y85.976 E26.9385
G1 X90.27 Y85.821 E26.95156
G1 X90.112 Y86.046 E26.95348
G1 X89.911 Y86.395 E26.96178
G1 X89.797 Y86.594 E26.97153
G1 X89.759 Y86.677 E26.9758
G1 X89.53 Y87.166 E27.00273
G1 X89.309 Y87.761 E27.0344
G1 X89.147 Y88.37 E27.06584
G1 X89.145 Y88.384 E27.06655
G1 X89.031 Y88.99 E27.09731
G1 X88.973 Y89.628 E27.12927
G1 X88.969 Y90.254 E27.1605
G1 X89.021 Y90.891 E27.19239
G1 X89.124 Y91.514 E27.22389
G1 X89.282 Y92.125 E27.25538
G1 X89.489 Y92.716 E27.28662
G1 X89.751 Y93.293 E27.31823
G1 X90.065 Y93.851 E27.35018
G1 X90.419 Y94.373 E27.38164
G1 X90.818 Y94.863 E27.41317
G1 X91.253 Y95.312 E27.44436
G1 X91.736 Y95.73 E27.47623
G1 X92.246 Y96.104 E27.50778
G1 X92.791 Y96.431 E27.53949
G1 X93.356 Y96.708 E27.57088
G1 X93.944 Y96.936 E27.60235
G1 X94.543 Y97.112 E27.63349
G1 X95.171 Y97.239 E27.66546
G1 X95.794 Y97.306 E27.69672
G1 X96.268 Y97.318 E27.72038
G1 X96.432 Y97.322 E27.72856
G1 X97.061 Y97.284 E27.76
G1 X97.268 Y97.253 E27.77044
G1 X97.091 Y97.342 E27.77111
G1 X96.575 Y97.604 E27.78454
G1 X96.429 Y97.678 E27.79188
G1 X94.362 Y98.725 E27.90748
G1 X90.147 Y101.028 E28.14711
G1 X88.277 Y102.128 E28.25535
G1 X88.077 Y102.245 E28.26691
G1 X87.601 Y102.525 E28.29446
G1 X87.479 Y102.597 E28.30153
G1 X87.576 Y102.485 E28.3022
G1 X87.933 Y102.001 E28.31566
G1 X88.054 Y101.804 E28.32556
G1 X88.249 Y101.485 E28.34422
G1 X88.516 Y100.944 E28.37431
G1 X88.738 Y100.383 E28.40441
G1 X88.907 Y99.807 E28.43436
G1 X89.03 Y99.217 E28.46443
G1 X89.1 Y98.615 E28.49467
G1 X89.118 Y98.014 E28.52466
G1 X89.085 Y97.413 E28.55469
G1 X89.003 Y96.816 E28.58476
G1 X88.866 Y96.228 E28.61488
G1 X88.68 Y95.655 E28.64493
G1 X88.447 Y95.099 E28.67501
G1 X88.166 Y94.564 E28.70516
G1 X87.839 Y94.057 E28.73526
G1 X87.471 Y93.58 E28.76532
G1 X87.064 Y93.136 E28.79536
G1 X86.618 Y92.727 E28.82556
G1 X86.14 Y92.362 E28.85556
G1 X85.635 Y92.035 E28.88558
G1 X85.101 Y91.755 E28.91566
G1 X84.545 Y91.521 E28.94575
G1 X83.97 Y91.335 E28.9759
G1 X83.384 Y91.199 E29.00592
G1 X82.803 Y91.12 E29.03517
G1 X82.786 Y91.117 E29.03603
G1 X82.77 Y91.117 E29.03683
G1 X82.336 Y91.092 E29.05852
G1 X82.186 Y91.084 E29.0653
G1 X81.581 Y91.102 E29.08242
G1 X81.374 Y91.126 E29.08373
G1 F1500 E22.58373
G0 F9000 X91.269 Y83.897
G0 X93.315 Y82.255
G0 X95.259 Y80.554
G0 X97.182 Y78.715
G0 X98.997 Y76.821
G0 X99.48 Y76.272
G0 X107.596 Y66.737
G1 F1500 E29.08373
G1 F3000 X107.715 Y66.521 E29.09603
G1 X107.908 Y66.17 E29.11602
G1 X108.872 Y64.426 E29.21543
G1 X109.103 Y63.883 E29.24487
G1 X109.248 Y63.264 E29.27659
G1 X109.286 Y62.662 E29.30669
G1 X109.289 Y62.629 E29.30834
G1 X109.227 Y61.995 E29.34012
G1 X109.055 Y61.38 E29.37198
G1 X108.809 Y60.854 E29.40095
G1 X103.51 Y51.678 E29.92959
G1 X103.411 Y51.506 E29.9395
G1 X103.583 Y51.407 E29.9459
G1 X105.145 Y50.505 E30.03589
G1 X132.179 Y97.331 E32.73342
G1 X130.444 Y98.331 E32.83333
G1 X125.345 Y89.497 E33.34221
G1 X125.021 Y89.024 E33.37081
G1 X124.569 Y88.566 E33.40292
G1 X124.058 Y88.195 E33.43442
G1 X123.488 Y87.911 E33.46619
G1 X122.873 Y87.724 E33.49826
G1 X122.247 Y87.647 E33.52973
G1 X121.653 Y87.671 E33.55939
G1 X121.614 Y87.672 E33.56133
G1 X121.181 Y87.763 E33.58341
G1 X121.034 Y87.794 E33.5909
G1 X121.159 Y87.661 E33.59311
G1 X121.328 Y87.447 E33.59973
G1 X121.352 Y87.417 E33.60156
G1 X121.559 Y87.155 E33.61822
G1 X121.872 Y86.59 E33.65045
G1 X122.084 Y85.974 E33.68295
G1 X122.184 Y85.335 E33.71522
G1 X122.181 Y84.689 E33.74745
G1 X122.062 Y84.049 E33.77992
G1 X121.851 Y83.47 E33.81067
G1 X121.698 Y83.176 E33.8272
G1 X112.917 Y67.972 E34.70315
G1 X112.582 Y67.486 E34.7326
G1 X112.12 Y67.021 E34.7653
G1 X111.587 Y66.642 E34.79793
G1 X110.997 Y66.359 E34.83058
G1 X110.364 Y66.183 E34.86336
G1 X109.718 Y66.118 E34.89575
G1 X109.066 Y66.16 E34.92834
G1 X108.427 Y66.318 E34.96118
G1 X108.195 Y66.421 E34.97385
G1 X107.829 Y66.583 E34.98742
G1 X107.596 Y66.737 E34.99067
G1 F1500 E28.49067
G0 F9000 X91.239 Y86.112
G0 X90.65 Y87.038
G0 X90.226 Y88.051
G0 X89.985 Y89.122
G0 X89.93 Y90.217
G0 X90.065 Y91.315
G0 X90.382 Y92.358
G0 X90.881 Y93.344
G0 X91.536 Y94.224
G0 X92.334 Y94.979
G0 X93.249 Y95.586
G0 X94.062 Y95.942
G0 X97.02 Y96.886
G1 F1500 E34.99067
G1 F3000 X97.209 Y96.859 E35.0002
G1 X97.604 Y96.8 E35.02012
G1 X98.186 Y96.663 E35.04995
G1 X98.755 Y96.475 E35.07985
G1 X99.273 Y96.253 E35.10797
G1 X103.014 Y94.565 E35.31272
G1 X105.014 Y93.663 E35.42218
G1 X105.885 Y93.27 E35.46986
G1 X106.435 Y93.052 E35.49937
G1 X107.427 Y92.661 E35.55257
G1 X111.882 Y90.9 E35.79156
G1 X112.285 Y90.741 E35.81318
G1 X112.563 Y90.631 E35.82809
G1 X116.422 Y89.316 E36.03149
G1 X118.583 Y88.579 E36.1454
G1 X119.467 Y88.277 E36.19201
G1 X119.946 Y88.079 E36.21787
G1 X120.436 Y87.772 E36.24671
G1 X120.867 Y87.386 E36.27558
G1 X121.225 Y86.933 E36.30439
G1 X121.505 Y86.427 E36.33324
G1 X121.694 Y85.877 E36.36225
G1 X121.784 Y85.305 E36.39114
G1 X121.781 Y84.727 E36.41998
G1 X121.675 Y84.155 E36.449
G1 X121.484 Y83.632 E36.47678
G1 X121.347 Y83.369 E36.49157
G1 X112.579 Y68.186 E37.36629
G1 X112.273 Y67.743 E37.39315
G1 X111.86 Y67.327 E37.4224
G1 X111.383 Y66.988 E37.45159
G1 X110.856 Y66.735 E37.48076
G1 X110.323 Y66.588 E37.50834
G1 X110.29 Y66.578 E37.51006
G1 X109.711 Y66.519 E37.5391
G1 X109.127 Y66.557 E37.5683
G1 X108.557 Y66.698 E37.59759
G1 X108.022 Y66.935 E37.62678
G1 X107.535 Y67.258 E37.65594
G1 X107.11 Y67.663 E37.68523
G1 X106.797 Y68.082 E37.71132
G1 X106.568 Y68.426 E37.73194
G1 X106.147 Y69.058 E37.76982
G1 X104.7 Y71.228 E37.89995
G1 X104.445 Y71.61 E37.92286
G1 X104.305 Y71.82 E37.93545
G1 X104.028 Y72.177 E37.958
G1 X103.102 Y73.371 E38.03338
G1 X101.604 Y75.302 E38.15531
G1 X101.422 Y75.504 E38.16887
G1 X99.681 Y77.442 E38.29885
G1 X98.898 Y78.314 E38.35731
G1 X98.633 Y78.608 E38.37706
G1 X98.387 Y78.845 E38.3941
G1 X97.836 Y79.376 E38.43228
G1 X95.901 Y81.24 E38.56632
G1 X95.45 Y81.675 E38.59759
G1 X93.906 Y82.962 E38.69787
G1 X92.265 Y84.329 E38.80442
G1 X92.019 Y84.534 E38.8204
G1 X91.599 Y84.888 E38.8478
G1 X91.176 Y85.312 E38.87768
G1 X90.793 Y85.772 E38.90754
G1 X90.45 Y86.261 E38.93734
G1 X90.152 Y86.779 E38.96716
G1 X89.899 Y87.32 E38.99695
G1 X89.894 Y87.335 E38.99774
G1 X89.691 Y87.882 E39.02685
G1 X89.542 Y88.442 E39.05576
G1 X89.537 Y88.458 E39.0566
G1 X89.535 Y88.473 E39.05735
G1 X89.428 Y89.045 E39.08639
G1 X89.373 Y89.648 E39.1166
G1 X89.369 Y90.239 E39.14608
G1 X89.418 Y90.842 E39.17626
G1 X89.516 Y91.431 E39.20605
G1 X89.665 Y92.009 E39.23583
G1 X89.861 Y92.567 E39.26534
G1 X90.108 Y93.112 E39.29519
G1 X90.405 Y93.64 E39.32541
G1 X90.74 Y94.134 E39.35519
G1 X91.117 Y94.597 E39.38498
G1 X91.528 Y95.021 E39.41444
G1 X91.985 Y95.417 E39.44461
G1 X92.468 Y95.77 E39.47446
G1 X92.982 Y96.079 E39.50438
G1 X93.517 Y96.341 E39.5341
G1 X94.073 Y96.557 E39.56386
G1 X94.639 Y96.723 E39.59328
