;FLAVOR:Marlin
;TIME:25131
;Filament used: 33.4828m
;Layer height: 0.4
;MINX:14.35
;MINY:35.399
;MINZ:0.3
;MAXX:205.65
;MAXY:184.601
;MAXZ:22.7
;Generated with Cura_SteamEngine 4.8.0
M140 S60
M105
M190 S60
M104 S200
M105
M109 S200
M82 ;absolute extrusion mode
G28 ;Home
G1 Z15.0 F2000 ;Move the platform
G92 E0
G92 E0
G1 F1500 E-6.5
;LAYER_COUNT:57
;LAYER:0
M107
M204 S1000
G0 F7500 X22.631 Y37.877 Z0.3
;TYPE:SKIRT
G1 F1500 E0
G1 X23.222 Y37.536 E0.03404
G1 X23.948 Y37.158 E0.07488
G1 X24.557 Y36.873 E0.10842
G1 X25.308 Y36.561 E0.14899
G1 X25.958 Y36.324 E0.18351
G1 X26.736 Y36.079 E0.22421
G1 X27.39 Y35.904 E0.25798
G1 X28.188 Y35.727 E0.29876
G1 X28.864 Y35.608 E0.33301
G1 X29.673 Y35.502 E0.37371
G1 X30.341 Y35.444 E0.40716
G1 X31.155 Y35.408 E0.44781
G1 X31.5 Y35.4 E0.46503
G1 X188.499 Y35.399 E8.29774
G1 X188.853 Y35.407 E8.31541
G1 X189.668 Y35.444 E8.35611
G1 X190.327 Y35.502 E8.38912
G1 X191.136 Y35.608 E8.42982
G1 X191.812 Y35.727 E8.46407
G1 X192.61 Y35.904 E8.50485
G1 X193.264 Y36.079 E8.53862
G1 X194.042 Y36.324 E8.57932
G1 X194.692 Y36.561 E8.61383
G1 X195.443 Y36.873 E8.65441
G1 X196.052 Y37.158 E8.68795
G1 X196.776 Y37.535 E8.72867
G1 X197.365 Y37.875 E8.7626
G1 X198.054 Y38.314 E8.80336
G1 X198.607 Y38.701 E8.83704
G1 X199.253 Y39.196 E8.87764
G1 X199.785 Y39.642 E8.91228
G1 X200.386 Y40.194 E8.95299
G1 X200.836 Y40.643 E8.9847
G1 X201.367 Y41.218 E9.02375
G1 X201.477 Y41.341 E9.03198
G1 X201.854 Y41.797 E9.0615
G1 X202.349 Y42.443 E9.1021
G1 X202.735 Y42.994 E9.13567
G1 X203.173 Y43.681 E9.17631
G1 X203.514 Y44.272 E9.21036
G1 X203.892 Y44.998 E9.25119
G1 X204.177 Y45.607 E9.28474
G1 X204.489 Y46.358 E9.32531
G1 X204.726 Y47.008 E9.35983
G1 X204.971 Y47.786 E9.40052
G1 X205.145 Y48.438 E9.43419
G1 X205.322 Y49.235 E9.47492
G1 X205.442 Y49.911 E9.50917
G1 X205.548 Y50.719 E9.54983
G1 X205.606 Y51.39 E9.58343
G1 X205.642 Y52.206 E9.62418
G1 X205.65 Y52.55 E9.64135
G1 X205.65 Y167.449 E15.37368
G1 X205.643 Y167.783 E15.39035
G1 X205.608 Y168.599 E15.4311
G1 X205.547 Y169.289 E15.46565
G1 X205.44 Y170.097 E15.50632
G1 X205.323 Y170.762 E15.54
G1 X205.146 Y171.56 E15.58078
G1 X204.972 Y172.211 E15.6144
G1 X204.728 Y172.987 E15.65499
G1 X204.49 Y173.641 E15.68971
G1 X204.177 Y174.394 E15.73039
G1 X203.892 Y175.002 E15.76389
G1 X203.515 Y175.726 E15.80462
G1 X203.177 Y176.313 E15.83841
G1 X202.739 Y177.001 E15.8791
G1 X202.349 Y177.558 E15.91302
G1 X201.853 Y178.205 E15.9537
G1 X201.408 Y178.735 E15.98822
G1 X200.856 Y179.336 E16.02893
G1 X200.407 Y179.786 E16.06065
G1 X199.832 Y180.317 E16.0997
G1 X199.709 Y180.427 E16.10793
G1 X199.253 Y180.804 E16.13745
G1 X198.607 Y181.299 E16.17805
G1 X198.056 Y181.685 E16.21161
G1 X197.369 Y182.123 E16.25226
G1 X196.778 Y182.464 E16.2863
G1 X196.052 Y182.842 E16.32714
G1 X195.443 Y183.127 E16.36068
G1 X194.692 Y183.439 E16.40126
G1 X194.042 Y183.676 E16.43577
G1 X193.264 Y183.921 E16.47647
G1 X192.61 Y184.096 E16.51024
G1 X191.812 Y184.273 E16.55102
G1 X191.136 Y184.392 E16.58527
G1 X190.327 Y184.498 E16.62597
G1 X189.659 Y184.556 E16.65943
G1 X188.845 Y184.592 E16.70008
G1 X188.5 Y184.6 E16.71729
G1 X31.501 Y184.601 E24.55
G1 X31.147 Y184.593 E24.56767
G1 X30.332 Y184.556 E24.60837
G1 X29.673 Y184.498 E24.64138
G1 X28.864 Y184.392 E24.68208
G1 X28.188 Y184.273 E24.71633
G1 X27.39 Y184.096 E24.75711
G1 X26.736 Y183.921 E24.79088
G1 X25.958 Y183.676 E24.83158
G1 X25.308 Y183.439 E24.86609
G1 X24.557 Y183.127 E24.90667
G1 X23.948 Y182.842 E24.94021
G1 X23.222 Y182.464 E24.98105
G1 X22.631 Y182.123 E25.01509
G1 X21.944 Y181.685 E25.05574
G1 X21.393 Y181.299 E25.0893
G1 X20.747 Y180.804 E25.1299
G1 X20.214 Y180.357 E25.16461
G1 X19.612 Y179.804 E25.20539
G1 X19.162 Y179.356 E25.23707
G1 X18.633 Y178.782 E25.27601
G1 X18.523 Y178.659 E25.28425
G1 X18.147 Y178.205 E25.31366
G1 X17.651 Y177.558 E25.35433
G1 X17.261 Y177.001 E25.38825
G1 X16.823 Y176.313 E25.42894
G1 X16.485 Y175.726 E25.46274
G1 X16.108 Y175.002 E25.50346
G1 X15.823 Y174.394 E25.53696
G1 X15.51 Y173.641 E25.57764
G1 X15.272 Y172.987 E25.61237
G1 X15.028 Y172.211 E25.65295
G1 X14.854 Y171.56 E25.68657
G1 X14.677 Y170.762 E25.72735
G1 X14.558 Y170.086 E25.76159
G1 X14.452 Y169.277 E25.8023
G1 X14.394 Y168.609 E25.83575
G1 X14.358 Y167.795 E25.8764
G1 X14.35 Y167.45 E25.89362
G1 X14.35 Y52.551 E31.62595
G1 X14.357 Y52.217 E31.64262
G1 X14.392 Y51.401 E31.68337
G1 X14.453 Y50.711 E31.71792
G1 X14.56 Y49.903 E31.75859
G1 X14.677 Y49.238 E31.79227
G1 X14.854 Y48.44 E31.83305
G1 X15.028 Y47.789 E31.86667
G1 X15.272 Y47.013 E31.90726
G1 X15.51 Y46.359 E31.94198
G1 X15.823 Y45.606 E31.98266
G1 X16.108 Y44.998 E32.01616
G1 X16.485 Y44.274 E32.05689
G1 X16.823 Y43.687 E32.09068
G1 X17.261 Y42.999 E32.13137
G1 X17.651 Y42.442 E32.16529
G1 X18.147 Y41.795 E32.20597
G1 X18.592 Y41.265 E32.24049
G1 X19.144 Y40.664 E32.2812
G1 X19.593 Y40.214 E32.31292
G1 X20.168 Y39.683 E32.35197
G1 X20.291 Y39.573 E32.3602
G1 X20.747 Y39.196 E32.38972
G1 X21.393 Y38.701 E32.43032
G1 X21.944 Y38.315 E32.46388
G1 X22.631 Y37.877 E32.50453
G0 F7500 X22.846 Y38.214
G1 F1500 X23.407 Y37.89 E32.53685
G1 X24.133 Y37.512 E32.57769
G1 X24.711 Y37.242 E32.60952
G1 X25.462 Y36.93 E32.65009
G1 X26.078 Y36.706 E32.68279
G1 X26.856 Y36.461 E32.72348
G1 X27.477 Y36.295 E32.75555
G1 X28.275 Y36.118 E32.79633
G1 X28.916 Y36.005 E32.82881
G1 X29.725 Y35.899 E32.86951
G1 X30.359 Y35.843 E32.90127
G1 X31.173 Y35.807 E32.94192
G1 X31.5 Y35.8 E32.95823
G1 X188.499 Y35.799 E40.79095
G1 X188.835 Y35.807 E40.80771
G1 X189.65 Y35.844 E40.84842
G1 X190.275 Y35.899 E40.87972
G1 X191.084 Y36.005 E40.92042
G1 X191.725 Y36.118 E40.9529
G1 X192.523 Y36.295 E40.99368
G1 X193.144 Y36.461 E41.02575
G1 X193.922 Y36.706 E41.06644
G1 X194.538 Y36.93 E41.09914
G1 X195.289 Y37.242 E41.13971
G1 X195.868 Y37.513 E41.17161
G1 X196.592 Y37.89 E41.21233
G1 X197.15 Y38.212 E41.24447
G1 X197.839 Y38.651 E41.28523
G1 X198.364 Y39.018 E41.31719
G1 X199.01 Y39.513 E41.35779
G1 X199.515 Y39.937 E41.39069
G1 X200.116 Y40.489 E41.4314
G1 X200.543 Y40.915 E41.46149
G1 X201.069 Y41.485 E41.50019
G1 X201.179 Y41.608 E41.50842
G1 X201.537 Y42.04 E41.53641
G1 X202.032 Y42.686 E41.57701
G1 X202.398 Y43.209 E41.60886
G1 X202.836 Y43.896 E41.64951
G1 X203.16 Y44.457 E41.68183
G1 X203.538 Y45.183 E41.72267
G1 X203.808 Y45.761 E41.75449
G1 X204.12 Y46.512 E41.79507
G1 X204.344 Y47.128 E41.82777
G1 X204.589 Y47.906 E41.86846
G1 X204.755 Y48.525 E41.90043
G1 X204.932 Y49.322 E41.94117
G1 X205.045 Y49.963 E41.97364
G1 X205.151 Y50.771 E42.0143
G1 X205.207 Y51.408 E42.0462
G1 X205.243 Y52.224 E42.08695
G1 X205.25 Y52.55 E42.10322
G1 X205.25 Y167.449 E47.83555
G1 X205.243 Y167.766 E47.85137
G1 X205.208 Y168.582 E47.89212
G1 X205.151 Y169.236 E47.92487
G1 X205.044 Y170.044 E47.96553
G1 X204.932 Y170.675 E47.9975
G1 X204.755 Y171.473 E48.03828
G1 X204.59 Y172.091 E48.0702
G1 X204.346 Y172.867 E48.11078
G1 X204.12 Y173.487 E48.1437
G1 X203.807 Y174.24 E48.18439
G1 X203.537 Y174.818 E48.21621
G1 X203.16 Y175.542 E48.25694
G1 X202.839 Y176.098 E48.28897
G1 X202.401 Y176.786 E48.32966
G1 X202.032 Y177.314 E48.3618
G1 X201.536 Y177.961 E48.40247
G1 X201.113 Y178.465 E48.4353
G1 X200.561 Y179.066 E48.47601
G1 X200.135 Y179.493 E48.5061
G1 X199.565 Y180.019 E48.5448
G1 X199.442 Y180.129 E48.55303
G1 X199.01 Y180.487 E48.58102
G1 X198.364 Y180.982 E48.62162
G1 X197.841 Y181.348 E48.65347
G1 X197.154 Y181.786 E48.69412
G1 X196.593 Y182.11 E48.72644
G1 X195.867 Y182.488 E48.76727
G1 X195.289 Y182.758 E48.7991
G1 X194.538 Y183.07 E48.83967
G1 X193.922 Y183.294 E48.87237
G1 X193.144 Y183.539 E48.91307
G1 X192.523 Y183.705 E48.94514
G1 X191.725 Y183.882 E48.98592
G1 X191.084 Y183.995 E49.01839
G1 X190.275 Y184.101 E49.0591
G1 X189.641 Y184.157 E49.09085
G1 X188.827 Y184.193 E49.1315
G1 X188.5 Y184.2 E49.14782
G1 X31.501 Y184.201 E56.98053
G1 X31.165 Y184.193 E56.9973
G1 X30.35 Y184.156 E57.038
G1 X29.725 Y184.101 E57.0693
G1 X28.916 Y183.995 E57.11001
G1 X28.275 Y183.882 E57.14248
G1 X27.477 Y183.705 E57.18326
G1 X26.856 Y183.539 E57.21533
G1 X26.078 Y183.294 E57.25602
G1 X25.462 Y183.07 E57.28873
G1 X24.711 Y182.758 E57.3293
G1 X24.133 Y182.488 E57.36113
G1 X23.407 Y182.11 E57.40196
G1 X22.846 Y181.786 E57.43428
G1 X22.159 Y181.348 E57.47493
G1 X21.636 Y180.982 E57.50678
G1 X20.99 Y180.487 E57.54738
G1 X20.485 Y180.063 E57.58028
G1 X19.883 Y179.51 E57.62106
G1 X19.456 Y179.084 E57.65115
G1 X18.931 Y178.515 E57.68978
G1 X18.821 Y178.392 E57.69801
G1 X18.464 Y177.961 E57.72593
G1 X17.968 Y177.314 E57.7666
G1 X17.599 Y176.786 E57.79874
G1 X17.161 Y176.098 E57.83943
G1 X16.84 Y175.542 E57.87146
G1 X16.463 Y174.818 E57.91218
G1 X16.193 Y174.24 E57.94401
G1 X15.88 Y173.487 E57.9847
G1 X15.654 Y172.867 E58.01762
G1 X15.41 Y172.091 E58.0582
G1 X15.245 Y171.473 E58.09011
G1 X15.068 Y170.675 E58.13089
G1 X14.955 Y170.034 E58.16337
G1 X14.849 Y169.225 E58.20407
G1 X14.793 Y168.591 E58.23583
G1 X14.757 Y167.777 E58.27648
G1 X14.75 Y167.45 E58.29279
G1 X14.75 Y52.551 E64.02513
G1 X14.757 Y52.234 E64.04095
G1 X14.792 Y51.418 E64.0817
G1 X14.849 Y50.764 E64.11445
G1 X14.956 Y49.956 E64.15511
G1 X15.068 Y49.325 E64.18708
G1 X15.245 Y48.527 E64.22786
G1 X15.41 Y47.909 E64.25978
G1 X15.654 Y47.133 E64.30036
G1 X15.88 Y46.513 E64.33328
G1 X16.193 Y45.76 E64.37397
G1 X16.463 Y45.182 E64.40579
G1 X16.84 Y44.458 E64.44652
G1 X17.161 Y43.902 E64.47855
G1 X17.599 Y43.214 E64.51924
G1 X17.968 Y42.686 E64.55137
G1 X18.464 Y42.039 E64.59205
G1 X18.887 Y41.535 E64.62487
G1 X19.439 Y40.934 E64.66559
G1 X19.865 Y40.507 E64.69568
G1 X20.435 Y39.981 E64.73437
G1 X20.558 Y39.871 E64.74261
G1 X20.99 Y39.513 E64.7706
G1 X21.636 Y39.018 E64.8112
G1 X22.159 Y38.652 E64.84305
G1 X22.846 Y38.214 E64.8837
G0 F7500 X23.061 Y38.552
G1 F1500 X23.591 Y38.245 E64.91425
G1 X24.317 Y37.867 E64.95509
G1 X24.864 Y37.612 E64.9852
G1 X25.615 Y37.3 E65.02577
G1 X26.198 Y37.087 E65.05674
G1 X26.976 Y36.842 E65.09743
G1 X27.563 Y36.685 E65.12775
G1 X28.361 Y36.508 E65.16853
G1 X28.968 Y36.401 E65.19928
G1 X29.777 Y36.295 E65.23998
G1 X30.377 Y36.243 E65.27003
G1 X31.191 Y36.207 E65.31068
G1 X31.5 Y36.2 E65.3261
G1 X188.499 Y36.199 E73.15881
G1 X188.816 Y36.206 E73.17463
G1 X189.631 Y36.243 E73.21533
G1 X190.223 Y36.295 E73.24498
G1 X191.032 Y36.401 E73.28569
G1 X191.639 Y36.508 E73.31644
G1 X192.437 Y36.685 E73.35722
G1 X193.024 Y36.842 E73.38753
G1 X193.802 Y37.087 E73.42823
G1 X194.385 Y37.3 E73.45919
G1 X195.136 Y37.612 E73.49976
G1 X195.683 Y37.867 E73.52987
G1 X196.407 Y38.244 E73.5706
G1 X196.935 Y38.549 E73.60102
G1 X197.624 Y38.988 E73.64178
G1 X198.121 Y39.336 E73.67205
G1 X198.767 Y39.831 E73.71265
G1 X199.244 Y40.232 E73.74374
G1 X199.845 Y40.784 E73.78445
G1 X200.249 Y41.186 E73.81289
G1 X200.771 Y41.752 E73.8513
G1 X200.881 Y41.875 E73.85953
G1 X201.219 Y42.283 E73.88597
G1 X201.714 Y42.929 E73.92657
G1 X202.06 Y43.424 E73.9567
G1 X202.498 Y44.111 E73.99735
G1 X202.805 Y44.641 E74.0279
G1 X203.183 Y45.367 E74.06874
G1 X203.438 Y45.914 E74.09885
G1 X203.75 Y46.665 E74.13942
G1 X203.963 Y47.248 E74.17039
G1 X204.208 Y48.026 E74.21108
G1 X204.365 Y48.611 E74.2413
G1 X204.542 Y49.408 E74.28203
G1 X204.649 Y50.015 E74.31278
G1 X204.755 Y50.823 E74.35344
G1 X204.807 Y51.425 E74.38358
G1 X204.843 Y52.241 E74.42433
G1 X204.85 Y52.55 E74.43975
G1 X204.85 Y167.449 E80.17209
G1 X204.844 Y167.749 E80.18706
G1 X204.809 Y168.565 E80.22781
G1 X204.754 Y169.184 E80.25881
G1 X204.647 Y169.992 E80.29947
G1 X204.542 Y170.589 E80.32971
G1 X204.365 Y171.387 E80.37049
G1 X204.209 Y171.971 E80.40065
G1 X203.965 Y172.747 E80.44124
G1 X203.751 Y173.334 E80.47241
G1 X203.438 Y174.087 E80.51309
G1 X203.183 Y174.633 E80.54315
G1 X202.806 Y175.357 E80.58388
G1 X202.502 Y175.883 E80.61419
G1 X202.064 Y176.571 E80.65488
G1 X201.714 Y177.071 E80.68533
G1 X201.218 Y177.718 E80.726
G1 X200.818 Y178.194 E80.75702
G1 X200.266 Y178.795 E80.79773
G1 X199.864 Y179.199 E80.82617
G1 X199.298 Y179.721 E80.86458
G1 X199.175 Y179.831 E80.87281
G1 X198.767 Y180.169 E80.89924
G1 X198.121 Y180.664 E80.93985
G1 X197.626 Y181.01 E80.96998
G1 X196.939 Y181.448 E81.01063
G1 X196.409 Y181.755 E81.04118
G1 X195.683 Y182.133 E81.08202
G1 X195.136 Y182.388 E81.11213
G1 X194.385 Y182.7 E81.1527
G1 X193.802 Y182.913 E81.18367
G1 X193.024 Y183.158 E81.22436
G1 X192.437 Y183.315 E81.25468
G1 X191.639 Y183.492 E81.29546
G1 X191.032 Y183.599 E81.32621
G1 X190.223 Y183.705 E81.36691
G1 X189.623 Y183.757 E81.39696
G1 X188.809 Y183.793 E81.43761
G1 X188.5 Y183.8 E81.45303
G1 X31.501 Y183.801 E89.28574
G1 X31.184 Y183.794 E89.30156
G1 X30.369 Y183.757 E89.34226
G1 X29.777 Y183.705 E89.37191
G1 X28.968 Y183.599 E89.41262
G1 X28.361 Y183.492 E89.44337
G1 X27.563 Y183.315 E89.48415
G1 X26.976 Y183.158 E89.51446
G1 X26.198 Y182.913 E89.55516
G1 X25.615 Y182.7 E89.58612
G1 X24.864 Y182.388 E89.62669
G1 X24.317 Y182.133 E89.6568
G1 X23.591 Y181.755 E89.69764
G1 X23.061 Y181.448 E89.7282
G1 X22.374 Y181.01 E89.76885
G1 X21.879 Y180.664 E89.79898
G1 X21.233 Y180.169 E89.83958
G1 X20.756 Y179.768 E89.87067
G1 X20.154 Y179.215 E89.91145
G1 X19.75 Y178.812 E89.93992
G1 X19.229 Y178.248 E89.97823
G1 X19.119 Y178.125 E89.98646
G1 X18.782 Y177.718 E90.01282
G1 X18.286 Y177.071 E90.05349
G1 X17.936 Y176.571 E90.08394
G1 X17.498 Y175.883 E90.12463
G1 X17.194 Y175.357 E90.15494
G1 X16.817 Y174.633 E90.19567
G1 X16.562 Y174.087 E90.22573
G1 X16.249 Y173.334 E90.26642
G1 X16.035 Y172.747 E90.29759
G1 X15.791 Y171.971 E90.33817
G1 X15.635 Y171.387 E90.36833
G1 X15.458 Y170.589 E90.40911
G1 X15.351 Y169.982 E90.43986
G1 X15.245 Y169.173 E90.48056
G1 X15.193 Y168.573 E90.51061
G1 X15.157 Y167.759 E90.55126
G1 X15.15 Y167.45 E90.56668
G1 X15.15 Y52.551 E96.29901
G1 X15.156 Y52.251 E96.31398
G1 X15.191 Y51.435 E96.35473
G1 X15.246 Y50.816 E96.38574
G1 X15.353 Y50.008 E96.4264
G1 X15.458 Y49.411 E96.45664
G1 X15.635 Y48.613 E96.49742
G1 X15.791 Y48.029 E96.52758
G1 X16.035 Y47.253 E96.56816
G1 X16.249 Y46.666 E96.59933
G1 X16.562 Y45.913 E96.64002
G1 X16.817 Y45.367 E96.67008
G1 X17.194 Y44.643 E96.71081
G1 X17.498 Y44.117 E96.74112
G1 X17.936 Y43.429 E96.78181
G1 X18.286 Y42.929 E96.81225
G1 X18.782 Y42.282 E96.85293
G1 X19.182 Y41.806 E96.88395
G1 X19.734 Y41.205 E96.92466
G1 X20.136 Y40.801 E96.95309
G1 X20.702 Y40.279 E96.99151
G1 X20.825 Y40.169 E96.99974
G1 X21.233 Y39.831 E97.02617
G1 X21.879 Y39.336 E97.06677
G1 X22.374 Y38.99 E97.0969
G1 X23.061 Y38.552 E97.13755
G0 F7500 X23.276 Y38.889
G1 F1500 X23.776 Y38.6 E97.16636
G1 X24.502 Y38.222 E97.2072
G1 X25.018 Y37.981 E97.23561
G1 X25.769 Y37.669 E97.27619
G1 X26.319 Y37.469 E97.30538
G1 X27.097 Y37.224 E97.34608
G1 X27.65 Y37.076 E97.37464
G1 X28.448 Y36.899 E97.41542
G1 X29.02 Y36.798 E97.4444
G1 X29.829 Y36.692 E97.4851
G1 X30.394 Y36.642 E97.5134
G1 X31.208 Y36.606 E97.55405
G1 X31.5 Y36.6 E97.56862
G1 X188.499 Y36.599 E105.40133
G1 X188.798 Y36.606 E105.41625
G1 X189.613 Y36.643 E105.45696
G1 X190.171 Y36.692 E105.4849
G1 X190.98 Y36.798 E105.52561
G1 X191.552 Y36.899 E105.55459
G1 X192.35 Y37.076 E105.59537
G1 X192.903 Y37.224 E105.62393
G1 X193.681 Y37.469 E105.66462
G1 X194.231 Y37.669 E105.69382
G1 X194.982 Y37.981 E105.73439
G1 X195.498 Y38.222 E105.7628
G1 X196.222 Y38.599 E105.80353
G1 X196.721 Y38.887 E105.83227
G1 X197.41 Y39.326 E105.87303
G1 X197.877 Y39.653 E105.90147
G1 X198.523 Y40.148 E105.94208
G1 X198.974 Y40.526 E105.97143
G1 X199.575 Y41.078 E106.01215
G1 X199.955 Y41.458 E106.03896
G1 X200.473 Y42.018 E106.07702
G1 X200.583 Y42.141 E106.08525
G1 X200.902 Y42.527 E106.11023
G1 X201.397 Y43.173 E106.15083
G1 X201.723 Y43.639 E106.17921
G1 X202.161 Y44.326 E106.21985
G1 X202.45 Y44.826 E106.24867
G1 X202.828 Y45.552 E106.2895
G1 X203.069 Y46.068 E106.31792
G1 X203.381 Y46.819 E106.35849
G1 X203.581 Y47.369 E106.38769
G1 X203.826 Y48.147 E106.42838
G1 X203.974 Y48.698 E106.45684
G1 X204.151 Y49.495 E106.49757
G1 X204.252 Y50.068 E106.5266
G1 X204.358 Y50.876 E106.56726
G1 X204.408 Y51.443 E106.59566
G1 X204.444 Y52.259 E106.63641
G1 X204.45 Y52.55 E106.65093
G1 X204.45 Y167.449 E112.38326
G1 X204.444 Y167.732 E112.39738
