;FLAVOR:Marlin
;TIME:2481
;Filament used: 3.32209m
;Layer height: 0.4
;MINX:88.566
;MINY:82.5
;MINZ:0.3
;MAXX:131.434
;MAXY:134.434
;MAXZ:14.3
;Generated with Cura_SteamEngine 4.8.0
M140 S60
M105
M190 S60
M104 S200
M105
M109 S200
M82 ;absolute extrusion mode
G28 ;Home
G1 Z15.0 F2000 ;Move the platform
G92 E0
G92 E0
G1 F1500 E-6.5
;LAYER_COUNT:36
;LAYER:0
M107
M204 S1000
G0 F7500 X89.604 Y87.168 Z0.3
;TYPE:SKIRT
G1 F1500 E0
G1 X89.989 Y86.772 E0.02755
G1 X90.172 Y86.611 E0.03971
G1 X90.6 Y86.288 E0.06647
G1 X91.222 Y85.968 E0.10136
G1 X91.532 Y85.845 E0.118
G1 X92.044 Y85.685 E0.14476
G1 X92.448 Y85.615 E0.16522
G1 X92.61 Y85.596 E0.17336
G1 X95.372 Y85.231 E0.31235
G1 X98.032 Y84.803 E0.44677
G1 X100.741 Y84.289 E0.58433
G1 X103.379 Y83.709 E0.71909
G1 X106.04 Y83.046 E0.8559
G1 X106.862 Y82.818 E0.89846
G1 X107.604 Y82.625 E0.93671
G1 X108.131 Y82.529 E0.96344
G1 X108.409 Y82.51 E0.97734
G1 X108.83 Y82.5 E0.99835
G1 X110.844 Y82.5 E1.09883
G1 X111.546 Y82.51 E1.13385
G1 X112.055 Y82.554 E1.15934
G1 X112.467 Y82.642 E1.18036
G1 X112.964 Y82.779 E1.20608
G1 X115.598 Y83.465 E1.34187
G1 X118.313 Y84.091 E1.48088
G1 X120.947 Y84.617 E1.61489
G1 X123.615 Y85.074 E1.74993
G1 X126.374 Y85.467 E1.88897
G1 X127.129 Y85.563 E1.92694
G1 X127.262 Y85.582 E1.93364
G1 X127.866 Y85.682 E1.96418
G1 X128.387 Y85.809 E1.99094
G1 X129.032 Y86.09 E2.02604
G1 X129.299 Y86.239 E2.04129
G1 X129.747 Y86.535 E2.06808
G1 X130.146 Y86.894 E2.09486
G1 X130.421 Y87.217 E2.11602
G1 X130.601 Y87.456 E2.13095
G1 X130.89 Y87.907 E2.15767
G1 X131.178 Y88.603 E2.19525
G1 X131.258 Y88.874 E2.20935
G1 X131.386 Y89.519 E2.24216
G1 X131.407 Y89.72 E2.25224
G1 X131.426 Y90.047 E2.26858
G1 X131.434 Y90.666 E2.29947
G1 X131.434 Y129.349 E4.22937
G1 X131.423 Y130.059 E4.26479
G1 X131.357 Y130.69 E4.29645
G1 X131.301 Y130.978 E4.31108
G1 X131.16 Y131.495 E4.33782
G1 X130.883 Y132.093 E4.3707
G1 X130.75 Y132.323 E4.38395
G1 X130.448 Y132.766 E4.4107
G1 X130.037 Y133.201 E4.44056
G1 X129.853 Y133.366 E4.45289
G1 X129.429 Y133.694 E4.47963
G1 X128.77 Y134.035 E4.51665
G1 X128.458 Y134.158 E4.53338
G1 X127.946 Y134.317 E4.56013
G1 X127.515 Y134.389 E4.58193
G1 X127.363 Y134.405 E4.58956
G1 X127.087 Y134.424 E4.60336
G1 X126.812 Y134.431 E4.61708
G1 X126.536 Y134.434 E4.63085
G1 X93.655 Y134.434 E6.27129
G1 X93.028 Y134.425 E6.30258
G1 X92.495 Y134.377 E6.32928
G1 X92.137 Y134.318 E6.34738
G1 X91.615 Y134.192 E6.37417
G1 X90.963 Y133.907 E6.40967
G1 X90.697 Y133.758 E6.42488
G1 X90.25 Y133.462 E6.45163
G1 X89.852 Y133.102 E6.4784
G1 X89.586 Y132.79 E6.49886
G1 X89.405 Y132.551 E6.51381
G1 X89.114 Y132.101 E6.54055
G1 X88.821 Y131.394 E6.57873
G1 X88.741 Y131.122 E6.59288
G1 X88.615 Y130.482 E6.62542
G1 X88.594 Y130.282 E6.63545
G1 X88.574 Y129.953 E6.6519
G1 X88.566 Y129.334 E6.68278
G1 X88.566 Y90.651 E8.61268
G1 X88.577 Y89.941 E8.64811
G1 X88.645 Y89.302 E8.68017
G1 X88.706 Y88.992 E8.69593
G1 X88.848 Y88.475 E8.72268
G1 X89.163 Y87.816 E8.75912
G1 X89.292 Y87.604 E8.7715
G1 X89.604 Y87.168 E8.79825
G0 F7500 X89.929 Y87.402
G1 F1500 X90.253 Y87.072 E8.82132
G1 X90.436 Y86.911 E8.83348
G1 X90.841 Y86.609 E8.85869
G1 X91.37 Y86.34 E8.8883
G1 X91.68 Y86.217 E8.90493
G1 X92.163 Y86.068 E8.93015
G1 X92.494 Y86.012 E8.9469
G1 X92.703 Y85.988 E8.9574
G1 X95.422 Y85.628 E9.09423
G1 X98.099 Y85.198 E9.2295
G1 X100.83 Y84.679 E9.36819
G1 X103.456 Y84.102 E9.50233
G1 X106.139 Y83.434 E9.64027
G1 X106.962 Y83.205 E9.68289
G1 X107.704 Y83.012 E9.72114
G1 X108.42 Y82.91 E9.75722
G1 X108.83 Y82.9 E9.77768
G1 X110.839 Y82.9 E9.87791
G1 X111.541 Y82.91 E9.91294
G1 X111.995 Y82.949 E9.93567
G1 X112.361 Y83.028 E9.95435
G1 X112.824 Y83.156 E9.97832
G1 X115.522 Y83.858 E10.1174
G1 X118.21 Y84.478 E10.25503
G1 X120.879 Y85.011 E10.39081
G1 X123.562 Y85.47 E10.52661
G1 X126.324 Y85.864 E10.6658
G1 X127.079 Y85.96 E10.70378
G1 X127.197 Y85.977 E10.70972
G1 X127.801 Y86.077 E10.74027
G1 X128.291 Y86.199 E10.76546
G1 X128.837 Y86.44 E10.79523
G1 X129.104 Y86.589 E10.81049
G1 X129.525 Y86.869 E10.83571
G1 X129.896 Y87.212 E10.86092
G1 X130.101 Y87.458 E10.8769
G1 X130.281 Y87.697 E10.89183
G1 X130.552 Y88.123 E10.91701
G1 X130.794 Y88.716 E10.94897
G1 X130.874 Y88.987 E10.96307
G1 X130.988 Y89.56 E10.99221
G1 X131.009 Y89.761 E11.00229
G1 X131.026 Y90.053 E11.01689
G1 X131.034 Y90.672 E11.04777
G1 X131.034 Y129.343 E12.97708
G1 X131.023 Y130.053 E13.0125
G1 X130.964 Y130.614 E13.04065
G1 X130.908 Y130.902 E13.05528
G1 X130.773 Y131.389 E13.0805
G1 X130.537 Y131.893 E13.10826
G1 X130.404 Y132.123 E13.12152
G1 X130.117 Y132.539 E13.14673
G1 X129.77 Y132.903 E13.17182
G1 X129.586 Y133.068 E13.18415
G1 X129.185 Y133.375 E13.20935
G1 X128.624 Y133.663 E13.24081
G1 X128.312 Y133.786 E13.25754
G1 X127.828 Y133.934 E13.28279
G1 X127.473 Y133.991 E13.30073
G1 X127.076 Y134.024 E13.3206
G1 X126.808 Y134.031 E13.33398
G1 X126.532 Y134.034 E13.34775
G1 X93.661 Y134.034 E14.98769
G1 X93.034 Y134.025 E15.01897
G1 X92.56 Y133.982 E15.04272
G1 X92.202 Y133.923 E15.06082
G1 X91.711 Y133.802 E15.08605
G1 X91.158 Y133.558 E15.1162
G1 X90.892 Y133.409 E15.13141
G1 X90.472 Y133.128 E15.15663
G1 X90.101 Y132.784 E15.18187
G1 X89.905 Y132.549 E15.19713
G1 X89.724 Y132.31 E15.21209
G1 X89.452 Y131.884 E15.23731
G1 X89.205 Y131.281 E15.26982
G1 X89.125 Y131.009 E15.28396
G1 X89.012 Y130.44 E15.3129
G1 X88.991 Y130.24 E15.32294
G1 X88.974 Y129.947 E15.33758
G1 X88.966 Y129.328 E15.36846
G1 X88.966 Y90.657 E17.29777
G1 X88.977 Y89.947 E17.33319
G1 X89.037 Y89.379 E17.36169
G1 X89.098 Y89.069 E17.37745
G1 X89.235 Y88.582 E17.40269
G1 X89.504 Y88.024 E17.4336
G1 X89.633 Y87.812 E17.44598
G1 X89.929 Y87.402 E17.47121
G1 F1500 E10.97121
G0 F7500 X107.839 Y87.048
G0 X108.7 Y87.4
;TYPE:SUPPORT
G1 F1500 E17.47121
G1 X108.7 Y86.3 E17.52608
G1 X111.3 Y86.3 E17.6558
G1 X111.3 Y87.4 E17.71068
G1 X108.7 Y87.4 E17.84039
G0 F7500 X109.347 Y87.32
G1 F1500 X109.347 Y86.38 E17.88729
G1 F1500 E11.38729
;MESH:Boitier (Meshed).stl
G0 F7500 X109.347 Y85.435
G0 X107.847 Y85.447
G0 X107.447 Y87.448
G0 X107.784 Y88.258
G0 X109.347 Y88.501
G0 X109.347 Y89.586
G0 X94.745 Y90.166
;TYPE:WALL-INNER
G1 F1500 E17.88729
G1 X94.713 Y90.178 E17.88899
G1 X94.325 Y90.388 E17.91101
G1 X94.113 Y90.547 E17.92423
G1 X93.976 Y90.65 E17.93278
G1 X93.663 Y90.96 E17.95476
G1 X93.547 Y91.113 E17.96434
G1 X93.395 Y91.314 E17.97691
G1 X93.178 Y91.712 E17.99952
G1 X93.166 Y91.744 E18.00123
G1 X93.166 Y91.712
G1 X93.166 Y91.314 E18.00672
G1 X93.166 Y91.061 E18.0168
G1 X93.166 Y90.166 E18.06145
G1 X94.06 Y90.166 E18.10606
G1 X94.325 Y90.166 E18.1165
G1 X94.713 Y90.166 E18.1217
G1 X94.745 Y90.166
G1 F1500 E11.6217
G0 F7500 X125.254 Y90.166
G1 F1500 E18.1217
G1 X125.296 Y90.166 E18.12379
G1 X125.678 Y90.166 E18.14285
G1 X125.939 Y90.166 E18.15587
G1 X126.834 Y90.166 E18.20053
G1 X126.834 Y91.058 E18.24503
G1 X126.834 Y91.331 E18.25865
G1 X126.834 Y91.72 E18.27806
G1 X126.834 Y91.742 E18.27915
G1 X126.826 Y91.72
G1 X126.616 Y91.331 E18.28681
G1 X126.453 Y91.112 E18.2975
G1 X126.352 Y90.976 E18.30595
G1 X126.04 Y90.663 E18.328
G1 X125.886 Y90.547 E18.33762
G1 X125.678 Y90.39 E18.34791
G1 X125.296 Y90.182 E18.35579
G1 X125.254 Y90.166 E18.35591
G1 F1500 E11.85591
G0 F7500 X126.315 Y91.952
G0 X126.517 Y92.647
G0 X126.834 Y128.256
G1 F1500 E18.35591
G1 X126.834 Y128.288 E18.3575
G1 X126.834 Y128.686 E18.37736
G1 X126.834 Y128.939 E18.38998
G1 X126.834 Y129.834 E18.43463
G1 X125.94 Y129.834 E18.47923
G1 X125.675 Y129.834 E18.49245
G1 X125.287 Y129.834 E18.51181
G1 X125.255 Y129.834 E18.51341
G1 X125.287 Y129.822
G1 X125.675 Y129.612 E18.52126
G1 X125.887 Y129.453 E18.5317
G1 X126.024 Y129.35 E18.54025
G1 X126.337 Y129.04 E18.56223
G1 X126.453 Y128.887 E18.57181
G1 X126.605 Y128.686 E18.58184
G1 X126.822 Y128.288 E18.59008
G1 X126.834 Y128.256 E18.59018
G1 F1500 E12.09018
G0 F7500 X125.054 Y129.31
G0 X124.36 Y129.516
G0 X95.64 Y129.514
G0 X95.01 Y129.328
G0 X93.166 Y128.258
G1 F1500 E18.59018
G1 X93.174 Y128.28 E18.59135
G1 X93.384 Y128.669 E18.6134
G1 X93.547 Y128.888 E18.62702
G1 X93.648 Y129.024 E18.63548
G1 X93.96 Y129.337 E18.65752
G1 X94.114 Y129.453 E18.66714
G1 X94.322 Y129.61 E18.68014
G1 X94.704 Y129.818 E18.70185
G1 X94.746 Y129.834 E18.70409
G1 X94.704 Y129.834 E18.7041
G1 X94.322 Y129.834 E18.70937
G1 X94.061 Y129.834 E18.71968
G1 X93.166 Y129.834 E18.76434
G1 X93.166 Y128.942 E18.80884
G1 X93.166 Y128.669 E18.81953
G1 X93.166 Y128.28 E18.82454
G1 X93.166 Y128.258 E18.82455
G1 F1500 E12.32455
G0 F7500 X94.939 Y129.307
G0 X95.64 Y129.514
G0 X123.607 Y129.672
G1 F1500 E18.82455
G1 X123.99 Y129.7 E18.84371
G1 X124.383 Y129.675 E18.86336
G1 X124.763 Y129.591 E18.88277
G1 X125.121 Y129.457 E18.90184
G1 X125.459 Y129.274 E18.92102
G1 X125.762 Y129.047 E18.93991
G1 X126.035 Y128.776 E18.9591
G1 X126.268 Y128.468 E18.97837
G1 X126.457 Y128.122 E18.99804
G1 X126.588 Y127.77 E19.01678
G1 X126.672 Y127.393 E19.03605
G1 X126.7 Y127.01 E19.0552
G1 X126.675 Y126.617 E19.07485
G1 X126.594 Y126.247 E19.09375
G1 X126.462 Y125.886 E19.11292
G1 X126.278 Y125.547 E19.13217
G1 X126.042 Y125.232 E19.1518
G1 X125.775 Y124.965 E19.17064
G1 X125.468 Y124.732 E19.18987
G1 X125.13 Y124.547 E19.20909
G1 X124.763 Y124.409 E19.22866
G1 X124.383 Y124.325 E19.24807
G1 X124.008 Y124.3 E19.26682
G1 X123.625 Y124.324 E19.28597
G1 X123.247 Y124.405 E19.30525
G1 X122.885 Y124.539 E19.32451
G1 X122.547 Y124.722 E19.34369
G1 X122.232 Y124.958 E19.36332
G1 X121.965 Y125.225 E19.38216
G1 X121.732 Y125.532 E19.40139
G1 X121.547 Y125.871 E19.42066
G1 X121.412 Y126.23 E19.43979
G1 X121.328 Y126.607 E19.45906
G1 X121.3 Y126.99 E19.47822
G1 X121.324 Y127.375 E19.49747
G1 X121.405 Y127.753 E19.51675
G1 X121.539 Y128.115 E19.53601
G1 X121.722 Y128.453 E19.55519
G1 X121.952 Y128.762 E19.5744
G1 X122.224 Y129.035 E19.59363
G1 X122.532 Y129.268 E19.6129
G1 X122.871 Y129.453 E19.63217
G1 X123.23 Y129.588 E19.6513
G1 X123.607 Y129.672 E19.67057
G0 F7500 X123.665 Y129.275
;TYPE:WALL-OUTER
G1 F1500 X123.992 Y129.299 E19.68693
G1 X124.327 Y129.278 E19.70368
G1 X124.649 Y129.207 E19.72013
G1 X124.955 Y129.092 E19.73643
G1 X125.243 Y128.936 E19.75278
G1 X125.5 Y128.744 E19.76878
G1 X125.733 Y128.512 E19.78518
G1 X125.931 Y128.25 E19.80157
G1 X126.092 Y127.955 E19.81834
G1 X126.204 Y127.656 E19.83426
G1 X126.275 Y127.335 E19.85067
G1 X126.299 Y127.008 E19.86702
G1 X126.278 Y126.673 E19.88377
G1 X126.209 Y126.359 E19.89981
G1 X126.096 Y126.051 E19.91618
G1 X125.94 Y125.763 E19.93252
G1 X125.739 Y125.494 E19.94927
G1 X125.512 Y125.267 E19.96529
G1 X125.25 Y125.069 E19.98167
G1 X124.962 Y124.911 E19.99806
G1 X124.649 Y124.793 E20.01475
G1 X124.327 Y124.722 E20.0312
G1 X124.007 Y124.701 E20.0472
G1 X123.68 Y124.721 E20.06354
G1 X123.359 Y124.79 E20.07992
G1 X123.051 Y124.904 E20.09631
G1 X122.763 Y125.06 E20.11265
G1 X122.494 Y125.261 E20.1294
G1 X122.267 Y125.488 E20.14542
G1 X122.069 Y125.75 E20.1618
G1 X121.911 Y126.038 E20.17819
G1 X121.796 Y126.344 E20.1945
G1 X121.725 Y126.665 E20.2109
G1 X121.701 Y126.992 E20.22726
G1 X121.721 Y127.32 E20.24365
G1 X121.79 Y127.641 E20.26003
G1 X121.904 Y127.949 E20.27642
G1 X122.06 Y128.237 E20.29276
G1 X122.256 Y128.5 E20.30912
G1 X122.488 Y128.733 E20.32553
G1 X122.75 Y128.931 E20.34191
G1 X123.038 Y129.089 E20.3583
G1 X123.344 Y129.204 E20.37461
G1 X123.665 Y129.275 E20.39101
G0 F7500 X123.865 Y129.289
G0 X123.832 Y129.729
G1 F1500 E13.89101
G0 F7500 X100.245 Y128.446
G0 X96.012 Y122.526
G0 X94.554 Y122.754
G0 X94.554 Y97.243
G0 X96.375 Y95.676
;TYPE:WALL-INNER
G1 F1500 E20.39101
G1 X96.753 Y95.595 E20.4103
G1 X97.115 Y95.461 E20.42956
G1 X97.453 Y95.278 E20.44873
G1 X97.768 Y95.042 E20.46837
G1 X98.035 Y94.775 E20.48721
G1 X98.268 Y94.468 E20.50644
G1 X98.453 Y94.129 E20.5257
G1 X98.588 Y93.77 E20.54484
G1 X98.672 Y93.393 E20.56411
G1 X98.7 Y93.01 E20.58327
G1 X98.676 Y92.625 E20.60251
G1 X98.595 Y92.247 E20.6218
G1 X98.461 Y91.885 E20.64106
G1 X98.278 Y91.547 E20.66023
G1 X98.048 Y91.238 E20.67945
G1 X97.776 Y90.965 E20.69868
G1 X97.468 Y90.732 E20.71794
G1 X97.129 Y90.547 E20.73721
G1 X96.77 Y90.412 E20.75635
G1 X96.393 Y90.328 E20.77562
G1 X96.01 Y90.3 E20.79478
G1 X95.617 Y90.325 E20.81442
G1 X95.237 Y90.409 E20.83384
G1 X94.879 Y90.543 E20.85291
G1 X94.541 Y90.726 E20.87208
G1 X94.238 Y90.953 E20.89097
G1 X93.965 Y91.224 E20.91016
G1 X93.732 Y91.532 E20.92943
G1 X93.543 Y91.878 E20.9491
G1 X93.412 Y92.23 E20.96784
G1 X93.328 Y92.607 E20.98711
G1 X93.3 Y92.99 E21.00627
G1 X93.325 Y93.383 E21.02591
G1 X93.406 Y93.753 E21.04481
G1 X93.538 Y94.114 E21.06399
G1 X93.722 Y94.453 E21.08323
G1 X93.958 Y94.768 E21.10287
G1 X94.225 Y95.035 E21.12171
G1 X94.532 Y95.268 E21.14093
G1 X94.87 Y95.453 E21.16016
G1 X95.237 Y95.591 E21.17972
G1 X95.617 Y95.675 E21.19914
G1 X95.992 Y95.7 E21.21789
G1 X96.375 Y95.676 E21.23703
G0 F7500 X96.32 Y95.279
;TYPE:WALL-OUTER
G1 F1500 X96.641 Y95.21 E21.25341
G1 X96.949 Y95.096 E21.2698
G1 X97.237 Y94.94 E21.28614
G1 X97.506 Y94.739 E21.30289
G1 X97.733 Y94.512 E21.31891
G1 X97.931 Y94.25 E21.33529
G1 X98.089 Y93.962 E21.35168
G1 X98.204 Y93.656 E21.36799
G1 X98.275 Y93.335 E21.38439
G1 X98.299 Y93.008 E21.40075
G1 X98.279 Y92.68 E21.41714
G1 X98.21 Y92.359 E21.43352
G1 X98.096 Y92.051 E21.44991
G1 X97.94 Y91.763 E21.46625
G1 X97.744 Y91.5 E21.48261
G1 X97.512 Y91.267 E21.49902
G1 X97.25 Y91.069 E21.5154
G1 X96.962 Y90.911 E21.53179
G1 X96.656 Y90.796 E21.5481
G1 X96.335 Y90.725 E21.5645
G1 X96.008 Y90.701 E21.58086
G1 X95.673 Y90.722 E21.5976
G1 X95.351 Y90.793 E21.61405
G1 X95.045 Y90.908 E21.63036
G1 X94.757 Y91.064 E21.6467
G1 X94.5 Y91.256 E21.66271
G1 X94.267 Y91.488 E21.67911
G1 X94.069 Y91.75 E21.6955
G1 X93.908 Y92.045 E21.71226
G1 X93.796 Y92.344 E21.72819
G1 X93.725 Y92.665 E21.7446
G1 X93.701 Y92.992 E21.76095
G1 X93.722 Y93.327 E21.7777
G1 X93.791 Y93.641 E21.79374
G1 X93.904 Y93.949 E21.81011
G1 X94.06 Y94.237 E21.82645
G1 X94.261 Y94.506 E21.8432
G1 X94.488 Y94.733 E21.85922
G1 X94.75 Y94.931 E21.8756
G1 X95.038 Y95.089 E21.89199
G1 X95.351 Y95.207 E21.90868
G1 X95.673 Y95.278 E21.92513
G1 X95.993 Y95.299 E21.94113
G1 X96.32 Y95.279 E21.95747
G0 F7500 X96.515 Y95.237
G0 X96.607 Y95.668
G1 F1500 E15.45747
G0 F7500 X100.474 Y93.019
G0 X100.244 Y91.554
G0 X119.755 Y91.554
G0 X120.128 Y93.888
G0 X123.615 Y95.674
;TYPE:WALL-INNER
G1 F1500 E21.95747
G1 X123.992 Y95.7 E21.97633
G1 X124.383 Y95.675 E21.99587
G1 X124.763 Y95.591 E22.01529
G1 X125.121 Y95.457 E22.03436
G1 X125.46 Y95.274 E22.05358
G1 X125.769 Y95.041 E22.07289
G1 X126.035 Y94.776 E22.09162
G1 X126.268 Y94.468 E22.11089
G1 X126.457 Y94.122 E22.13056
G1 X126.592 Y93.762 E22.14974
G1 X126.674 Y93.384 E22.16903
G1 X126.701 Y93.001 E22.18819
G1 X126.676 Y92.625 E22.20699
G1 X126.595 Y92.247 E22.22628
G1 X126.461 Y91.885 E22.24553
G1 X126.278 Y91.547 E22.26471
G1 X126.048 Y91.238 E22.28393
G1 X125.776 Y90.965 E22.30315
G1 X125.461 Y90.727 E22.32285
G1 X125.129 Y90.546 E22.34172
G1 X124.763 Y90.408 E22.36123
G1 X124.384 Y90.326 E22.38058
G1 X124 Y90.299 E22.39978
G1 X123.616 Y90.326 E22.41899
G1 X123.238 Y90.408 E22.43828
G1 X122.879 Y90.543 E22.45742
G1 X122.54 Y90.726 E22.47664
G1 X122.231 Y90.959 E22.49595
G1 X121.959 Y91.231 E22.51514
G1 X121.726 Y91.54 E22.53445
G1 X121.543 Y91.879 E22.55367
G1 X121.408 Y92.238 E22.5728
G1 X121.326 Y92.616 E22.5921
G1 X121.299 Y92.999 E22.61125
G1 X121.324 Y93.375 E22.63005
G1 X121.405 Y93.753 E22.64934
G1 X121.539 Y94.115 E22.6686
G1 X121.727 Y94.46 E22.6882
G1 X121.959 Y94.769 E22.70748
G1 X122.231 Y95.041 E22.72667
G1 X122.54 Y95.274 E22.74598
G1 X122.879 Y95.457 E22.7652
G1 X123.23 Y95.588 E22.78389
G1 X123.615 Y95.674 E22.80357
G0 F7500 X123.672 Y95.277
;TYPE:WALL-OUTER
G1 F1500 X123.993 Y95.299 E22.81962
G1 X124.327 Y95.278 E22.83632
G1 X124.649 Y95.207 E22.85277
G1 X124.955 Y95.092 E22.86908
G1 X125.243 Y94.936 E22.88542
G1 X125.506 Y94.738 E22.90184
G1 X125.733 Y94.512 E22.91782
G1 X125.931 Y94.25 E22.93421
G1 X126.092 Y93.955 E22.95097
G1 X126.207 Y93.649 E22.96728
G1 X126.277 Y93.327 E22.98372
G1 X126.3 Y93 E23.00008
G1 X126.279 Y92.68 E23.01607
G1 X126.21 Y92.359 E23.03246
G1 X126.096 Y92.051 E23.04884
