;FLAVOR:Marlin
;TIME:6168
;Filament used: 7.16845m
;Layer height: 0.4
;MINX:59.708
;MINY:59.675
;MINZ:0.3
;MAXX:160.31
;MAXY:160.325
;MAXZ:5.1
;Generated with Cura_SteamEngine 4.8.0
M140 S60
M105
M190 S60
M104 S200
M105
M109 S200
M82 ;absolute extrusion mode
G28 ;Home
G1 Z15.0 F2000 ;Move the platform
G92 E0
G92 E0
G1 F1500 E-6.5
;LAYER_COUNT:13
;LAYER:0
M107
M204 S1000
G0 F7500 X74.231 Y74.553 Z0.3
;TYPE:SKIRT
G1 F1500 E0
G1 X74.375 Y74.416 E0.00992
G1 X74.656 Y74.164 E0.02875
G1 X76.229 Y72.791 E0.13291
G1 X77.392 Y71.709 E0.21216
G1 X78.255 Y70.924 E0.27037
G1 X78.412 Y70.789 E0.2807
G1 X78.994 Y70.318 E0.31805
G1 X79.087 Y70.245 E0.32395
G1 X79.51 Y69.925 E0.35041
G1 X79.672 Y69.81 E0.36032
G1 X79.972 Y69.608 E0.37837
G1 X81.749 Y68.448 E0.48424
G1 X82.88 Y67.659 E0.55304
G1 X83.978 Y66.906 E0.61946
G1 X84.16 Y66.789 E0.63026
G1 X84.844 Y66.378 E0.67007
G1 X85.367 Y66.084 E0.7
G1 X85.767 Y65.882 E0.72236
G1 X87.886 Y64.887 E0.83915
G1 X89.634 Y64 E0.93694
G1 X90.302 Y63.672 E0.97407
G1 X90.491 Y63.586 E0.98443
G1 X91.16 Y63.305 E1.02063
G1 X91.724 Y63.085 E1.05083
G1 X92.069 Y62.966 E1.06904
G1 X94.432 Y62.236 E1.19243
G1 X96.911 Y61.395 E1.32303
G1 X97.225 Y61.301 E1.33938
G1 X97.816 Y61.147 E1.36985
G1 X98.452 Y60.999 E1.40243
G1 X98.653 Y60.958 E1.41266
G1 X99.012 Y60.896 E1.43084
G1 X101.11 Y60.558 E1.53686
G1 X102.471 Y60.293 E1.60603
G1 X103.745 Y60.061 E1.67064
G1 X103.951 Y60.03 E1.68103
G1 X104.749 Y59.932 E1.72114
G1 X105.368 Y59.874 E1.75216
G1 X105.782 Y59.854 E1.77284
G1 X108.055 Y59.81 E1.88626
G1 X110.45 Y59.691 E2.0059
G1 X110.915 Y59.676 E2.02911
G1 X111.097 Y59.675 E2.03819
G1 X111.642 Y59.685 E2.06538
G1 X111.765 Y59.689 E2.07152
G1 X112.411 Y59.723 E2.1038
G1 X112.611 Y59.739 E2.11381
G1 X113.209 Y59.804 E2.14382
G1 X114.733 Y59.993 E2.22043
G1 X116.417 Y60.143 E2.30478
G1 X116.525 Y60.161 E2.31024
G1 X117.754 Y60.28 E2.37184
G1 X117.968 Y60.307 E2.3826
G1 X118.727 Y60.427 E2.42094
G1 X118.841 Y60.447 E2.42672
G1 X119.364 Y60.547 E2.45328
G1 X119.564 Y60.591 E2.4635
G1 X119.878 Y60.67 E2.47965
G1 X122.075 Y61.252 E2.59304
G1 X124.309 Y61.776 E2.70752
G1 X124.698 Y61.873 E2.72752
G1 X124.886 Y61.925 E2.73725
G1 X125.602 Y62.147 E2.77465
G1 X126.151 Y62.334 E2.80359
G1 X126.551 Y62.49 E2.82501
G1 X128.69 Y63.39 E2.94078
G1 X130.042 Y63.909 E3.01303
G1 X131.165 Y64.356 E3.07334
G1 X131.351 Y64.436 E3.08344
G1 X132.061 Y64.766 E3.1225
G1 X132.168 Y64.818 E3.12843
G1 X132.627 Y65.05 E3.15409
G1 X132.812 Y65.151 E3.16461
G1 X133.127 Y65.334 E3.18278
G1 X134.978 Y66.44 E3.29036
G1 X136.612 Y67.35 E3.38367
G1 X137.332 Y67.761 E3.42503
G1 X137.507 Y67.867 E3.43524
G1 X138.114 Y68.261 E3.47134
G1 X138.212 Y68.327 E3.47724
G1 X138.664 Y68.642 E3.50472
G1 X138.827 Y68.763 E3.51485
G1 X139.129 Y69 E3.534
G1 X140.758 Y70.313 E3.63839
G1 X141.875 Y71.154 E3.70814
G1 X142.911 Y71.955 E3.77348
G1 X143.069 Y72.084 E3.78365
G1 X143.764 Y72.689 E3.82962
G1 X144.14 Y73.036 E3.85515
G1 X144.293 Y73.187 E3.86588
G1 X144.525 Y73.428 E3.88256
G1 X146.005 Y75.006 E3.9905
G1 X146.942 Y75.94 E4.0565
G1 X147.002 Y76.01 E4.0611
G1 X147.86 Y76.881 E4.1221
G1 X148.011 Y77.045 E4.13322
G1 X148.658 Y77.791 E4.18249
G1 X148.95 Y78.151 E4.20561
G1 X149.068 Y78.304 E4.21525
G1 X149.36 Y78.708 E4.24012
G1 X150.462 Y80.273 E4.33562
G1 X151.315 Y81.403 E4.40625
G1 X151.407 Y81.546 E4.41473
G1 X152.091 Y82.467 E4.47197
G1 X152.216 Y82.646 E4.48286
G1 X152.699 Y83.386 E4.52695
G1 X152.999 Y83.881 E4.55582
G1 X153.095 Y84.05 E4.56552
G1 X153.289 Y84.416 E4.58619
G1 X154.217 Y86.228 E4.68775
G1 X154.988 Y87.621 E4.76719
G1 X155.545 Y88.653 E4.82569
G1 X155.641 Y88.845 E4.8364
G1 X156.007 Y89.635 E4.87984
G1 X156.223 Y90.14 E4.90724
G1 X156.296 Y90.325 E4.91717
G1 X156.446 Y90.738 E4.93909
G1 X157.1 Y92.627 E5.03882
G1 X157.601 Y93.929 E5.10842
G1 X157.627 Y94.016 E5.11295
G1 X158.059 Y95.17 E5.17442
G1 X158.129 Y95.377 E5.18533
G1 X158.377 Y96.186 E5.22754
G1 X158.413 Y96.31 E5.23398
G1 X158.545 Y96.803 E5.25944
G1 X158.589 Y96.989 E5.26898
G1 X158.673 Y97.39 E5.28942
G1 X159.056 Y99.338 E5.38847
G1 X159.378 Y100.728 E5.45965
G1 X159.661 Y102.028 E5.52603
G1 X159.699 Y102.231 E5.53633
G1 X159.825 Y103.027 E5.57654
G1 X159.906 Y103.662 E5.60848
G1 X159.925 Y103.859 E5.61835
G1 X159.947 Y104.172 E5.634
G1 X160.064 Y106.316 E5.74113
G1 X160.182 Y107.702 E5.81052
G1 X160.286 Y109.047 E5.87783
G1 X160.296 Y109.264 E5.88867
G1 X160.31 Y110.142 E5.93247
G1 X160.303 Y110.649 E5.95777
G1 X160.294 Y110.855 E5.96806
G1 X160.267 Y111.226 E5.98662
G1 X160.086 Y113.36 E6.09346
G1 X159.981 Y115.288 E6.1898
G1 X159.928 Y116.094 E6.23009
G1 X159.909 Y116.299 E6.24036
G1 X159.822 Y117.004 E6.2758
G1 X159.725 Y117.637 E6.30775
G1 X159.689 Y117.837 E6.31789
G1 X159.621 Y118.151 E6.33392
G1 X159.112 Y120.387 E6.44833
G1 X158.723 Y122.37 E6.54915
G1 X158.594 Y122.99 E6.58074
G1 X158.545 Y123.193 E6.59116
G1 X158.332 Y123.978 E6.63174
G1 X158.166 Y124.525 E6.66026
G1 X158.024 Y124.929 E6.68162
G1 X157.239 Y126.992 E6.79175
G1 X156.791 Y128.297 E6.86058
G1 X156.748 Y128.397 E6.86601
G1 X156.342 Y129.548 E6.9269
G1 X156.261 Y129.755 E6.93799
G1 X155.888 Y130.631 E6.98549
G1 X155.677 Y131.087 E7.01056
G1 X155.506 Y131.42 E7.02924
G1 X154.328 Y133.565 E7.15133
G1 X153.411 Y135.357 E7.25176
G1 X153.124 Y135.9 E7.2824
G1 X153.024 Y136.077 E7.29254
G1 X152.681 Y136.646 E7.32569
G1 X152.303 Y137.235 E7.3606
G1 X152.184 Y137.408 E7.37108
G1 X151.974 Y137.696 E7.38886
G1 X150.701 Y139.394 E7.49474
G1 X149.912 Y140.516 E7.56317
G1 X149.135 Y141.602 E7.62979
G1 X149.01 Y141.766 E7.64008
G1 X148.455 Y142.452 E7.6841
G1 X148.103 Y142.86 E7.71099
G1 X147.812 Y143.17 E7.7322
G1 X146.155 Y144.836 E7.84943
G1 X144.942 Y146.134 E7.93806
G1 X144.352 Y146.751 E7.98065
G1 X144.205 Y146.896 E7.99095
G1 X143.645 Y147.418 E8.02915
G1 X143.554 Y147.5 E8.03526
G1 X143.145 Y147.856 E8.06231
G1 X143.001 Y147.975 E8.07163
G1 X142.667 Y148.236 E8.09278
G1 X141.032 Y149.473 E8.19506
G1 X139.961 Y150.339 E8.26378
G1 X138.904 Y151.177 E8.33107
G1 X138.73 Y151.306 E8.34188
G1 X137.997 Y151.817 E8.38646
G1 X137.587 Y152.086 E8.41092
G1 X137.409 Y152.195 E8.42134
G1 X137.037 Y152.409 E8.44275
G1 X135.228 Y153.417 E8.54606
G1 X134.069 Y154.115 E8.61356
G1 X133.983 Y154.158 E8.61836
G1 X132.937 Y154.776 E8.67897
G1 X132.742 Y154.883 E8.69007
G1 X131.958 Y155.283 E8.73398
G1 X131.424 Y155.534 E8.76342
G1 X131.263 Y155.605 E8.7722
G1 X130.914 Y155.747 E8.79099
G1 X128.956 Y156.502 E8.89569
G1 X127.356 Y157.179 E8.98237
G1 X126.423 Y157.562 E9.03268
G1 X126.222 Y157.638 E9.0434
G1 X125.512 Y157.881 E9.08084
G1 X124.898 Y158.072 E9.11292
G1 X124.699 Y158.128 E9.12324
G1 X124.21 Y158.248 E9.14836
G1 X122.407 Y158.668 E9.24072
G1 X120.952 Y159.049 E9.31575
G1 X119.739 Y159.364 E9.37828
G1 X119.527 Y159.413 E9.38913
G1 X118.594 Y159.596 E9.43657
G1 X118.04 Y159.686 E9.46457
G1 X117.615 Y159.736 E9.48592
G1 X115.281 Y159.946 E9.60283
G1 X112.75 Y160.246 E9.72999
G1 X112.372 Y160.28 E9.74892
G1 X112.242 Y160.289 E9.75543
G1 X111.79 Y160.311 E9.778
G1 X111.063 Y160.325 E9.81428
G1 X110.866 Y160.324 E9.82411
G1 X110.38 Y160.305 E9.84837
G1 X108.51 Y160.208 E9.94179
G1 X106.333 Y160.164 E10.05043
G1 X105.6 Y160.14 E10.08702
G1 X105.396 Y160.128 E10.09721
G1 X104.738 Y160.069 E10.13017
G1 X104.046 Y159.988 E10.16493
G1 X103.842 Y159.957 E10.17522
G1 X103.496 Y159.896 E10.19275
G1 X101.369 Y159.488 E10.3008
G1 X99.981 Y159.267 E10.37092
G1 X98.718 Y159.054 E10.43482
G1 X98.5 Y159.01 E10.44592
G1 X97.766 Y158.839 E10.48352
G1 X97.16 Y158.68 E10.51478
G1 X96.963 Y158.622 E10.52502
G1 X96.635 Y158.515 E10.54224
G1 X94.512 Y157.79 E10.65416
G1 X92.246 Y157.091 E10.77247
G1 X91.938 Y156.991 E10.78862
G1 X91.748 Y156.923 E10.79869
G1 X91.048 Y156.65 E10.83617
G1 X90.46 Y156.401 E10.86803
G1 X90.275 Y156.316 E10.87819
G1 X89.984 Y156.173 E10.89437
G1 X88.147 Y155.24 E10.99716
G1 X86.041 Y154.249 E11.11328
G1 X85.57 Y154.021 E11.13938
G1 X85.384 Y153.924 E11.14985
G1 X84.734 Y153.56 E11.18702
G1 X84.224 Y153.255 E11.21666
G1 X84.06 Y153.15 E11.22638
G1 X83.781 Y152.961 E11.24319
G1 X82.057 Y151.757 E11.3481
G1 X79.708 Y150.214 E11.48831
G1 X79.485 Y150.057 E11.50192
G1 X78.967 Y149.663 E11.53439
G1 X78.455 Y149.251 E11.56718
G1 X78.295 Y149.114 E11.57769
G1 X78.038 Y148.881 E11.59499
G1 X76.463 Y147.418 E11.70224
G1 X74.89 Y146.046 E11.80637
G1 X74.408 Y145.615 E11.83863
G1 X74.257 Y145.471 E11.84904
G1 X73.694 Y144.904 E11.88891
G1 X73.306 Y144.491 E11.91718
G1 X73.174 Y144.343 E11.92707
G1 X72.889 Y144.002 E11.94924
G1 X71.605 Y142.423 E12.05078
G1 X70.73 Y141.417 E12.1173
G1 X70.678 Y141.347 E12.12165
G1 X69.863 Y140.396 E12.18413
G1 X69.722 Y140.22 E12.19538
G1 X69.206 Y139.535 E12.23817
G1 X69.138 Y139.442 E12.24392
G1 X68.859 Y139.046 E12.26808
G1 X68.648 Y138.721 E12.28742
G1 X67.436 Y136.716 E12.4043
G1 X66.431 Y135.164 E12.49655
G1 X65.966 Y134.427 E12.54002
G1 X65.863 Y134.252 E12.55015
G1 X65.518 Y133.63 E12.58564
G1 X65.46 Y133.521 E12.5918
G1 X65.217 Y133.045 E12.61846
G1 X65.129 Y132.86 E12.62868
G1 X64.994 Y132.555 E12.64532
G1 X64.13 Y130.536 E12.75489
G1 X63.567 Y129.331 E12.82124
G1 X63.021 Y128.125 E12.88729
G1 X62.942 Y127.934 E12.8976
G1 X62.61 Y127.068 E12.94387
G1 X62.435 Y126.56 E12.97068
G1 X62.321 Y126.179 E12.99052
G1 X61.725 Y123.972 E13.10457
G1 X61 Y121.552 E13.23061
G1 X60.947 Y121.383 E13.23944
G1 X60.873 Y121.108 E13.25365
G1 X60.731 Y120.481 E13.28573
G1 X60.6 Y119.824 E13.31915
G1 X60.565 Y119.616 E13.32967
G1 X60.516 Y119.261 E13.34755
G1 X60.238 Y117.055 E13.45848
G1 X59.977 Y115.395 E13.54231
G1 X59.839 Y114.451 E13.58991
G1 X59.814 Y114.238 E13.60061
G1 X59.743 Y113.395 E13.64282
G1 X59.713 Y112.852 E13.66995
G1 X59.708 Y112.645 E13.68028
G1 X59.709 Y112.141 E13.70542
G1 X59.739 Y110.184 E13.80307
G1 X59.715 Y108.8 E13.87213
G1 X59.72 Y108.704 E13.87692
G1 X59.709 Y107.471 E13.93844
G1 X59.714 Y107.253 E13.94932
G1 X59.756 Y106.435 E13.99018
G1 X59.764 Y106.316 E13.99613
G1 X59.806 Y105.821 E14.02092
G1 X59.828 Y105.627 E14.03066
G1 X59.874 Y105.299 E14.04718
G1 X60.206 Y103.163 E14.15503
G1 X60.366 Y101.854 E14.22082
G1 X60.383 Y101.769 E14.22515
G1 X60.545 Y100.533 E14.28734
G1 X60.58 Y100.316 E14.2983
G1 X60.744 Y99.47 E14.3413
G1 X60.768 Y99.355 E14.34716
G1 X60.874 Y98.89 E14.37095
G1 X60.924 Y98.696 E14.38095
G1 X61.045 Y98.276 E14.40275
G1 X61.625 Y96.365 E14.50239
G1 X61.979 Y95.042 E14.57071
G1 X62.014 Y94.942 E14.576
G1 X62.345 Y93.742 E14.6381
G1 X62.41 Y93.53 E14.64917
G1 X62.693 Y92.706 E14.69263
G1 X62.888 Y92.186 E14.72034
G1 X63.061 Y91.784 E14.74217
G1 X64.056 Y89.635 E14.86032
G1 X65.025 Y87.39 E14.98231
G1 X65.18 Y87.029 E15.00191
G1 X65.293 Y86.799 E15.0147
G1 X65.508 Y86.389 E15.0378
G1 X65.838 Y85.79 E15.07192
G1 X65.931 Y85.631 E15.08111
G1 X66.131 Y85.31 E15.09997
G1 X67.294 Y83.511 E15.20685
G1 X68.164 Y82.066 E15.291
G1 X68.703 Y81.192 E15.34223
G1 X68.822 Y81.011 E15.35303
G1 X69.314 Y80.314 E15.3956
G1 X69.639 Y79.879 E15.42269
G1 X69.77 Y79.714 E15.4332
G1 X70.015 Y79.424 E15.45214
G1 X71.378 Y77.849 E15.55605
G1 X72.263 Y76.759 E15.6261
G1 X73.107 Y75.74 E15.69211
G1 X73.246 Y75.581 E15.70265
G1 X73.77 Y75.019 E15.74099
G1 X73.851 Y74.935 E15.74681
G1 X74.231 Y74.553 E15.77369
G0 F7500 X74.514 Y74.835
G1 F1500 X74.642 Y74.713 E15.78251
G1 X74.919 Y74.465 E15.80106
G1 X76.498 Y73.087 E15.90562
G1 X77.661 Y72.005 E15.98487
G1 X78.524 Y71.22 E16.04307
G1 X78.664 Y71.1 E16.05227
G1 X79.328 Y70.564 E16.09484
G1 X79.751 Y70.244 E16.1213
G1 X79.895 Y70.141 E16.13014
G1 X80.19 Y69.943 E16.14786
G1 X81.982 Y68.774 E16.25461
G1 X83.106 Y67.989 E16.32301
G1 X84.204 Y67.236 E16.38943
G1 X84.366 Y67.132 E16.39903
G1 X85.05 Y66.721 E16.43884
G1 X85.562 Y66.433 E16.46815
G1 X85.943 Y66.241 E16.48944
G1 X88.045 Y65.254 E16.60529
G1 X89.811 Y64.359 E16.70407
G1 X90.479 Y64.031 E16.74119
G1 X90.646 Y63.954 E16.75037
G1 X91.305 Y63.678 E16.78601
G1 X91.869 Y63.458 E16.81622
G1 X92.194 Y63.346 E16.83337
G1 X94.563 Y62.614 E16.95707
G1 X97.039 Y61.774 E17.08751
G1 X97.327 Y61.687 E17.10252
G1 X97.907 Y61.536 E17.13242
G1 X98.543 Y61.388 E17.165
G1 X98.721 Y61.352 E17.17406
G1 X99.075 Y61.291 E17.19198
G1 X101.188 Y60.95 E17.29877
G1 X102.543 Y60.687 E17.36763
G1 X103.817 Y60.455 E17.43223
G1 X104 Y60.427 E17.44147
G1 X104.898 Y60.318 E17.4866
G1 X105.404 Y60.272 E17.51195
G1 X105.796 Y60.254 E17.53153
G1 X108.083 Y60.209 E17.64565
G1 X110.525 Y60.089 E17.76763
G1 X110.928 Y60.076 E17.78774
G1 X111.09 Y60.075 E17.79583
G1 X111.744 Y60.088 E17.82846
G1 X112.39 Y60.122 E17.86073
G1 X112.568 Y60.137 E17.86965
G1 X113.16 Y60.201 E17.89935
G1 X114.707 Y60.393 E17.97712
G1 X116.381 Y60.542 E18.06097
G1 X116.473 Y60.558 E18.06563
G1 X117.715 Y60.678 E18.12788
G1 X117.906 Y60.702 E18.13749
G1 X118.665 Y60.822 E18.17582
G1 X119.289 Y60.94 E18.20751
G1 X119.467 Y60.979 E18.2166
G1 X119.775 Y61.057 E18.23245
G1 X121.946 Y61.633 E18.34451
G1 X124.212 Y62.164 E18.46062
G1 X124.601 Y62.261 E18.48062
G1 X124.768 Y62.308 E18.48928
G1 X125.473 Y62.526 E18.52609
G1 X126.022 Y62.713 E18.55503
G1 X126.402 Y62.861 E18.57537
G1 X128.534 Y63.759 E18.69079
G1 X129.894 Y64.281 E18.76347
G1 X131.017 Y64.728 E18.82377
G1 X131.183 Y64.799 E18.83278
G1 X131.893 Y65.129 E18.87184
G1 X131.988 Y65.175 E18.8771
G1 X132.447 Y65.407 E18.90276
G1 X132.611 Y65.496 E18.91207
G1 X132.922 Y65.677 E18.93002
G1 X134.784 Y66.79 E19.03825
G1 X136.413 Y67.697 E19.13127
G1 X137.133 Y68.108 E19.17263
G1 X137.289 Y68.203 E19.18174
G1 X137.984 Y68.656 E19.22313
G1 X138.436 Y68.971 E19.25062
G1 X138.581 Y69.078 E19.25961
G1 X138.878 Y69.312 E19.27847
G1 X140.497 Y70.617 E19.38222
G1 X141.63 Y71.47 E19.45297
G1 X142.666 Y72.271 E19.51831
G1 X142.806 Y72.386 E19.52734
G1 X143.492 Y72.983 E19.57271
G1 X143.868 Y73.33 E19.59824
G1 X144.004 Y73.464 E19.60777
G1 X144.233 Y73.702 E19.62424
G1 X145.724 Y75.292 E19.73299
G1 X146.659 Y76.224 E19.79885
G1 X146.71 Y76.284 E19.80278
G1 X147.575 Y77.162 E19.86427
G1 X147.71 Y77.307 E19.87416
G1 X148.277 Y77.959 E19.91727
G1 X148.639 Y78.403 E19.94585
G1 X148.744 Y78.539 E19.95442
G1 X149.033 Y78.938 E19.979
G1 X150.153 Y80.529 E20.07607
G1 X150.995 Y81.644 E20.14577
G1 X151.078 Y81.774 E20.15347
G1 X151.77 Y82.706 E20.21138
G1 X151.881 Y82.865 E20.22106
G1 X152.364 Y83.605 E20.26514
G1 X152.425 Y83.702 E20.27086
G1 X152.657 Y84.087 E20.29329
G1 X152.742 Y84.237 E20.30189
G1 X152.933 Y84.598 E20.32226
G1 X153.863 Y86.413 E20.42401
G1 X154.636 Y87.811 E20.50371
G1 X155.193 Y88.843 E20.56222
G1 X155.279 Y89.013 E20.57172
G1 X155.599 Y89.701 E20.60958
G1 X155.855 Y90.298 E20.64198
G1 X155.92 Y90.462 E20.65078
G1 X156.068 Y90.869 E20.67239
G1 X156.717 Y92.743 E20.77133
G1 X157.228 Y94.073 E20.84242
G1 X157.255 Y94.165 E20.8472
G1 X157.684 Y95.311 E20.90825
G1 X157.746 Y95.494 E20.91789
G1 X157.994 Y96.303 E20.9601
G1 X158.026 Y96.413 E20.96582
G1 X158.158 Y96.906 E20.99128
G1 X158.198 Y97.072 E20.9998
G1 X158.281 Y97.467 E21.01994
G1 X158.669 Y99.444 E21.12045
G1 X158.987 Y100.813 E21.19057
G1 X159.27 Y102.113 E21.25695
G1 X159.304 Y102.294 E21.26613
G1 X159.43 Y103.09 E21.30634
G1 X159.509 Y103.711 E21.33757
G1 X159.526 Y103.887 E21.34639
G1 X159.547 Y104.194 E21.36175
G1 X159.664 Y106.347 E21.46932
G1 X159.783 Y107.733 E21.53872
G1 X159.887 Y109.078 E21.60602
G1 X159.897 Y109.271 E21.61566
G1 X159.91 Y110.038 E21.65394
G1 X159.903 Y110.643 E21.68412
G1 X159.895 Y110.827 E21.69331
G1 X159.868 Y111.192 E21.71157
G1 X159.686 Y113.337 E21.81897
G1 X159.582 Y115.262 E21.91515
G1 X159.529 Y116.068 E21.95545
G1 X159.512 Y116.25 E21.96456
G1 X159.425 Y116.955 E22
G1 X159.33 Y117.576 E22.03135
G1 X159.297 Y117.753 E22.04033
G1 X159.231 Y118.062 E22.05609
G1 X158.725 Y120.287 E22.16993
G1 X158.331 Y122.289 E22.27173
G1 X158.202 Y122.909 E22.30332
G1 X158.159 Y123.089 E22.31256
G1 X157.977 Y123.765 E22.34748
G1 X157.783 Y124.409 E22.38104
G1 X157.648 Y124.792 E22.4013
G1 X156.857 Y126.873 E22.51237
G1 X156.413 Y128.167 E22.58062
G1 X156.372 Y128.261 E22.58574
G1 X155.965 Y129.415 E22.64679
G1 X155.893 Y129.599 E22.65664
G1 X155.525 Y130.463 E22.70349
