;FLAVOR:Marlin
;TIME:11303
;Filament used: 14.4628m
;Layer height: 0.4
;MINX:11.949
;MINY:33
;MINZ:0.3
;MAXX:208.051
;MAXY:187
;MAXZ:11.1
;Generated with Cura_SteamEngine 4.8.0
M140 S60
M105
M190 S60
M104 S200
M105
M109 S200
M82 ;absolute extrusion mode
G28 ;Home
G1 Z15.0 F2000 ;Move the platform
G92 E0
G92 E0
G1 F1500 E-6.5
;LAYER_COUNT:28
;LAYER:0
M107
M204 S1000
G0 F7500 X21.43 Y35.799 Z0.3
;TYPE:SKIRT
G1 F1500 E0
G1 X22.027 Y35.454 E0.0344
G1 X22.939 Y34.98 E0.08568
G1 X23.547 Y34.696 E0.11916
G1 X24.492 Y34.304 E0.1702
G1 X25.136 Y34.07 E0.20438
G1 X26.113 Y33.762 E0.25549
G1 X26.765 Y33.587 E0.28917
G1 X27.768 Y33.364 E0.34043
G1 X28.449 Y33.244 E0.37493
G1 X29.465 Y33.111 E0.42605
G1 X30.134 Y33.053 E0.45955
G1 X31.157 Y33.008 E0.51064
G1 X31.5 Y33 E0.52776
G1 X188.499 Y33 E8.36047
G1 X188.841 Y33.008 E8.37754
G1 X189.865 Y33.053 E8.42867
G1 X190.535 Y33.111 E8.46223
G1 X191.551 Y33.244 E8.51335
G1 X192.232 Y33.364 E8.54785
G1 X193.235 Y33.587 E8.59911
G1 X193.887 Y33.762 E8.63279
G1 X194.864 Y34.07 E8.68389
G1 X195.508 Y34.304 E8.71808
G1 X196.453 Y34.696 E8.76912
G1 X197.061 Y34.98 E8.8026
G1 X197.971 Y35.453 E8.85377
G1 X198.57 Y35.799 E8.88828
G1 X199.435 Y36.351 E8.93947
G1 X199.987 Y36.738 E8.9731
G1 X200.799 Y37.361 E9.02417
G1 X201.322 Y37.799 E9.0582
G1 X202.078 Y38.492 E9.10936
G1 X202.556 Y38.971 E9.14313
G1 X203.25 Y39.728 E9.19436
G1 X203.677 Y40.235 E9.22743
G1 X204.288 Y41.028 E9.27738
G1 X204.371 Y41.139 E9.28429
G1 X204.7 Y41.616 E9.3132
G1 X205.251 Y42.48 E9.36432
G1 X205.596 Y43.077 E9.39872
G1 X206.07 Y43.989 E9.45
G1 X206.354 Y44.597 E9.48348
G1 X206.746 Y45.542 E9.53452
G1 X206.98 Y46.186 E9.56871
G1 X207.288 Y47.163 E9.61982
G1 X207.463 Y47.814 E9.65345
G1 X207.686 Y48.816 E9.70466
G1 X207.806 Y49.497 E9.73916
G1 X207.939 Y50.512 E9.79023
G1 X207.997 Y51.175 E9.82343
G1 X208.043 Y52.2 E9.87462
G1 X208.051 Y52.55 E9.89209
G1 X208.05 Y167.449 E15.62442
G1 X208.042 Y167.791 E15.64149
G1 X207.997 Y168.815 E15.69263
G1 X207.939 Y169.485 E15.72618
G1 X207.806 Y170.501 E15.7773
G1 X207.686 Y171.182 E15.8118
G1 X207.463 Y172.185 E15.86306
G1 X207.289 Y172.835 E15.89663
G1 X206.982 Y173.81 E15.94763
G1 X206.746 Y174.457 E15.98199
G1 X206.353 Y175.404 E16.03314
G1 X206.07 Y176.011 E16.06655
G1 X205.597 Y176.921 E16.11772
G1 X205.252 Y177.518 E16.15212
G1 X204.701 Y178.382 E16.20324
G1 X204.313 Y178.937 E16.23703
G1 X203.689 Y179.75 E16.28816
G1 X203.251 Y180.272 E16.32216
G1 X202.558 Y181.028 E16.37332
G1 X202.079 Y181.506 E16.40708
G1 X201.322 Y182.2 E16.45832
G1 X200.815 Y182.627 E16.49139
G1 X200.022 Y183.238 E16.54133
G1 X199.911 Y183.321 E16.54825
G1 X199.434 Y183.65 E16.57716
G1 X198.57 Y184.201 E16.62828
G1 X197.973 Y184.546 E16.66268
G1 X197.061 Y185.02 E16.71396
G1 X196.453 Y185.304 E16.74744
G1 X195.508 Y185.696 E16.79848
G1 X194.864 Y185.93 E16.83267
G1 X193.887 Y186.238 E16.88377
G1 X193.235 Y186.413 E16.91745
G1 X192.232 Y186.636 E16.96871
G1 X191.551 Y186.756 E17.00321
G1 X190.535 Y186.889 E17.05433
G1 X189.866 Y186.947 E17.08784
G1 X188.843 Y186.992 E17.13892
G1 X188.5 Y187 E17.15604
G1 X31.501 Y187 E24.98875
G1 X31.159 Y186.992 E25.00582
G1 X30.135 Y186.947 E25.05696
G1 X29.465 Y186.889 E25.09051
G1 X28.449 Y186.756 E25.14163
G1 X27.768 Y186.636 E25.17613
G1 X26.765 Y186.413 E25.22739
G1 X26.113 Y186.238 E25.26107
G1 X25.136 Y185.93 E25.31218
G1 X24.492 Y185.696 E25.34636
G1 X23.547 Y185.304 E25.3974
G1 X22.939 Y185.02 E25.43088
G1 X22.027 Y184.546 E25.48216
G1 X21.427 Y184.199 E25.51674
G1 X20.564 Y183.648 E25.56782
G1 X20.013 Y183.262 E25.60139
G1 X19.201 Y182.639 E25.65245
G1 X18.678 Y182.2 E25.68651
G1 X17.921 Y181.506 E25.73775
G1 X17.442 Y181.028 E25.77151
G1 X16.749 Y180.272 E25.82267
G1 X16.323 Y179.765 E25.85571
G1 X15.719 Y178.981 E25.90509
G1 X15.635 Y178.869 E25.91207
G1 X15.296 Y178.38 E25.94176
G1 X14.745 Y177.515 E25.99292
G1 X14.403 Y176.921 E26.02712
G1 X13.93 Y176.011 E26.07829
G1 X13.647 Y175.404 E26.1117
G1 X13.254 Y174.457 E26.16285
G1 X13.018 Y173.81 E26.19721
G1 X12.711 Y172.835 E26.24821
G1 X12.537 Y172.185 E26.28178
G1 X12.314 Y171.182 E26.33304
G1 X12.194 Y170.501 E26.36754
G1 X12.061 Y169.485 E26.41866
G1 X12.003 Y168.816 E26.45216
G1 X11.958 Y167.793 E26.50325
G1 X11.95 Y167.45 E26.52037
G1 X11.949 Y52.551 E32.2527
G1 X11.957 Y52.201 E32.27017
G1 X12.003 Y51.177 E32.32131
G1 X12.061 Y50.515 E32.35446
G1 X12.194 Y49.499 E32.40558
G1 X12.314 Y48.818 E32.44008
G1 X12.537 Y47.815 E32.49134
G1 X12.711 Y47.165 E32.52491
G1 X13.018 Y46.19 E32.57591
G1 X13.254 Y45.543 E32.61027
G1 X13.647 Y44.596 E32.66142
G1 X13.93 Y43.989 E32.69483
G1 X14.403 Y43.079 E32.746
G1 X14.748 Y42.482 E32.7804
G1 X15.299 Y41.618 E32.83153
G1 X15.687 Y41.063 E32.86531
G1 X16.311 Y40.25 E32.91644
G1 X16.749 Y39.728 E32.95044
G1 X17.442 Y38.972 E33.0016
G1 X17.921 Y38.494 E33.03536
G1 X18.678 Y37.8 E33.0866
G1 X19.185 Y37.373 E33.11967
G1 X19.978 Y36.762 E33.16961
G1 X20.089 Y36.679 E33.17653
G1 X20.566 Y36.35 E33.20544
G1 X21.43 Y35.799 E33.25656
G0 F7500 X21.645 Y36.136
G1 F1500 X22.211 Y35.809 E33.28917
G1 X23.123 Y35.335 E33.34045
G1 X23.701 Y35.066 E33.37226
G1 X24.646 Y34.674 E33.4233
G1 X25.256 Y34.451 E33.4557
G1 X26.233 Y34.143 E33.50681
G1 X26.852 Y33.977 E33.53878
G1 X27.855 Y33.754 E33.59005
G1 X28.5 Y33.641 E33.62272
G1 X29.516 Y33.508 E33.67384
G1 X30.152 Y33.452 E33.70569
G1 X31.175 Y33.407 E33.75678
G1 X31.5 Y33.4 E33.77299
G1 X188.499 Y33.4 E41.60571
G1 X188.824 Y33.407 E41.62192
G1 X189.848 Y33.452 E41.67306
G1 X190.484 Y33.508 E41.70491
G1 X191.5 Y33.641 E41.75604
G1 X192.145 Y33.754 E41.7887
G1 X193.148 Y33.977 E41.83997
G1 X193.767 Y34.143 E41.87194
G1 X194.744 Y34.451 E41.92305
G1 X195.354 Y34.674 E41.95545
G1 X196.299 Y35.066 E42.00649
G1 X196.877 Y35.335 E42.0383
G1 X197.787 Y35.808 E42.08946
G1 X198.355 Y36.136 E42.12219
G1 X199.22 Y36.688 E42.17338
G1 X199.744 Y37.055 E42.2053
G1 X200.556 Y37.678 E42.25636
G1 X201.051 Y38.094 E42.28862
G1 X201.807 Y38.787 E42.33978
G1 X202.262 Y39.241 E42.37185
G1 X202.956 Y39.998 E42.42309
G1 X203.36 Y40.479 E42.45443
G1 X203.967 Y41.268 E42.50409
G1 X204.05 Y41.379 E42.511
G1 X204.363 Y41.831 E42.53843
G1 X204.914 Y42.695 E42.58956
G1 X205.241 Y43.261 E42.62217
G1 X205.715 Y44.173 E42.67345
G1 X205.984 Y44.751 E42.70526
G1 X206.376 Y45.696 E42.7563
G1 X206.599 Y46.306 E42.7887
G1 X206.907 Y47.283 E42.83981
G1 X207.072 Y47.9 E42.87167
G1 X207.295 Y48.902 E42.92288
G1 X207.409 Y49.549 E42.95566
G1 X207.542 Y50.564 E43.00673
G1 X207.598 Y51.193 E43.03824
G1 X207.644 Y52.218 E43.08943
G1 X207.651 Y52.55 E43.10599
G1 X207.65 Y167.449 E48.83833
G1 X207.643 Y167.774 E48.85455
G1 X207.598 Y168.798 E48.90568
G1 X207.542 Y169.434 E48.93754
G1 X207.409 Y170.45 E48.98866
G1 X207.296 Y171.095 E49.02133
G1 X207.073 Y172.098 E49.07259
G1 X206.907 Y172.714 E49.10442
G1 X206.6 Y173.689 E49.15541
G1 X206.377 Y174.303 E49.188
G1 X205.984 Y175.25 E49.23916
G1 X205.715 Y175.827 E49.27092
G1 X205.242 Y176.737 E49.32208
G1 X204.915 Y177.303 E49.3547
G1 X204.364 Y178.167 E49.40582
G1 X203.995 Y178.694 E49.43792
G1 X203.371 Y179.507 E49.48905
G1 X202.956 Y180.001 E49.52124
G1 X202.263 Y180.757 E49.5724
G1 X201.809 Y181.212 E49.60447
G1 X201.052 Y181.906 E49.65571
G1 X200.571 Y182.31 E49.68704
G1 X199.782 Y182.917 E49.73671
G1 X199.671 Y183 E49.74362
G1 X199.219 Y183.313 E49.77105
G1 X198.355 Y183.864 E49.82218
G1 X197.789 Y184.191 E49.85479
G1 X196.877 Y184.665 E49.90607
G1 X196.299 Y184.934 E49.93787
G1 X195.354 Y185.326 E49.98892
G1 X194.744 Y185.549 E50.02132
G1 X193.767 Y185.857 E50.07243
G1 X193.148 Y186.023 E50.1044
G1 X192.145 Y186.246 E50.15566
G1 X191.5 Y186.359 E50.18833
G1 X190.484 Y186.492 E50.23945
G1 X189.848 Y186.548 E50.2713
G1 X188.825 Y186.593 E50.32239
G1 X188.5 Y186.6 E50.33861
G1 X31.501 Y186.6 E58.17132
G1 X31.176 Y186.593 E58.18754
G1 X30.152 Y186.548 E58.23868
G1 X29.516 Y186.492 E58.27053
G1 X28.5 Y186.359 E58.32165
G1 X27.855 Y186.246 E58.35432
G1 X26.852 Y186.023 E58.40558
G1 X26.233 Y185.857 E58.43755
G1 X25.256 Y185.549 E58.48866
G1 X24.646 Y185.326 E58.52106
G1 X23.701 Y184.934 E58.57211
G1 X23.123 Y184.665 E58.60391
G1 X22.211 Y184.191 E58.65519
G1 X21.642 Y183.862 E58.68798
G1 X20.779 Y183.311 E58.73906
G1 X20.256 Y182.945 E58.77091
G1 X19.444 Y182.322 E58.82197
G1 X18.948 Y181.906 E58.85427
G1 X18.191 Y181.212 E58.90551
G1 X17.737 Y180.757 E58.93757
G1 X17.044 Y180.001 E58.98874
G1 X16.64 Y179.521 E59.02004
G1 X16.039 Y178.741 E59.06917
G1 X15.955 Y178.629 E59.07615
G1 X15.634 Y178.165 E59.1043
G1 X15.083 Y177.3 E59.15547
G1 X14.758 Y176.737 E59.1879
G1 X14.285 Y175.827 E59.23906
G1 X14.016 Y175.25 E59.27083
G1 X13.623 Y174.303 E59.32198
G1 X13.4 Y173.689 E59.35457
G1 X13.093 Y172.714 E59.40557
G1 X12.927 Y172.098 E59.43739
G1 X12.704 Y171.095 E59.48866
G1 X12.591 Y170.45 E59.52133
G1 X12.458 Y169.434 E59.57245
G1 X12.402 Y168.798 E59.6043
G1 X12.357 Y167.775 E59.65539
G1 X12.35 Y167.45 E59.6716
G1 X12.349 Y52.551 E65.40394
G1 X12.356 Y52.219 E65.42051
G1 X12.402 Y51.195 E65.47165
G1 X12.458 Y50.566 E65.50315
G1 X12.591 Y49.55 E65.55427
G1 X12.704 Y48.905 E65.58694
G1 X12.927 Y47.902 E65.6382
G1 X13.093 Y47.286 E65.67003
G1 X13.4 Y46.311 E65.72103
G1 X13.623 Y45.697 E65.75362
G1 X14.016 Y44.75 E65.80477
G1 X14.285 Y44.173 E65.83653
G1 X14.758 Y43.263 E65.8877
G1 X15.085 Y42.697 E65.92031
G1 X15.636 Y41.833 E65.97144
G1 X16.005 Y41.306 E66.00353
G1 X16.629 Y40.493 E66.05466
G1 X17.044 Y39.999 E66.08685
G1 X17.737 Y39.243 E66.13802
G1 X18.191 Y38.788 E66.17008
G1 X18.948 Y38.094 E66.22132
G1 X19.429 Y37.69 E66.25266
G1 X20.218 Y37.083 E66.30232
G1 X20.329 Y37 E66.30924
G1 X20.781 Y36.687 E66.33667
G1 X21.645 Y36.136 E66.38779
G0 F7500 X21.86 Y36.473
G1 F1500 X22.396 Y36.164 E66.41866
G1 X23.308 Y35.69 E66.46994
G1 X23.854 Y35.435 E66.5
G1 X24.799 Y35.043 E66.55104
G1 X25.376 Y34.833 E66.58168
G1 X26.353 Y34.525 E66.63278
G1 X26.939 Y34.368 E66.66305
G1 X27.942 Y34.145 E66.71431
G1 X28.552 Y34.037 E66.74522
G1 X29.568 Y33.904 E66.79634
G1 X30.169 Y33.852 E66.82644
G1 X31.192 Y33.807 E66.87752
G1 X31.5 Y33.8 E66.89289
G1 X188.499 Y33.8 E74.72561
G1 X188.806 Y33.807 E74.74093
G1 X189.83 Y33.852 E74.79206
G1 X190.432 Y33.904 E74.82221
G1 X191.448 Y34.037 E74.87333
G1 X192.058 Y34.145 E74.90424
G1 X193.061 Y34.368 E74.9555
G1 X193.647 Y34.525 E74.98576
G1 X194.624 Y34.833 E75.03687
G1 X195.201 Y35.043 E75.06751
G1 X196.146 Y35.435 E75.11855
G1 X196.692 Y35.69 E75.14861
G1 X197.602 Y36.163 E75.19978
G1 X198.14 Y36.473 E75.23076
G1 X199.005 Y37.025 E75.28195
G1 X199.5 Y37.372 E75.31211
G1 X200.312 Y37.995 E75.36317
G1 X200.781 Y38.389 E75.39373
G1 X201.537 Y39.082 E75.44489
G1 X201.967 Y39.512 E75.47523
G1 X202.661 Y40.269 E75.52647
G1 X203.043 Y40.723 E75.55607
G1 X203.647 Y41.507 E75.60545
G1 X203.73 Y41.618 E75.61236
G1 X204.026 Y42.046 E75.63832
G1 X204.577 Y42.91 E75.68945
G1 X204.886 Y43.446 E75.72031
G1 X205.36 Y44.358 E75.77159
G1 X205.615 Y44.904 E75.80166
G1 X206.007 Y45.849 E75.8527
G1 X206.217 Y46.426 E75.88333
G1 X206.525 Y47.403 E75.93444
G1 X206.682 Y47.987 E75.96461
G1 X206.905 Y48.989 E76.01582
G1 X207.013 Y49.601 E76.04683
G1 X207.146 Y50.616 E76.0979
G1 X207.198 Y51.211 E76.1277
G1 X207.244 Y52.236 E76.17889
G1 X207.251 Y52.55 E76.19456
G1 X207.25 Y167.449 E81.92689
G1 X207.243 Y167.756 E81.94221
G1 X207.198 Y168.78 E81.99335
G1 X207.146 Y169.382 E82.02349
G1 X207.013 Y170.398 E82.07461
G1 X206.905 Y171.008 E82.10552
G1 X206.682 Y172.011 E82.15678
G1 X206.526 Y172.594 E82.18689
G1 X206.219 Y173.569 E82.23789
G1 X206.007 Y174.15 E82.26874
G1 X205.614 Y175.097 E82.3199
G1 X205.36 Y175.642 E82.3499
G1 X204.887 Y176.552 E82.40106
G1 X204.578 Y177.088 E82.43193
G1 X204.027 Y177.952 E82.48305
G1 X203.678 Y178.45 E82.51339
G1 X203.054 Y179.263 E82.56452
G1 X202.661 Y179.731 E82.59501
G1 X201.968 Y180.487 E82.64618
G1 X201.538 Y180.917 E82.67652
G1 X200.781 Y181.611 E82.72775
G1 X200.327 Y181.993 E82.75735
G1 X199.543 Y182.597 E82.80673
G1 X199.432 Y182.68 E82.81364
G1 X199.004 Y182.976 E82.83961
G1 X198.14 Y183.527 E82.89073
G1 X197.604 Y183.836 E82.9216
G1 X196.692 Y184.31 E82.97288
G1 X196.146 Y184.565 E83.00294
G1 X195.201 Y184.957 E83.05398
G1 X194.624 Y185.167 E83.08462
G1 X193.647 Y185.475 E83.13572
G1 X193.061 Y185.632 E83.16599
G1 X192.058 Y185.855 E83.21725
G1 X191.448 Y185.963 E83.24816
G1 X190.432 Y186.096 E83.29928
G1 X189.831 Y186.148 E83.32937
G1 X188.808 Y186.193 E83.38046
G1 X188.5 Y186.2 E83.39583
G1 X31.501 Y186.2 E91.22854
G1 X31.194 Y186.193 E91.24386
G1 X30.17 Y186.148 E91.295
G1 X29.568 Y186.096 E91.32515
G1 X28.552 Y185.963 E91.37627
G1 X27.942 Y185.855 E91.40717
G1 X26.939 Y185.632 E91.45844
G1 X26.353 Y185.475 E91.4887
G1 X25.376 Y185.167 E91.53981
G1 X24.799 Y184.957 E91.57044
G1 X23.854 Y184.565 E91.62149
G1 X23.308 Y184.31 E91.65155
G1 X22.396 Y183.836 E91.70283
G1 X21.857 Y183.525 E91.73387
G1 X20.994 Y182.974 E91.78496
G1 X20.5 Y182.628 E91.81505
G1 X19.688 Y182.005 E91.86611
G1 X19.219 Y181.611 E91.89667
G1 X18.462 Y180.917 E91.9479
G1 X18.032 Y180.487 E91.97824
G1 X17.339 Y179.731 E92.02941
G1 X16.957 Y179.277 E92.05901
G1 X16.359 Y178.501 E92.10789
G1 X16.275 Y178.389 E92.11487
G1 X15.971 Y177.95 E92.14151
G1 X15.42 Y177.085 E92.19268
G1 X15.113 Y176.552 E92.22336
G1 X14.64 Y175.642 E92.27453
G1 X14.386 Y175.097 E92.30453
G1 X13.993 Y174.15 E92.35568
G1 X13.781 Y173.569 E92.38654
G1 X13.474 Y172.594 E92.43753
G1 X13.318 Y172.011 E92.46764
G1 X13.095 Y171.008 E92.51891
G1 X12.987 Y170.398 E92.54981
G1 X12.854 Y169.382 E92.60093
G1 X12.802 Y168.781 E92.63103
G1 X12.757 Y167.758 E92.68212
G1 X12.75 Y167.45 E92.69749
G1 X12.749 Y52.551 E98.42982
G1 X12.756 Y52.237 E98.44549
G1 X12.802 Y51.213 E98.49663
G1 X12.854 Y50.618 E98.52643
G1 X12.987 Y49.602 E98.57755
G1 X13.095 Y48.992 E98.60845
G1 X13.318 Y47.989 E98.65972
G1 X13.474 Y47.406 E98.68983
G1 X13.781 Y46.431 E98.74082
G1 X13.993 Y45.85 E98.77168
G1 X14.386 Y44.903 E98.82283
G1 X14.64 Y44.358 E98.85283
G1 X15.113 Y43.448 E98.904
G1 X15.422 Y42.912 E98.93486
G1 X15.973 Y42.048 E98.98599
G1 X16.322 Y41.55 E99.01633
G1 X16.946 Y40.737 E99.06746
G1 X17.339 Y40.269 E99.09795
G1 X18.032 Y39.513 E99.14911
G1 X18.462 Y39.083 E99.17945
G1 X19.219 Y38.389 E99.23069
G1 X19.673 Y38.007 E99.26029
G1 X20.457 Y37.403 E99.30966
G1 X20.568 Y37.32 E99.31658
G1 X20.996 Y37.024 E99.34254
G1 X21.86 Y36.473 E99.39366
G0 F7500 X22.075 Y36.81
G1 F1500 X22.58 Y36.519 E99.42274
G1 X23.492 Y36.045 E99.47402
G1 X24.007 Y35.805 E99.50237
G1 X24.952 Y35.413 E99.55341
G1 X25.497 Y35.214 E99.58236
G1 X26.474 Y34.906 E99.63346
G1 X27.026 Y34.758 E99.66197
G1 X28.029 Y34.535 E99.71324
G1 X28.604 Y34.434 E99.74236
G1 X29.62 Y34.301 E99.79348
G1 X30.187 Y34.251 E99.82188
G1 X31.21 Y34.206 E99.87297
G1 X31.5 Y34.2 E99.88744
G1 X188.499 Y34.2 E107.72015
G1 X188.789 Y34.206 E107.73462
G1 X189.813 Y34.251 E107.78576
G1 X190.38 Y34.301 E107.81416
G1 X191.396 Y34.434 E107.86528
G1 X191.971 Y34.535 E107.8944
G1 X192.974 Y34.758 E107.94567
G1 X193.526 Y34.906 E107.97418
G1 X194.503 Y35.214 E108.02529
G1 X195.048 Y35.413 E108.05423
G1 X195.993 Y35.805 E108.10527
G1 X196.508 Y36.045 E108.13362
G1 X197.418 Y36.518 E108.18479
G1 X197.924 Y36.81 E108.21393
G1 X198.789 Y37.362 E108.26513
G1 X199.257 Y37.69 E108.29364
G1 X200.069 Y38.313 E108.3447
G1 X200.511 Y38.684 E108.37349
G1 X201.267 Y39.377 E108.42465
G1 X201.672 Y39.782 E108.45323
G1 X202.366 Y40.539 E108.50447
G1 X202.727 Y40.968 E108.53244
G1 X203.327 Y41.747 E108.58149
G1 X203.41 Y41.858 E108.58841
G1 X203.689 Y42.261 E108.61286
G1 X204.24 Y43.125 E108.66399
G1 X204.531 Y43.63 E108.69307
G1 X205.005 Y44.542 E108.74434
G1 X205.245 Y45.057 E108.77269
G1 X205.637 Y46.002 E108.82373
G1 X205.836 Y46.547 E108.85268
G1 X206.144 Y47.524 E108.90378
G1 X206.291 Y48.074 E108.93219
G1 X206.514 Y49.076 E108.9834
G1 X206.616 Y49.653 E109.01263
G1 X206.749 Y50.668 E109.06371
G1 X206.798 Y51.229 E109.0918
G1 X206.844 Y52.254 E109.14299
G1 X206.851 Y52.55 E109.15776
G1 X206.85 Y167.449 E114.8901
G1 X206.844 Y167.739 E114.90457
G1 X206.799 Y168.763 E114.9557
G1 X206.749 Y169.33 E114.9841
