;FLAVOR:Marlin
;TIME:4108
;Filament used: 4.56852m
;Layer height: 0.4
;MINX:76.664
;MINY:71.271
;MINZ:0.3
;MAXX:166.593
;MAXY:130.19
;MAXZ:9.9
;Generated with Cura_SteamEngine 4.8.0
M140 S60
M105
M190 S60
M104 S200
M105
M109 S200
M82 ;absolute extrusion mode
G28 ;Home
G1 Z15.0 F2000 ;Move the platform
G92 E0
G92 E0
G1 F1500 E-6.5
;LAYER_COUNT:25
;LAYER:0
M107
M204 S1000
G0 F7500 X78.048 Y93.448 Z0.3
;TYPE:SKIRT
G1 F1500 E0
G1 X78.416 Y93.195 E0.02228
G1 X78.953 Y92.873 E0.05352
G1 X80.398 Y92.035 E0.13686
G1 X82.719 Y90.602 E0.27294
G1 X83.074 Y90.377 E0.29391
G1 X83.547 Y90.124 E0.32067
G1 X84.14 Y89.922 E0.35193
G1 X86.946 Y89.23 E0.49611
G1 X89.56 Y88.506 E0.63144
G1 X92.186 Y87.698 E0.76851
G1 X94.735 Y86.834 E0.90279
G1 X97.311 Y85.879 E1.03985
G1 X99.858 Y84.852 E1.17686
G1 X102.35 Y83.764 E1.31252
G1 X104.811 Y82.606 E1.44821
G1 X107.225 Y81.384 E1.5832
G1 X109.64 Y80.077 E1.7202
G1 X112.603 Y78.347 E1.89138
G1 X114.405 Y77.252 E1.99658
G1 X116.727 Y75.796 E2.13331
G1 X117.175 Y75.499 E2.16013
G1 X117.926 Y75.019 E2.20459
G1 X118.185 Y74.868 E2.21955
G1 X118.337 Y74.789 E2.2281
G1 X118.708 Y74.605 E2.24876
G1 X119.376 Y74.296 E2.28548
G1 X119.745 Y74.149 E2.30529
G1 X121.035 Y73.719 E2.37313
G1 X124.202 Y72.604 E2.54064
G1 X124.803 Y72.382 E2.57261
G1 X125.191 Y72.262 E2.59287
G1 X125.849 Y72.1 E2.62668
G1 X126.429 Y71.974 E2.65629
G1 X126.835 Y71.911 E2.67679
G1 X128.342 Y71.764 E2.75233
G1 X131.044 Y71.459 E2.88799
G1 X132.066 Y71.322 E2.93943
G1 X132.469 Y71.291 E2.9596
G1 X133.421 Y71.271 E3.0071
G1 X133.561 Y71.271 E3.01409
G1 X133.897 Y71.277 E3.03085
G1 X134.29 Y71.305 E3.05051
G1 X135.448 Y71.453 E3.10875
G1 X138.194 Y71.764 E3.24663
G1 X139.656 Y71.909 E3.31992
G1 X139.935 Y71.947 E3.33397
G1 X140.114 Y71.981 E3.34306
G1 X140.595 Y72.083 E3.36759
G1 X141.29 Y72.253 E3.40329
G1 X141.667 Y72.368 E3.42295
G1 X142.752 Y72.766 E3.48061
G1 X145.313 Y73.667 E3.61606
G1 X145.442 Y73.708 E3.62281
G1 X146.77 Y74.152 E3.69267
G1 X147.146 Y74.302 E3.71286
G1 X147.759 Y74.588 E3.74661
G1 X148.264 Y74.839 E3.77475
G1 X148.623 Y75.044 E3.79537
G1 X149.66 Y75.718 E3.85707
G1 X151.976 Y77.175 E3.99358
G1 X152.115 Y77.257 E4.00164
G1 X153.225 Y77.935 E4.06653
G1 X153.553 Y78.161 E4.0864
G1 X154.063 Y78.558 E4.11864
G1 X154.528 Y78.941 E4.1487
G1 X154.748 Y79.139 E4.16346
G1 X154.86 Y79.249 E4.1713
G1 X155.655 Y80.069 E4.22828
G1 X157.574 Y81.994 E4.36388
G1 X158.656 Y83.046 E4.43917
G1 X158.928 Y83.342 E4.45923
G1 X159.328 Y83.831 E4.49075
G1 X159.701 Y84.312 E4.52112
G1 X159.932 Y84.647 E4.54142
G1 X160.634 Y85.802 E4.60885
G1 X162.124 Y88.178 E4.74877
G1 X162.693 Y89.041 E4.80034
G1 X162.836 Y89.268 E4.81372
G1 X162.983 Y89.524 E4.82845
G1 X163.167 Y89.88 E4.84845
G1 X163.254 Y90.062 E4.85851
G1 X163.552 Y90.703 E4.89378
G1 X163.704 Y91.084 E4.91424
G1 X164.115 Y92.319 E4.97918
G1 X165.233 Y95.497 E5.14725
G1 X165.474 Y96.144 E5.1817
G1 X165.597 Y96.543 E5.20253
G1 X165.758 Y97.201 E5.23633
G1 X165.886 Y97.793 E5.26654
G1 X165.949 Y98.198 E5.28699
G1 X166.063 Y99.369 E5.34569
G1 X166.374 Y102.156 E5.4856
G1 X166.407 Y102.393 E5.49753
G1 X166.556 Y103.588 E5.55762
G1 X166.58 Y103.864 E5.57144
G1 X166.588 Y104.073 E5.58187
G1 X166.593 Y104.568 E5.60657
G1 X166.584 Y105.225 E5.63935
G1 X166.536 Y105.76 E5.66615
G1 X166.41 Y106.281 E5.69289
G1 X166.208 Y106.777 E5.71961
G1 X165.934 Y107.239 E5.74641
G1 X165.595 Y107.654 E5.77314
G1 X165.198 Y108.015 E5.79991
G1 X164.831 Y108.266 E5.82209
G1 X164.253 Y108.611 E5.85568
G1 X162.966 Y109.355 E5.92984
G1 X160.531 Y110.856 E6.07255
G1 X160.189 Y111.075 E6.09281
G1 X159.717 Y111.33 E6.11958
G1 X159.059 Y111.55 E6.15419
G1 X158.975 Y111.569 E6.15849
G1 X156.3 Y112.23 E6.29596
G1 X153.704 Y112.949 E6.43035
G1 X151.057 Y113.763 E6.56851
G1 X148.517 Y114.624 E6.70232
G1 X145.943 Y115.578 E6.83927
G1 X143.395 Y116.606 E6.97635
G1 X140.918 Y117.688 E7.1112
G1 X138.441 Y118.853 E7.24776
G1 X136.015 Y120.081 E7.38342
G1 X133.605 Y121.386 E7.52015
G1 X130.559 Y123.166 E7.69616
G1 X128.953 Y124.144 E7.78997
G1 X128.784 Y124.244 E7.79977
G1 X125.425 Y126.38 E7.99836
G1 X125.12 Y126.553 E8.01586
G1 X124.278 Y126.978 E8.06291
G1 X123.894 Y127.157 E8.08405
G1 X123.506 Y127.311 E8.10488
G1 X122.079 Y127.784 E8.17988
G1 X119.41 Y128.719 E8.32097
G1 X118.55 Y129.041 E8.36678
G1 X118.166 Y129.161 E8.38686
G1 X117.299 Y129.379 E8.43146
G1 X117.17 Y129.409 E8.43806
G1 X116.794 Y129.489 E8.45724
G1 X116.398 Y129.551 E8.47724
G1 X115.354 Y129.653 E8.52957
G1 X115.287 Y129.658 E8.53293
G1 X112.574 Y129.953 E8.66908
G1 X111.155 Y130.14 E8.74048
G1 X110.762 Y130.17 E8.76015
G1 X109.883 Y130.189 E8.80401
G1 X109.757 Y130.19 E8.8103
G1 X109.38 Y130.185 E8.82911
G1 X108.977 Y130.157 E8.84926
G1 X107.867 Y130.016 E8.90508
G1 X107.763 Y130.001 E8.91033
G1 X105.065 Y129.689 E9.04583
G1 X103.84 Y129.576 E9.1072
G1 X103.547 Y129.544 E9.12191
G1 X103.244 Y129.497 E9.1372
G1 X102.859 Y129.42 E9.15679
G1 X102.632 Y129.368 E9.16841
G1 X101.964 Y129.205 E9.20271
G1 X101.579 Y129.089 E9.22278
G1 X100.299 Y128.619 E9.2908
G1 X96.516 Y127.316 E9.49042
G1 X96.189 Y127.185 E9.50799
G1 X95.453 Y126.848 E9.54838
G1 X94.992 Y126.621 E9.57402
G1 X94.635 Y126.419 E9.59448
G1 X93.654 Y125.783 E9.65281
G1 X93.526 Y125.697 E9.6605
G1 X90.066 Y123.544 E9.86381
G1 X89.78 Y123.347 E9.88114
G1 X89.154 Y122.868 E9.92046
G1 X89.053 Y122.788 E9.92689
G1 X88.713 Y122.508 E9.94887
G1 X88.42 Y122.238 E9.96874
G1 X87.467 Y121.256 E10.03701
G1 X87.411 Y121.197 E10.04107
G1 X85.473 Y119.258 E10.17784
G1 X84.714 Y118.53 E10.23031
G1 X84.438 Y118.234 E10.25051
G1 X83.84 Y117.516 E10.29712
G1 X83.758 Y117.414 E10.30365
G1 X83.543 Y117.136 E10.32119
G1 X83.315 Y116.804 E10.34128
G1 X82.578 Y115.591 E10.41209
G1 X81.345 Y113.611 E10.52846
G1 X80.488 Y112.296 E10.60677
G1 X80.294 Y111.961 E10.62608
G1 X79.928 Y111.241 E10.66638
G1 X79.873 Y111.128 E10.67265
G1 X79.694 Y110.743 E10.69383
G1 X79.541 Y110.359 E10.71445
G1 X79.068 Y108.932 E10.78946
G1 X78.133 Y106.263 E10.93055
G1 X77.811 Y105.403 E10.97636
G1 X77.691 Y105.019 E10.99643
G1 X77.473 Y104.152 E11.04103
G1 X77.443 Y104.023 E11.04764
G1 X77.363 Y103.647 E11.06682
G1 X77.301 Y103.25 E11.08687
G1 X77.182 Y102.033 E11.14787
G1 X77.173 Y101.923 E11.15338
G1 X76.875 Y99.229 E11.2886
G1 X76.716 Y98.042 E11.34835
G1 X76.685 Y97.639 E11.36852
G1 X76.664 Y96.577 E11.42151
G1 X76.668 Y96.239 E11.43837
G1 X76.715 Y95.705 E11.46512
G1 X76.84 Y95.184 E11.49185
G1 X77.041 Y94.687 E11.5186
G1 X77.314 Y94.225 E11.54537
G1 X77.652 Y93.809 E11.57211
G1 X78.048 Y93.448 E11.59884
G0 F7500 X78.045 Y93.981
G1 F1500 X78.622 Y93.538 E11.63514
G1 X79.154 Y93.219 E11.66608
G1 X80.614 Y92.373 E11.75027
G1 X82.929 Y90.943 E11.88602
G1 X83.288 Y90.715 E11.90724
G1 X83.735 Y90.479 E11.93246
G1 X84.235 Y90.31 E11.95879
G1 X87.052 Y89.615 E12.10354
G1 X89.67 Y88.89 E12.23907
G1 X92.294 Y88.083 E12.37603
G1 X94.897 Y87.2 E12.51317
G1 X97.463 Y86.25 E12.64968
G1 X99.99 Y85.23 E12.78563
G1 X102.515 Y84.127 E12.9231
G1 X104.998 Y82.959 E13.06
G1 X107.417 Y81.735 E13.19525
G1 X109.84 Y80.424 E13.3327
G1 X112.79 Y78.701 E13.50314
G1 X114.612 Y77.594 E13.6095
G1 X116.939 Y76.136 E13.7465
G1 X117.391 Y75.836 E13.77357
G1 X118.142 Y75.356 E13.81803
G1 X118.371 Y75.222 E13.83127
G1 X118.515 Y75.147 E13.83937
G1 X118.886 Y74.963 E13.86003
G1 X119.544 Y74.659 E13.89619
G1 X119.872 Y74.529 E13.9138
G1 X121.168 Y74.097 E13.98195
G1 X124.292 Y72.997 E14.14719
G1 X124.941 Y72.757 E14.18171
G1 X125.287 Y72.651 E14.19976
G1 X126.038 Y72.467 E14.23834
G1 X126.513 Y72.365 E14.26258
G1 X126.874 Y72.309 E14.2808
G1 X128.354 Y72.165 E14.35499
G1 X131.098 Y71.855 E14.49276
G1 X132.119 Y71.718 E14.54415
G1 X132.478 Y71.691 E14.56211
G1 X133.43 Y71.671 E14.60962
G1 X133.554 Y71.671 E14.61581
G1 X133.89 Y71.677 E14.63257
G1 X134.239 Y71.702 E14.65003
G1 X135.367 Y71.846 E14.70676
G1 X138.162 Y72.163 E14.8471
G1 X139.617 Y72.307 E14.92004
G1 X139.931 Y72.353 E14.93588
G1 X140.512 Y72.475 E14.96549
G1 X140.615 Y72.498 E14.97076
G1 X141.194 Y72.641 E15.00051
G1 X141.529 Y72.744 E15.018
G1 X142.573 Y73.127 E15.07348
G1 X145.186 Y74.046 E15.21167
G1 X145.315 Y74.087 E15.21842
G1 X146.643 Y74.531 E15.28828
G1 X146.977 Y74.664 E15.30622
G1 X147.581 Y74.946 E15.33947
G1 X148.086 Y75.197 E15.36761
G1 X148.405 Y75.379 E15.38593
G1 X149.435 Y76.048 E15.44721
G1 X151.791 Y77.53 E15.58607
G1 X151.906 Y77.598 E15.59273
G1 X153.016 Y78.276 E15.65763
G1 X153.308 Y78.477 E15.67531
G1 X153.734 Y78.807 E15.7022
G1 X154.273 Y79.25 E15.737
G1 X154.47 Y79.426 E15.75018
G1 X154.572 Y79.528 E15.75738
G1 X155.336 Y80.316 E15.81214
G1 X157.283 Y82.269 E15.94972
G1 X157.387 Y82.368 E15.95688
G1 X158.377 Y83.332 E16.02582
G1 X158.619 Y83.595 E16.04365
G1 X159.012 Y84.076 E16.07464
G1 X159.385 Y84.557 E16.10501
G1 X159.59 Y84.855 E16.12305
G1 X160.295 Y86.015 E16.19078
G1 X161.781 Y88.383 E16.33025
G1 X162.355 Y89.254 E16.38229
G1 X162.498 Y89.481 E16.39568
G1 X162.628 Y89.709 E16.40877
G1 X162.807 Y90.054 E16.42816
G1 X162.892 Y90.231 E16.43796
G1 X163.19 Y90.872 E16.47323
G1 X163.324 Y91.211 E16.49141
G1 X163.725 Y92.415 E16.55472
G1 X164.861 Y95.642 E16.7254
G1 X165.099 Y96.283 E16.75952
G1 X165.208 Y96.638 E16.77804
G1 X165.39 Y97.387 E16.8165
G1 X165.495 Y97.877 E16.8415
G1 X165.551 Y98.237 E16.85968
G1 X165.67 Y99.457 E16.92083
G1 X165.974 Y102.184 E17.05773
G1 X166.01 Y102.442 E17.07072
G1 X166.159 Y103.637 E17.1308
G1 X166.184 Y103.968 E17.14736
G1 X166.188 Y104.078 E17.15285
G1 X166.193 Y104.563 E17.17705
G1 X166.184 Y105.22 E17.20983
G1 X166.137 Y105.723 E17.23504
G1 X166.011 Y106.213 E17.26028
G1 X165.81 Y106.677 E17.28551
G1 X165.539 Y107.103 E17.3107
G1 X165.203 Y107.481 E17.33593
G1 X164.626 Y107.923 E17.37219
G1 X164.053 Y108.265 E17.40548
G1 X162.761 Y109.011 E17.47991
G1 X160.307 Y110.525 E17.62377
G1 X159.974 Y110.738 E17.64349
G1 X159.527 Y110.976 E17.66876
G1 X158.97 Y111.16 E17.69802
G1 X158.903 Y111.175 E17.70145
G1 X156.202 Y111.842 E17.84025
G1 X153.552 Y112.576 E17.97743
G1 X150.98 Y113.368 E18.1117
G1 X148.365 Y114.254 E18.24945
G1 X145.79 Y115.208 E18.38645
G1 X143.234 Y116.24 E18.52397
G1 X140.767 Y117.318 E18.65828
G1 X138.255 Y118.499 E18.79677
G1 X135.837 Y119.723 E18.93198
G1 X133.429 Y121.027 E19.0686
G1 X130.3 Y122.855 E19.24939
G1 X128.793 Y123.773 E19.33743
G1 X128.567 Y123.906 E19.35051
G1 X125.21 Y126.042 E19.54902
G1 X124.94 Y126.196 E19.56453
G1 X124.204 Y126.569 E19.60569
G1 X123.725 Y126.794 E19.6321
G1 X123.38 Y126.931 E19.65062
G1 X121.947 Y127.406 E19.72593
G1 X119.318 Y128.327 E19.86491
G1 X118.41 Y128.667 E19.91328
G1 X118.068 Y128.773 E19.93115
G1 X117.201 Y128.991 E19.97575
G1 X117.087 Y129.018 E19.98159
G1 X116.711 Y129.098 E20.00077
G1 X116.359 Y129.153 E20.01854
G1 X115.323 Y129.254 E20.07048
G1 X115.246 Y129.26 E20.07433
G1 X112.523 Y129.555 E20.21097
G1 X111.103 Y129.743 E20.28244
G1 X110.753 Y129.77 E20.29995
G1 X109.763 Y129.79 E20.34935
G1 X109.386 Y129.785 E20.36816
G1 X109.027 Y129.76 E20.38612
G1 X107.924 Y129.62 E20.44159
G1 X107.83 Y129.606 E20.44633
G1 X105.108 Y129.291 E20.58304
G1 X103.884 Y129.178 E20.64436
G1 X103.591 Y129.146 E20.65907
G1 X103.321 Y129.105 E20.67269
G1 X102.947 Y129.03 E20.69172
G1 X102.726 Y128.98 E20.70302
G1 X102.058 Y128.817 E20.73733
G1 X101.717 Y128.713 E20.75512
G1 X100.439 Y128.244 E20.82303
G1 X96.646 Y126.938 E21.02317
G1 X96.356 Y126.822 E21.03875
G1 X95.62 Y126.485 E21.07914
G1 X95.169 Y126.263 E21.10422
G1 X94.853 Y126.083 E21.12236
G1 X93.877 Y125.451 E21.18037
G1 X93.759 Y125.372 E21.18745
G1 X90.277 Y123.205 E21.39207
G1 X90.023 Y123.029 E21.40748
G1 X89.397 Y122.55 E21.44681
G1 X88.968 Y122.199 E21.47446
G1 X88.707 Y121.959 E21.49215
G1 X87.701 Y120.922 E21.56423
G1 X85.75 Y118.969 E21.70196
G1 X84.99 Y118.241 E21.75446
G1 X84.745 Y117.978 E21.77239
G1 X84.147 Y117.26 E21.81901
G1 X84.075 Y117.17 E21.82476
G1 X83.86 Y116.892 E21.8423
G1 X83.657 Y116.597 E21.86016
G1 X83.159 Y115.776 E21.90807
G1 X82.945 Y115.425 E21.92858
G1 X81.669 Y113.375 E22.04905
G1 X80.823 Y112.078 E22.1263
G1 X80.65 Y111.78 E22.14349
G1 X80.284 Y111.06 E22.18379
G1 X80.235 Y110.959 E22.18939
G1 X80.056 Y110.574 E22.21057
G1 X79.921 Y110.233 E22.22887
G1 X79.446 Y108.8 E22.30419
G1 X78.525 Y106.171 E22.44316
G1 X78.185 Y105.263 E22.49154
G1 X78.079 Y104.921 E22.5094
G1 X77.861 Y104.054 E22.554
G1 X77.834 Y103.94 E22.55985
G1 X77.754 Y103.564 E22.57902
G1 X77.699 Y103.211 E22.59685
G1 X77.581 Y102.002 E22.65745
G1 X77.574 Y101.91 E22.66205
G1 X77.271 Y99.176 E22.79929
G1 X77.112 Y97.989 E22.85904
G1 X77.085 Y97.631 E22.87695
G1 X77.064 Y96.582 E22.9293
G1 X77.068 Y96.244 E22.94616
G1 X77.114 Y95.741 E22.97136
G1 X77.239 Y95.251 E22.99659
G1 X77.439 Y94.786 E23.02184
G1 X77.71 Y94.36 E23.04703
G1 X78.045 Y93.981 E23.07227
G1 F1500 E16.57227
;MESH:Gear barre B (Meshed).stl
G0 F7500 X80.203 Y95.564
G0 X80.678 Y96.527
G0 X85.165 Y97.938
G0 X87.222 Y100.397
;TYPE:WALL-INNER
G1 F1500 E23.07227
G1 X87.315 Y100.397 E23.07691
G1 X87.62 Y100.341 E23.09238
G1 X87.817 Y100.305 E23.10237
G1 X87.851 Y100.503 E23.10882
G1 X87.962 Y101.139 E23.14103
G1 X88.087 Y101.725 E23.17092
G1 X88.169 Y102.092 E23.18969
G1 X88.321 Y102.677 E23.21984
G1 X88.419 Y103.032 E23.23821
G1 X88.592 Y103.609 E23.26827
G1 X88.707 Y103.968 E23.28707
G1 X89.033 Y104.877 E23.33525
G1 X89.261 Y105.437 E23.36542
G1 X89.402 Y105.783 E23.38406
G1 X89.807 Y106.663 E23.43239
G1 X90.079 Y107.201 E23.46246
G1 X90.254 Y107.535 E23.48128
G1 X90.735 Y108.377 E23.52965
G1 X91.246 Y109.195 E23.57777
G1 X91.593 Y109.701 E23.60838
G1 X91.805 Y110.002 E23.62675
G1 X92.164 Y110.487 E23.65686
G1 X92.395 Y110.783 E23.67559
G1 X92.775 Y111.25 E23.70563
G1 X93.016 Y111.534 E23.72421
G1 X93.412 Y111.977 E23.75385
G1 X93.665 Y112.255 E23.77261
G1 X94.087 Y112.686 E23.8027
G1 X94.351 Y112.947 E23.82122
G1 X94.785 Y113.359 E23.85108
G1 X95.061 Y113.612 E23.86975
G1 X95.52 Y114.006 E23.89993
G1 X95.805 Y114.242 E23.91839
G1 X96.274 Y114.615 E23.94829
G1 X96.569 Y114.842 E23.96686
G1 X97.057 Y115.194 E23.99688
G1 X97.362 Y115.408 E24.01547
G1 X97.863 Y115.739 E24.04543
G1 X98.18 Y115.941 E24.06418
G1 X98.696 Y116.247 E24.09411
G1 X99.018 Y116.434 E24.11269
G1 X99.548 Y116.717 E24.14266
G1 X99.877 Y116.89 E24.16121
G1 X100.419 Y117.153 E24.19126
G1 X100.757 Y117.312 E24.2099
G1 X101.651 Y117.693 E24.25838
G1 X102.562 Y118.037 E24.30696
G1 X103.484 Y118.337 E24.35534
G1 X104.424 Y118.599 E24.40402
G1 X105.372 Y118.823 E24.45262
G1 X106.33 Y119.002 E24.50124
G1 X107.294 Y119.139 E24.54982
G1 X108.262 Y119.236 E24.59835
G1 X109.232 Y119.291 E24.64682
G1 X109.84 Y119.299 E24.67716
G1 X110.212 Y119.301 E24.69572
G1 X111.18 Y119.275 E24.74403
G1 X112.15 Y119.199 E24.79257
G1 X112.753 Y119.13 E24.82285
G1 X113.126 Y119.084 E24.8416
G1 X114.081 Y118.927 E24.88989
G1 X115.031 Y118.732 E24.93827
G1 X115.974 Y118.495 E24.98678
G1 X116.91 Y118.215 E25.03552
G1 X117.831 Y117.893 E25.0842
G1 X118.737 Y117.536 E25.13278
G1 X119.623 Y117.136 E25.18128
G1 X120.493 Y116.702 E25.22979
G1 X121.345 Y116.225 E25.2785
G1 X122.174 Y115.715 E25.32706
G1 X122.979 Y115.173 E25.37548
G1 X123.763 Y114.59 E25.42422
G1 X124.517 Y113.977 E25.4727
G1 X125.25 Y113.333 E25.52138
G1 X125.951 Y112.652 E25.57014
G1 X126.617 Y111.947 E25.61852
G1 X127.259 Y111.213 E25.66717
G1 X127.863 Y110.449 E25.71576
G1 X128.435 Y109.665 E25.76418
G1 X128.974 Y108.853 E25.8128
G1 X129.478 Y108.018 E25.86146
G1 X129.942 Y107.164 E25.90995
G1 X130.372 Y106.288 E25.95864
G1 X130.761 Y105.395 E26.00723
G1 X131.111 Y104.488 E26.05573
G1 X131.425 Y103.566 E26.10433
G1 X131.696 Y102.629 E26.15299
G1 X131.926 Y101.683 E26.20156
G1 X132.113 Y100.729 E26.25006
G1 X132.148 Y100.506 E26.26132
G1 X132.18 Y100.295 E26.27197
G1 X132.388 Y100.343 E26.27871
G1 X132.614 Y100.395 E26.29028
G1 X132.778 Y100.396 E26.29846
G1 X132.777 Y100.413
G1 X132.597 Y101.996 E26.37795
G1 X130.884 Y106.896 E26.63692
G1 X128.115 Y111.308 E26.89679
G1 X124.45 Y114.97 E27.15527
G1 X120.061 Y117.729 E27.41391
G1 X115.146 Y119.449 E27.6737
G1 X109.999 Y120.025 E27.93209
G1 X104.848 Y119.448 E28.19068
G1 X99.94 Y117.73 E28.45011
