;FLAVOR:Marlin
;TIME:7039
;Filament used: 8.54627m
;Layer height: 0.4
;MINX:55.822
;MINY:55.822
;MINZ:0.3
;MAXX:164.178
;MAXY:164.178
;MAXZ:5.9
;Generated with Cura_SteamEngine 4.8.0
M140 S60
M105
M190 S60
M104 S210
M105
M109 S210
M82 ;absolute extrusion mode
G28 ;Home
G1 Z15.0 F2000 ;Move the platform
G92 E0
G92 E0
G1 F1500 E-6.5
;LAYER_COUNT:15
;LAYER:0
M107
M204 S1000
G0 F7500 X74.386 Y68.995 Z0.3
;TYPE:SKIRT
G1 F1500 E0
G1 X74.645 Y68.751 E0.01775
G1 X75.539 Y67.988 E0.07639
G1 X75.738 Y67.826 E0.08919
G1 X76.294 Y67.382 E0.12469
G1 X76.625 Y67.147 E0.14494
G1 X77.655 Y66.5 E0.20563
G1 X79.942 Y65.018 E0.34159
G1 X82.189 Y63.471 E0.47769
G1 X83.028 Y62.867 E0.52927
G1 X83.367 Y62.651 E0.54932
G1 X84.462 Y62.037 E0.61195
G1 X85.255 Y61.625 E0.65654
G1 X85.635 Y61.455 E0.67731
G1 X86.673 Y61.06 E0.73271
G1 X89.225 Y60.048 E0.86968
G1 X91.683 Y58.991 E1.00317
G1 X92.639 Y58.555 E1.05559
G1 X92.908 Y58.438 E1.07022
G1 X93.186 Y58.33 E1.0851
G1 X93.556 Y58.206 E1.10457
G1 X94.473 Y57.927 E1.15239
G1 X95.179 Y57.723 E1.18905
G1 X95.575 Y57.633 E1.20931
G1 X96.807 Y57.424 E1.27166
G1 X99.498 Y56.926 E1.40819
G1 X102.19 Y56.351 E1.54553
G1 X103.218 Y56.109 E1.59821
G1 X103.595 Y56.041 E1.61733
G1 X104.049 Y55.985 E1.64015
G1 X104.969 Y55.895 E1.68627
G1 X105.65 Y55.837 E1.72037
G1 X106.057 Y55.825 E1.74068
G1 X107.216 Y55.857 E1.79852
G1 X109.967 Y55.897 E1.93579
G1 X112.728 Y55.859 E2.07355
G1 X113.536 Y55.829 E2.11389
G1 X113.925 Y55.822 E2.1333
G1 X114.224 Y55.829 E2.14822
G1 X114.66 Y55.859 E2.17002
G1 X115.615 Y55.952 E2.21789
G1 X116.3 Y56.028 E2.25228
G1 X116.707 Y56.097 E2.27287
G1 X117.937 Y56.379 E2.33583
G1 X120.572 Y56.942 E2.47026
G1 X124.35 Y57.617 E2.66173
G1 X124.697 Y57.697 E2.67949
G1 X125.725 Y57.988 E2.73279
G1 X126.037 Y58.083 E2.74907
G1 X126.711 Y58.297 E2.78435
G1 X127.098 Y58.445 E2.80502
G1 X128.091 Y58.891 E2.85933
G1 X130.64 Y59.992 E2.99785
G1 X134.29 Y61.422 E3.19343
G1 X134.612 Y61.567 E3.21105
G1 X135.591 Y62.066 E3.26587
G1 X135.851 Y62.205 E3.28058
G1 X136.474 Y62.548 E3.31606
G1 X136.824 Y62.768 E3.33668
G1 X137.781 Y63.449 E3.39528
G1 X140.069 Y65.024 E3.53386
G1 X142.336 Y66.494 E3.66866
G1 X143.234 Y67.05 E3.72135
G1 X143.385 Y67.148 E3.73033
G1 X143.622 Y67.316 E3.74483
G1 X143.901 Y67.531 E3.7624
G1 X144.649 Y68.143 E3.81062
G1 X145.227 Y68.632 E3.84839
G1 X145.518 Y68.907 E3.86836
G1 X146.29 Y69.724 E3.92444
G1 X148.224 Y71.716 E4.06296
G1 X151.006 Y74.388 E4.2554
G1 X151.248 Y74.644 E4.27298
G1 X152.012 Y75.539 E4.33168
G1 X152.174 Y75.738 E4.34449
G1 X152.618 Y76.294 E4.37998
G1 X152.853 Y76.625 E4.40024
G1 X153.493 Y77.644 E4.46027
G1 X154.982 Y79.942 E4.59688
G1 X156.534 Y82.197 E4.73345
G1 X157.13 Y83.024 E4.78431
G1 X157.348 Y83.365 E4.8045
G1 X157.906 Y84.358 E4.86133
G1 X157.961 Y84.46 E4.86711
G1 X158.369 Y85.244 E4.9112
G1 X158.54 Y85.624 E4.93199
G1 X158.921 Y86.625 E4.98543
G1 X159.952 Y89.225 E5.12497
G1 X161.009 Y91.683 E5.25846
G1 X161.443 Y92.635 E5.31066
G1 X161.56 Y92.903 E5.32525
G1 X161.671 Y93.189 E5.34055
G1 X161.794 Y93.556 E5.35986
G1 X162.072 Y94.473 E5.40767
G1 X162.274 Y95.172 E5.44397
G1 X162.365 Y95.566 E5.46414
G1 X162.58 Y96.829 E5.52806
G1 X163.074 Y99.498 E5.66348
G1 X163.649 Y102.19 E5.80081
G1 X163.891 Y103.218 E5.8535
G1 X163.959 Y103.595 E5.87261
G1 X164.015 Y104.049 E5.89543
G1 X164.105 Y104.968 E5.9415
G1 X164.163 Y105.648 E5.97555
G1 X164.175 Y106.054 E5.99582
G1 X164.142 Y107.237 E6.05486
G1 X164.103 Y109.965 E6.19097
G1 X164.141 Y112.728 E6.32883
G1 X164.171 Y113.536 E6.36917
G1 X164.178 Y113.925 E6.38858
G1 X164.171 Y114.224 E6.4035
G1 X164.141 Y114.659 E6.42526
G1 X164.049 Y115.61 E6.47292
G1 X163.972 Y116.301 E6.50761
G1 X163.903 Y116.706 E6.52811
G1 X163.621 Y117.937 E6.59111
G1 X163.058 Y120.572 E6.72554
G1 X162.383 Y124.35 E6.91701
G1 X162.303 Y124.697 E6.93478
G1 X162.012 Y125.725 E6.98808
G1 X161.917 Y126.037 E7.00435
G1 X161.703 Y126.711 E7.03963
G1 X161.555 Y127.098 E7.0603
G1 X161.109 Y128.091 E7.11461
G1 X160.008 Y130.64 E7.25314
G1 X158.578 Y134.29 E7.44871
G1 X158.433 Y134.612 E7.46633
G1 X157.934 Y135.589 E7.52106
G1 X157.79 Y135.861 E7.53642
G1 X157.445 Y136.485 E7.57199
G1 X157.229 Y136.828 E7.59221
G1 X156.53 Y137.812 E7.65243
G1 X154.975 Y140.07 E7.78921
G1 X153.492 Y142.356 E7.92516
G1 X152.944 Y143.243 E7.97718
G1 X152.846 Y143.393 E7.98612
G1 X152.687 Y143.616 E7.99978
G1 X152.4 Y143.987 E8.02318
G1 X151.812 Y144.704 E8.06944
G1 X151.368 Y145.228 E8.10371
G1 X151.093 Y145.518 E8.12365
G1 X150.276 Y146.29 E8.17972
G1 X148.284 Y148.224 E8.31824
G1 X145.612 Y151.006 E8.51068
G1 X145.356 Y151.248 E8.52826
G1 X144.461 Y152.012 E8.58697
G1 X144.262 Y152.174 E8.59977
G1 X143.706 Y152.618 E8.63527
G1 X143.375 Y152.853 E8.65552
G1 X142.345 Y153.5 E8.7162
G1 X140.058 Y154.982 E8.85216
G1 X137.829 Y156.516 E8.98716
G1 X136.972 Y157.133 E9.03984
G1 X136.633 Y157.349 E9.0599
G1 X135.538 Y157.963 E9.12253
G1 X134.745 Y158.375 E9.16711
G1 X134.365 Y158.545 E9.18788
G1 X133.327 Y158.94 E9.24329
G1 X130.775 Y159.952 E9.38026
G1 X128.317 Y161.009 E9.51374
G1 X127.361 Y161.445 E9.56617
G1 X127.092 Y161.562 E9.5808
G1 X126.814 Y161.67 E9.59568
G1 X126.444 Y161.794 E9.61515
G1 X125.527 Y162.073 E9.66297
G1 X124.821 Y162.277 E9.69963
G1 X124.425 Y162.367 E9.71989
G1 X123.193 Y162.576 E9.78223
G1 X120.502 Y163.074 E9.91877
G1 X117.81 Y163.649 E10.0561
G1 X116.782 Y163.891 E10.10879
G1 X116.405 Y163.959 E10.1279
G1 X115.951 Y164.015 E10.15073
G1 X115.031 Y164.105 E10.19684
G1 X114.35 Y164.163 E10.23094
G1 X113.943 Y164.175 E10.25126
G1 X112.784 Y164.143 E10.3091
G1 X110.033 Y164.103 E10.44636
G1 X107.272 Y164.141 E10.58412
G1 X106.464 Y164.171 E10.62446
G1 X106.075 Y164.178 E10.64387
G1 X105.776 Y164.171 E10.65879
G1 X105.34 Y164.141 E10.6806
G1 X104.386 Y164.048 E10.72842
G1 X103.701 Y163.972 E10.7628
G1 X103.294 Y163.903 E10.7834
G1 X102.063 Y163.621 E10.8464
G1 X99.428 Y163.058 E10.98083
G1 X95.65 Y162.383 E11.1723
G1 X95.303 Y162.303 E11.19007
G1 X94.275 Y162.012 E11.24337
G1 X93.963 Y161.917 E11.25964
G1 X93.289 Y161.703 E11.29492
G1 X92.902 Y161.555 E11.31559
G1 X91.909 Y161.109 E11.3699
G1 X89.36 Y160.008 E11.50843
G1 X85.71 Y158.578 E11.704
G1 X85.388 Y158.433 E11.72162
G1 X84.413 Y157.936 E11.77622
G1 X84.137 Y157.789 E11.79182
G1 X83.524 Y157.451 E11.82674
G1 X83.176 Y157.232 E11.84726
G1 X82.218 Y156.551 E11.9059
G1 X79.955 Y154.992 E12.043
G1 X77.632 Y153.486 E12.18112
G1 X76.757 Y152.944 E12.23247
G1 X76.607 Y152.846 E12.24141
G1 X76.379 Y152.684 E12.25536
G1 X76.087 Y152.459 E12.27375
G1 X75.283 Y151.801 E12.32558
G1 X74.772 Y151.368 E12.359
G1 X74.482 Y151.093 E12.37894
G1 X73.71 Y150.276 E12.43502
G1 X71.776 Y148.284 E12.57353
G1 X68.994 Y145.612 E12.76598
G1 X68.752 Y145.356 E12.78355
G1 X67.988 Y144.461 E12.84226
G1 X67.826 Y144.262 E12.85506
G1 X67.382 Y143.706 E12.89056
G1 X67.147 Y143.375 E12.91081
G1 X66.5 Y142.345 E12.9715
G1 X65.018 Y140.058 E13.10746
G1 X63.484 Y137.829 E13.24245
G1 X62.867 Y136.972 E13.29514
G1 X62.651 Y136.633 E13.31519
G1 X62.037 Y135.538 E13.37782
G1 X61.625 Y134.745 E13.42241
G1 X61.455 Y134.365 E13.44317
G1 X61.06 Y133.327 E13.49858
G1 X60.048 Y130.775 E13.63555
G1 X58.991 Y128.317 E13.76904
G1 X58.555 Y127.362 E13.82141
G1 X58.437 Y127.091 E13.83616
G1 X58.328 Y126.808 E13.85129
G1 X58.206 Y126.444 E13.87044
G1 X57.928 Y125.528 E13.9182
G1 X57.723 Y124.819 E13.95502
G1 X57.632 Y124.42 E13.97544
G1 X57.428 Y123.216 E14.03636
G1 X56.926 Y120.502 E14.17406
G1 X56.354 Y117.821 E14.31083
G1 X56.133 Y116.885 E14.35881
G1 X56.094 Y116.705 E14.368
G1 X56.039 Y116.385 E14.38419
G1 X55.979 Y115.892 E14.40897
G1 X55.895 Y115.03 E14.45218
G1 X55.837 Y114.346 E14.48643
G1 X55.825 Y113.941 E14.50664
G1 X55.858 Y112.762 E14.56549
G1 X55.897 Y110.033 E14.70165
G1 X55.859 Y107.257 E14.84016
G1 X55.829 Y106.463 E14.8798
G1 X55.822 Y106.067 E14.89956
G1 X55.829 Y105.764 E14.91468
G1 X55.859 Y105.34 E14.93589
G1 X55.952 Y104.386 E14.98371
G1 X56.028 Y103.701 E15.01809
G1 X56.097 Y103.294 E15.03869
G1 X56.379 Y102.063 E15.10169
G1 X56.942 Y99.428 E15.23612
G1 X57.617 Y95.65 E15.42759
G1 X57.697 Y95.303 E15.44536
G1 X57.988 Y94.275 E15.49866
G1 X58.084 Y93.959 E15.51514
G1 X58.299 Y93.284 E15.55048
G1 X58.445 Y92.902 E15.57088
G1 X58.894 Y91.903 E15.62552
G1 X59.992 Y89.36 E15.76372
G1 X61.422 Y85.71 E15.95929
G1 X61.567 Y85.388 E15.97691
G1 X62.066 Y84.411 E16.03164
G1 X62.207 Y84.145 E16.04666
G1 X62.546 Y83.529 E16.08174
G1 X62.766 Y83.18 E16.10232
G1 X63.44 Y82.231 E16.1604
G1 X65.008 Y79.955 E16.29828
G1 X66.526 Y77.613 E16.43752
G1 X67.007 Y76.834 E16.4832
G1 X67.155 Y76.606 E16.49676
G1 X67.32 Y76.373 E16.51101
G1 X67.532 Y76.098 E16.52833
G1 X68.186 Y75.298 E16.57988
G1 X68.628 Y74.775 E16.61404
G1 X68.907 Y74.481 E16.63426
G1 X69.75 Y73.686 E16.69207
G1 X71.738 Y71.753 E16.83041
G1 X74.386 Y68.995 E17.02116
G0 F7500 X74.675 Y69.272
G1 F1500 X74.905 Y69.055 E17.03694
G1 X75.793 Y68.297 E17.09519
G1 X75.987 Y68.138 E17.1077
G1 X76.543 Y67.694 E17.1432
G1 X76.838 Y67.485 E17.16124
G1 X77.837 Y66.858 E17.22008
G1 X80.164 Y65.35 E17.35842
G1 X82.44 Y63.783 E17.49628
G1 X83.261 Y63.192 E17.54675
G1 X83.563 Y62.999 E17.56463
G1 X84.554 Y62.442 E17.62134
G1 X85.44 Y61.98 E17.6712
G1 X85.777 Y61.829 E17.68962
G1 X86.815 Y61.434 E17.74503
G1 X89.338 Y60.433 E17.88045
G1 X91.893 Y59.335 E18.01919
G1 X92.799 Y58.922 E18.06886
G1 X93.068 Y58.805 E18.0835
G1 X93.315 Y58.709 E18.09672
G1 X93.673 Y58.589 E18.11556
G1 X94.584 Y58.312 E18.16306
G1 X95.29 Y58.108 E18.19972
G1 X95.642 Y58.027 E18.21775
G1 X96.868 Y57.819 E18.27978
G1 X99.617 Y57.311 E18.41925
G1 X102.233 Y56.752 E18.55271
G1 X103.31 Y56.498 E18.60792
G1 X103.645 Y56.438 E18.6249
G1 X104.088 Y56.383 E18.64717
G1 X105.003 Y56.294 E18.69303
G1 X105.684 Y56.236 E18.72713
G1 X106.045 Y56.225 E18.74515
G1 X107.198 Y56.257 E18.8027
G1 X109.967 Y56.297 E18.94086
G1 X112.707 Y56.26 E19.07757
G1 X113.543 Y56.229 E19.11931
G1 X113.932 Y56.222 E19.13872
G1 X114.198 Y56.228 E19.15199
G1 X114.621 Y56.257 E19.17314
G1 X115.571 Y56.35 E19.22077
G1 X116.256 Y56.426 E19.25515
G1 X116.618 Y56.487 E19.27347
G1 X117.837 Y56.767 E19.33587
G1 X120.508 Y57.337 E19.47212
G1 X124.28 Y58.011 E19.66329
G1 X124.588 Y58.082 E19.67906
G1 X125.61 Y58.371 E19.73205
G1 X125.916 Y58.464 E19.748
G1 X126.59 Y58.678 E19.78328
G1 X126.934 Y58.809 E19.80165
G1 X127.951 Y59.266 E19.85727
G1 X130.478 Y60.358 E19.99461
G1 X134.144 Y61.794 E20.19104
G1 X134.43 Y61.923 E20.20669
G1 X135.403 Y62.419 E20.26118
G1 X135.658 Y62.556 E20.27562
G1 X136.281 Y62.899 E20.3111
G1 X136.592 Y63.094 E20.32942
G1 X137.575 Y63.792 E20.38956
G1 X139.821 Y65.34 E20.52565
G1 X142.152 Y66.851 E20.66424
G1 X143.016 Y67.386 E20.71494
G1 X143.167 Y67.484 E20.72392
G1 X143.378 Y67.633 E20.73681
G1 X143.657 Y67.848 E20.75438
G1 X144.434 Y68.484 E20.80448
G1 X144.969 Y68.937 E20.83945
G1 X145.227 Y69.181 E20.85717
G1 X146.029 Y70.03 E20.91544
G1 X147.928 Y71.986 E21.05145
G1 X150.729 Y74.676 E21.2452
G1 X150.944 Y74.904 E21.26083
G1 X151.703 Y75.793 E21.31915
G1 X151.862 Y75.987 E21.33166
G1 X152.306 Y76.543 E21.36716
G1 X152.515 Y76.838 E21.3852
G1 X153.138 Y77.83 E21.44364
G1 X154.661 Y80.181 E21.58339
G1 X156.201 Y82.419 E21.71893
G1 X156.806 Y83.258 E21.77053
G1 X157 Y83.561 E21.78848
G1 X157.558 Y84.554 E21.84531
G1 X158.015 Y85.429 E21.89456
G1 X158.166 Y85.766 E21.91298
G1 X158.565 Y86.813 E21.96888
G1 X159.567 Y89.338 E22.10441
G1 X160.665 Y91.893 E22.24315
G1 X161.077 Y92.795 E22.29263
G1 X161.194 Y93.063 E22.30722
G1 X161.292 Y93.317 E22.3208
G1 X161.411 Y93.673 E22.33953
G1 X161.688 Y94.584 E22.38703
G1 X161.89 Y95.283 E22.42333
G1 X161.97 Y95.633 E22.44124
G1 X162.179 Y96.856 E22.50314
G1 X162.689 Y99.617 E22.64322
G1 X163.247 Y102.228 E22.77642
G1 X163.502 Y103.31 E22.83188
G1 X163.562 Y103.645 E22.84886
G1 X163.617 Y104.088 E22.87113
G1 X163.706 Y105.002 E22.91695
G1 X163.764 Y105.682 E22.951
G1 X163.775 Y106.043 E22.96902
G1 X163.742 Y107.226 E23.02806
G1 X163.703 Y109.965 E23.16472
G1 X163.74 Y112.707 E23.30153
G1 X163.771 Y113.543 E23.34327
G1 X163.778 Y113.932 E23.36268
G1 X163.772 Y114.198 E23.37596
G1 X163.743 Y114.62 E23.39706
G1 X163.651 Y115.565 E23.44443
G1 X163.574 Y116.256 E23.47912
G1 X163.513 Y116.617 E23.49738
G1 X163.231 Y117.848 E23.56039
G1 X162.663 Y120.508 E23.69609
G1 X161.989 Y124.28 E23.88725
G1 X161.918 Y124.588 E23.90302
G1 X161.629 Y125.61 E23.95601
G1 X161.536 Y125.916 E23.97197
G1 X161.322 Y126.59 E24.00725
G1 X161.191 Y126.934 E24.02561
G1 X160.723 Y127.975 E24.08255
G1 X159.642 Y130.478 E24.21858
G1 X158.206 Y134.144 E24.41501
G1 X158.077 Y134.43 E24.43066
G1 X157.581 Y135.402 E24.4851
G1 X157.439 Y135.667 E24.5001
G1 X157.094 Y136.291 E24.53567
G1 X156.903 Y136.596 E24.55363
G1 X156.204 Y137.58 E24.61384
G1 X154.659 Y139.822 E24.74968
G1 X153.161 Y142.132 E24.88704
G1 X152.609 Y143.024 E24.93938
G1 X152.37 Y143.373 E24.96048
G1 X152.155 Y143.653 E24.97809
G1 X151.506 Y144.446 E25.02922
G1 X151.062 Y144.97 E25.06348
G1 X150.819 Y145.227 E25.08113
G1 X149.966 Y146.033 E25.13968
G1 X148.014 Y147.928 E25.2754
G1 X145.324 Y150.729 E25.46915
G1 X145.096 Y150.944 E25.48479
G1 X144.207 Y151.703 E25.54311
G1 X144.013 Y151.862 E25.55562
G1 X143.457 Y152.306 E25.59112
G1 X143.162 Y152.515 E25.60916
G1 X142.17 Y153.138 E25.6676
G1 X139.836 Y154.65 E25.80634
G1 X137.56 Y156.217 E25.9442
G1 X136.739 Y156.808 E25.99467
G1 X136.437 Y157.001 E26.01255
G1 X135.446 Y157.558 E26.06926
G1 X134.56 Y158.02 E26.11912
G1 X134.223 Y158.171 E26.13754
G1 X133.185 Y158.566 E26.19295
G1 X130.662 Y159.567 E26.32837
G1 X128.107 Y160.665 E26.46711
G1 X127.201 Y161.078 E26.51678
G1 X126.932 Y161.195 E26.53142
G1 X126.685 Y161.291 E26.54464
G1 X126.327 Y161.411 E26.56348
G1 X125.416 Y161.688 E26.61098
G1 X124.71 Y161.892 E26.64764
G1 X124.358 Y161.973 E26.66566
G1 X123.132 Y162.181 E26.7277
G1 X120.383 Y162.689 E26.86717
G1 X117.767 Y163.248 E27.00063
G1 X116.69 Y163.502 E27.05584
G1 X116.355 Y163.562 E27.07282
G1 X115.912 Y163.617 E27.09509
G1 X114.997 Y163.706 E27.14095
G1 X114.316 Y163.764 E27.17505
G1 X113.955 Y163.775 E27.19307
G1 X112.802 Y163.743 E27.25062
G1 X110.033 Y163.703 E27.38878
G1 X107.293 Y163.74 E27.52549
G1 X106.457 Y163.771 E27.56723
G1 X106.068 Y163.778 E27.58664
G1 X105.802 Y163.772 E27.59991
G1 X105.378 Y163.743 E27.62111
G1 X104.43 Y163.65 E27.66864
G1 X103.745 Y163.574 E27.70302
G1 X103.383 Y163.513 E27.72134
G1 X102.163 Y163.234 E27.78377
G1 X99.492 Y162.663 E27.92004
G1 X95.72 Y161.989 E28.11121
G1 X95.412 Y161.918 E28.12698
G1 X94.39 Y161.629 E28.17996
G1 X94.084 Y161.536 E28.19592
G1 X93.41 Y161.322 E28.2312
G1 X93.066 Y161.191 E28.24956
G1 X92.049 Y160.734 E28.30519
G1 X89.522 Y159.642 E28.44253
G1 X85.856 Y158.206 E28.63896
G1 X85.57 Y158.077 E28.65461
G1 X84.6 Y157.582 E28.70894
G1 X84.33 Y157.438 E28.72421
G1 X83.717 Y157.1 E28.75913
G1 X83.408 Y156.906 E28.77733
G1 X82.419 Y156.203 E28.83787
G1 X80.178 Y154.659 E28.97364
G1 X77.848 Y153.149 E29.11216
G1 X76.976 Y152.609 E29.16333
G1 X76.623 Y152.367 E29.18469
G1 X76.254 Y152.081 E29.20798
G1 X75.541 Y151.495 E29.25402
G1 X75.03 Y151.062 E29.28744
G1 X74.773 Y150.819 E29.30508
G1 X73.967 Y149.966 E29.36363
G1 X72.072 Y148.014 E29.49936
G1 X69.271 Y145.324 E29.69311
G1 X69.056 Y145.096 E29.70874
G1 X68.297 Y144.207 E29.76706
G1 X68.138 Y144.013 E29.77958
G1 X67.694 Y143.457 E29.81508
G1 X67.485 Y143.162 E29.83311
G1 X66.862 Y142.17 E29.89155
G1 X65.35 Y139.836 E30.0303
G1 X63.783 Y137.56 E30.16816
G1 X63.192 Y136.739 E30.21863
G1 X62.999 Y136.437 E30.23651
G1 X62.442 Y135.446 E30.29322
G1 X61.98 Y134.56 E30.34307
G1 X61.829 Y134.223 E30.3615
G1 X61.434 Y133.185 E30.41691
G1 X60.433 Y130.662 E30.55232
G1 X59.335 Y128.107 E30.69106
G1 X58.922 Y127.203 E30.74065
G1 X58.804 Y126.932 E30.7554
G1 X58.707 Y126.68 E30.76887
G1 X58.589 Y126.327 E30.78744
G1 X58.312 Y125.417 E30.83489
G1 X58.107 Y124.708 E30.87171
G1 X58.026 Y124.354 E30.88983
G1 X57.821 Y123.144 E30.95106
G1 X57.311 Y120.383 E31.09114
G1 X56.754 Y117.776 E31.22414
G1 X56.537 Y116.861 E31.27105
G1 X56.485 Y116.621 E31.2833
G1 X56.436 Y116.336 E31.29773
