;FLAVOR:Marlin
;TIME:2449
;Filament used: 3.36174m
;Layer height: 0.4
;MINX:88.05
;MINY:85.049
;MINZ:0.3
;MAXX:131.95
;MAXY:134.95
;MAXZ:14.3
;Generated with Cura_SteamEngine 4.8.0
M140 S60
M105
M190 S60
M104 S210
M105
M109 S210
M82 ;absolute extrusion mode
G28 ;Home
G1 Z15.0 F2000 ;Move the platform
G92 E0
G92 E0
G1 F1500 E-6.5
;LAYER_COUNT:36
;LAYER:0
M107
M204 S1000
G0 F7500 X89.097 Y86.277 Z0.3
;TYPE:SKIRT
G1 F1500 E0
G1 X89.239 Y86.133 E0.01009
G1 X89.643 Y85.781 E0.03682
G1 X90.094 Y85.492 E0.06355
G1 X90.584 Y85.273 E0.09032
G1 X91.101 Y85.13 E0.11708
G1 X91.659 Y85.064 E0.14512
G1 X91.909 Y85.055 E0.1576
G1 X92.363 Y85.05 E0.18025
G1 X127.542 Y85.049 E1.93534
G1 X128.246 Y85.059 E1.97046
G1 X128.78 Y85.107 E1.99721
G1 X129.301 Y85.233 E2.02395
G1 X129.798 Y85.436 E2.05074
G1 X130.259 Y85.71 E2.07749
G1 X130.749 Y86.122 E2.10943
G1 X130.894 Y86.268 E2.1197
G1 X131.243 Y86.676 E2.14648
G1 X131.527 Y87.131 E2.17324
G1 X131.74 Y87.623 E2.19999
G1 X131.878 Y88.141 E2.22674
G1 X131.938 Y88.679 E2.25374
G1 X131.948 Y89.002 E2.26987
G1 X131.95 Y89.232 E2.28134
G1 X131.95 Y130.512 E4.34081
G1 X131.94 Y131.244 E4.37733
G1 X131.892 Y131.778 E4.40408
G1 X131.766 Y132.3 E4.43087
G1 X131.564 Y132.796 E4.45759
G1 X131.291 Y133.258 E4.48436
G1 X130.903 Y133.723 E4.51458
G1 X130.761 Y133.867 E4.52467
G1 X130.357 Y134.219 E4.5514
G1 X129.906 Y134.508 E4.57812
G1 X129.416 Y134.727 E4.6049
G1 X128.899 Y134.87 E4.63166
G1 X128.341 Y134.936 E4.65969
G1 X128.091 Y134.945 E4.67217
G1 X127.682 Y134.95 E4.69258
G1 X92.456 Y134.95 E6.45001
G1 X91.755 Y134.94 E6.48499
G1 X91.22 Y134.892 E6.51179
G1 X90.699 Y134.766 E6.53853
G1 X90.203 Y134.563 E6.56527
G1 X89.742 Y134.289 E6.59202
G1 X89.287 Y133.912 E6.6215
G1 X89.142 Y133.77 E6.63163
G1 X88.788 Y133.367 E6.65839
G1 X88.498 Y132.916 E6.68514
G1 X88.277 Y132.427 E6.71191
G1 X88.132 Y131.911 E6.73865
G1 X88.064 Y131.356 E6.76655
G1 X88.054 Y131.072 E6.78073
G1 X88.05 Y130.632 E6.80268
G1 X88.05 Y89.446 E8.85746
G1 X88.06 Y88.753 E8.89203
G1 X88.108 Y88.219 E8.91878
G1 X88.235 Y87.698 E8.94554
G1 X88.437 Y87.201 E8.9723
G1 X88.711 Y86.74 E8.99906
G1 X89.097 Y86.277 E9.02913
G0 F7500 X89.381 Y86.558
G1 F1500 X89.523 Y86.414 E9.03922
G1 X89.906 Y86.083 E9.06448
G1 X90.335 Y85.817 E9.08966
G1 X90.802 Y85.621 E9.11493
G1 X91.293 Y85.502 E9.14013
G1 X91.675 Y85.464 E9.15928
G1 X91.914 Y85.455 E9.17122
G1 X92.363 Y85.45 E9.19362
G1 X127.536 Y85.449 E10.94841
G1 X128.24 Y85.459 E10.98353
G1 X128.744 Y85.506 E11.00879
G1 X129.233 Y85.632 E11.03398
G1 X129.697 Y85.834 E11.05923
G1 X130.123 Y86.105 E11.08442
G1 X130.466 Y86.404 E11.10712
G1 X130.611 Y86.55 E11.11738
G1 X130.937 Y86.936 E11.14259
G1 X131.199 Y87.368 E11.1678
G1 X131.39 Y87.836 E11.19302
G1 X131.504 Y88.329 E11.21826
G1 X131.538 Y88.693 E11.2365
G1 X131.548 Y89.005 E11.25207
G1 X131.55 Y89.235 E11.26355
G1 X131.55 Y130.507 E13.32262
G1 X131.54 Y131.239 E13.35914
G1 X131.493 Y131.742 E13.38434
G1 X131.367 Y132.232 E13.40959
G1 X131.166 Y132.696 E13.43481
G1 X130.895 Y133.122 E13.46
G1 X130.619 Y133.442 E13.48109
G1 X130.477 Y133.586 E13.49118
G1 X130.094 Y133.917 E13.51643
G1 X129.665 Y134.183 E13.54161
G1 X129.198 Y134.379 E13.56688
G1 X128.707 Y134.498 E13.59209
G1 X128.325 Y134.536 E13.61124
G1 X128.086 Y134.545 E13.62317
G1 X127.677 Y134.55 E13.64358
G1 X92.461 Y134.55 E15.40051
G1 X91.76 Y134.54 E15.43549
G1 X91.257 Y134.493 E15.46069
G1 X90.767 Y134.367 E15.48593
G1 X90.304 Y134.165 E15.51113
G1 X89.877 Y133.893 E15.53639
G1 X89.567 Y133.626 E15.5568
G1 X89.422 Y133.484 E15.56693
G1 X89.09 Y133.103 E15.59214
G1 X88.822 Y132.674 E15.61738
G1 X88.625 Y132.209 E15.64257
G1 X88.504 Y131.718 E15.6678
G1 X88.464 Y131.339 E15.68682
G1 X88.454 Y131.068 E15.70034
G1 X88.45 Y130.628 E15.7223
G1 X88.45 Y89.452 E17.77658
G1 X88.46 Y88.759 E17.81115
G1 X88.508 Y88.255 E17.83641
G1 X88.633 Y87.766 E17.86159
G1 X88.835 Y87.302 E17.88684
G1 X89.107 Y86.876 E17.91206
G1 X89.381 Y86.558 E17.933
G1 F1500 E11.433
;MESH:Boitier (Meshed).stl
G0 F7500 X91.153 Y88.396
G0 X92.064 Y89.064
G0 X93.05 Y90.05
;TYPE:WALL-INNER
G1 F1500 E17.933
G1 X93.342 Y90.05 E17.94757
G1 X93.544 Y90.05 E17.95764
G1 X93.692 Y90.05 E17.96503
G1 X93.544 Y90.163 E17.96754
G1 X93.402 Y90.308 E17.97432
G1 X93.123 Y90.591 E17.99415
G1 X93.05 Y90.694 E18.00044
G1 X93.05 Y90.591 E18.00064
G1 X93.05 Y90.193 E18.01301
G1 X93.05 Y90.05 E18.02014
G1 F1500 E11.52014
G0 F7500 X126.304 Y90.049
G1 F1500 E18.02014
G1 X126.409 Y90.049 E18.02538
G1 X126.805 Y90.049 E18.04514
G1 X126.95 Y90.049 E18.05237
G1 X126.95 Y90.339 E18.06684
G1 X126.95 Y90.544 E18.07707
G1 X126.95 Y90.692 E18.08445
G1 X126.837 Y90.544 E18.08697
G1 X126.691 Y90.4 E18.09382
G1 X126.409 Y90.123 E18.1061
G1 X126.304 Y90.049 E18.10746
G1 F1500 E11.60746
G0 F7500 X126.78 Y92.793
G0 X126.95 Y129.311
G1 F1500 E18.10746
G1 X126.95 Y129.369 E18.11036
G1 X126.95 Y129.696 E18.12667
G1 X126.95 Y129.95 E18.13934
G1 X126.608 Y129.95 E18.15641
G1 X126.303 Y129.95 E18.17162
G1 X126.608 Y129.696 E18.18017
G1 X126.91 Y129.369 E18.19302
G1 X126.95 Y129.311 E18.19362
G1 F1500 E11.69362
G0 F7500 X124 Y129.791
G0 X95.72 Y129.774
G0 X93.05 Y129.303
G1 F1500 E18.19362
G1 X93.303 Y129.608 E18.21339
G1 X93.63 Y129.908 E18.23553
G1 X93.681 Y129.944 E18.23865
G1 X93.631 Y129.944
G1 X93.306 Y129.946 E18.24774
G1 X93.05 Y129.948 E18.26052
G1 X93.05 Y129.608 E18.27451
G1 X93.05 Y129.303 E18.27848
G1 F1500 E11.77848
G0 F7500 X93.223 Y126.741
G0 X93.305 Y126.278
G0 X93.471 Y125.822
G0 X93.716 Y125.401
G0 X94.028 Y125.028
G0 X94.401 Y124.716
G0 X94.822 Y124.471
G0 X98.868 Y123.253
G0 X100.32 Y128.962
G0 X119.694 Y128.961
G0 X122.871 Y122.414
G0 X125.957 Y122.685
G0 X125.962 Y97.316
G0 X123.604 Y97.54
G1 F1500 E18.27848
G1 X124.396 Y97.54 E18.31799
G1 X125.18 Y97.403 E18.3577
G1 X125.808 Y97.173 E18.39107
G1 X125.922 Y97.131 E18.39713
G1 X126.15 Y97.001 E18.41022
G1 X126.15 Y97.131 E18.41056
G1 X126.15 Y97.253 E18.41558
G1 X126.15 Y122.786 E19.68943
G1 X126.15 Y122.842 E19.69222
G1 X126.15 Y122.995 E19.69986
G1 X125.878 Y122.855 E19.70854
G1 X125.854 Y122.842 E19.70886
G1 X125.83 Y122.834 E19.70938
G1 X125.778 Y122.815 E19.71192
G1 X125.174 Y122.597 E19.74395
G1 X124.397 Y122.46 E19.78331
G1 X123.642 Y122.459 E19.82098
G1 X122.91 Y122.581 E19.858
G1 X122.379 Y122.744 E19.88572
G1 X121.723 Y123.051 E19.92185
G1 X121.13 Y123.462 E19.95785
G1 X120.727 Y123.834 E19.98521
G1 X120.316 Y124.323 E20.01708
G1 X120.017 Y124.786 E20.04458
G1 X119.729 Y125.414 E20.07904
G1 X119.531 Y126.123 E20.11577
G1 X119.458 Y126.677 E20.14365
G1 X119.46 Y127.397 E20.17957
G1 X119.581 Y128.101 E20.21521
G1 X119.744 Y128.625 E20.24258
G1 X119.858 Y128.866 E20.25589
G1 X119.992 Y129.15 E20.27155
G1 X119.678 Y129.15 E20.28061
G1 X100.235 Y129.15 E21.25062
G1 X100.157 Y129.15 E21.25451
G1 X100.006 Y129.15 E21.26205
G1 X100.157 Y128.861 E21.27166
G1 X100.183 Y128.788 E21.27509
G1 X100.379 Y128.251 E21.30361
G1 X100.496 Y127.719 E21.33078
G1 X100.553 Y127.076 E21.36299
G1 X100.532 Y126.53 E21.39025
G1 X100.4 Y125.814 E21.42657
G1 X100.131 Y125.073 E21.4659
G1 X99.734 Y124.388 E21.5054
G1 X99.279 Y123.84 E21.54094
G1 X98.872 Y123.464 E21.56858
G1 X98.307 Y123.071 E21.60292
G1 X97.603 Y122.734 E21.64186
G1 X96.876 Y122.531 E21.67952
G1 X96.323 Y122.458 E21.70734
G1 X95.598 Y122.46 E21.74351
G1 X94.82 Y122.597 E21.78293
G1 X94.19 Y122.827 E21.81639
G1 X94.073 Y122.869 E21.82259
G1 X93.85 Y122.998 E21.83544
G1 X93.85 Y122.869 E21.83575
G1 X93.85 Y122.744 E21.84087
G1 X93.85 Y97.268 E23.11187
G1 X93.85 Y97.108 E23.11985
G1 X93.85 Y97.003 E23.12509
G1 X94.027 Y97.108 E23.13002
G1 X94.176 Y97.164 E23.13614
G1 X94.773 Y97.39 E23.16799
G1 X95.558 Y97.537 E23.20783
G1 X96.309 Y97.541 E23.2453
G1 X96.862 Y97.471 E23.27311
G1 X97.561 Y97.28 E23.30926
G1 X98.208 Y96.982 E23.3448
G1 X98.676 Y96.686 E23.37243
G1 X99.227 Y96.216 E23.40856
G1 X99.728 Y95.617 E23.44752
G1 X100.131 Y94.929 E23.4873
G1 X100.403 Y94.181 E23.527
G1 X100.526 Y93.478 E23.56261
G1 X100.554 Y92.935 E23.58974
G1 X100.495 Y92.241 E23.62449
G1 X100.305 Y91.528 E23.6613
G1 X100.162 Y91.174 E23.68035
G1 X100.098 Y91.013 E23.68899
G1 X100.003 Y90.85 E23.6984
G1 X100.098 Y90.85
G1 X100.272 Y90.85 E23.70497
G1 X119.766 Y90.85 E24.67753
G1 X119.842 Y90.85 E24.68132
G1 X119.995 Y90.849 E24.68895
G1 X119.843 Y91.142 E24.69873
G1 X119.817 Y91.213 E24.70208
G1 X119.621 Y91.747 E24.73046
G1 X119.504 Y92.281 E24.75773
G1 X119.447 Y92.924 E24.78994
G1 X119.468 Y93.47 E24.8172
G1 X119.6 Y94.186 E24.85352
G1 X119.869 Y94.927 E24.89285
G1 X120.267 Y95.617 E24.93259
G1 X120.778 Y96.222 E24.9721
G1 X121.383 Y96.733 E25.01161
G1 X122.073 Y97.131 E25.05135
G1 X122.82 Y97.403 E25.09101
G1 X123.604 Y97.54 E25.13072
G0 F7500 X123.639 Y97.14
G1 F1500 X124.361 Y97.14 E25.16674
G1 X125.076 Y97.015 E25.20295
G1 X125.753 Y96.767 E25.23892
G1 X126.196 Y96.514 E25.26437
G1 X126.325 Y96.441 E25.27177
G1 X126.55 Y96.269 E25.2859
G1 X126.55 Y96.441 E25.28712
G1 X126.55 Y96.59 E25.29316
G1 X126.55 Y123.346 E26.62802
G1 X126.55 Y123.347 E26.62807
G1 X126.55 Y123.73 E26.64718
G1 X126.236 Y123.51 E26.65783
G1 X126.132 Y123.436 E26.6642
G1 X125.694 Y123.209 E26.68881
G1 X125.071 Y122.985 E26.72184
G1 X124.362 Y122.86 E26.75776
G1 X123.675 Y122.859 E26.79203
G1 X123.002 Y122.971 E26.82607
G1 X122.523 Y123.118 E26.85107
G1 X121.923 Y123.399 E26.88412
G1 X121.381 Y123.775 E26.91703
G1 X121.017 Y124.111 E26.94175
G1 X120.638 Y124.561 E26.9711
G1 X120.369 Y124.979 E26.9959
G1 X120.106 Y125.552 E27.02735
G1 X119.924 Y126.203 E27.06108
G1 X119.858 Y126.703 E27.08624
G1 X119.86 Y127.362 E27.11911
G1 X119.971 Y128.007 E27.15177
G1 X120.118 Y128.479 E27.17643
G1 X120.403 Y129.083 E27.20975
G1 X120.511 Y129.236 E27.21909
G1 X120.732 Y129.55 E27.23825
G1 X120.349 Y129.55 E27.24888
G1 X120.348 Y129.55 E27.24893
G1 X99.654 Y129.55 E28.28135
G1 X99.653 Y129.55 E28.2814
G1 X99.273 Y129.55 E28.30036
G1 X99.49 Y129.238 E28.31093
G1 X99.564 Y129.132 E28.31738
G1 X99.79 Y128.699 E28.34175
G1 X99.994 Y128.139 E28.37148
G1 X100.1 Y127.658 E28.39605
G1 X100.152 Y127.066 E28.4257
G1 X100.133 Y126.574 E28.45027
G1 X100.013 Y125.919 E28.48349
G1 X99.767 Y125.243 E28.51938
G1 X99.405 Y124.618 E28.55541
G1 X98.988 Y124.116 E28.58797
G1 X98.621 Y123.777 E28.6129
G1 X98.105 Y123.418 E28.64426
G1 X97.462 Y123.11 E28.67983
G1 X96.796 Y122.924 E28.71433
G1 X96.297 Y122.858 E28.73944
G1 X95.634 Y122.86 E28.77251
G1 X94.924 Y122.985 E28.80848
G1 X94.243 Y123.233 E28.84464
G1 X93.789 Y123.495 E28.87079
G1 X93.614 Y123.596 E28.88087
G1 X93.45 Y123.734 E28.89156
G1 X93.45 Y123.596 E28.89209
G1 X93.45 Y123.393 E28.89964
G1 X93.45 Y96.61 E30.23585
G1 X93.45 Y96.381 E30.24728
G1 X93.45 Y96.266 E30.25302
G1 X93.588 Y96.381 E30.25643
G1 X93.784 Y96.498 E30.26457
G1 X94.201 Y96.746 E30.28878
G1 X94.881 Y97.003 E30.32505
G1 X95.596 Y97.137 E30.36134
G1 X96.285 Y97.141 E30.39571
G1 X96.784 Y97.078 E30.42081
G1 X97.424 Y96.903 E30.45391
G1 X98.016 Y96.63 E30.48643
G1 X98.438 Y96.363 E30.51135
G1 X98.942 Y95.933 E30.5444
G1 X99.4 Y95.386 E30.57999
G1 X99.767 Y94.758 E30.61628
G1 X100.015 Y94.077 E30.65244
G1 X100.128 Y93.433 E30.68506
G1 X100.153 Y92.942 E30.70959
G1 X100.099 Y92.31 E30.74123
G1 X99.925 Y91.654 E30.77509
G1 X99.738 Y91.189 E30.8001
G1 X99.504 Y90.788 E30.82326
G1 X99.4 Y90.609 E30.83359
G1 X99.265 Y90.45 E30.844
G1 X99.399 Y90.45 E30.84445
G1 X99.607 Y90.45 E30.85213
G1 X120.347 Y90.449 E31.88685
G1 X120.348 Y90.449 E31.8869
G1 X120.734 Y90.449 E31.90616
G1 X120.51 Y90.764 E31.91688
G1 X120.44 Y90.861 E31.92285
G1 X120.21 Y91.304 E31.94775
G1 X120.006 Y91.859 E31.97725
G1 X119.9 Y92.342 E32.00192
G1 X119.848 Y92.934 E32.03157
G1 X119.867 Y93.426 E32.05613
G1 X119.987 Y94.081 E32.08935
G1 X120.233 Y94.757 E32.12524
G1 X120.596 Y95.386 E32.16148
G1 X121.062 Y95.938 E32.19752
G1 X121.614 Y96.404 E32.23356
G1 X122.243 Y96.767 E32.26979
G1 X122.924 Y97.015 E32.30595
G1 X123.639 Y97.14 E32.34216
G0 F7500 X123.674 Y96.74
G1 F1500 X124.326 Y96.74 E32.37469
G1 X124.972 Y96.627 E32.40741
G1 X125.584 Y96.403 E32.43992
G1 X126.103 Y96.107 E32.46973
G1 X126.456 Y95.837 E32.4919
G1 X126.598 Y95.692 E32.50203
G1 X126.877 Y95.409 E32.52185
G1 X126.95 Y95.306 E32.52815
G1 X126.95 Y95.409 E32.52835
G1 X126.95 Y95.807 E32.54071
G1 X126.95 Y124.228 E33.95864
G1 X126.95 Y124.389 E33.96668
G1 X126.95 Y124.694 E33.98189
G1 X126.693 Y124.389 E33.99059
G1 X126.575 Y124.28 E33.99729
G1 X126.37 Y124.092 E34.01117
G1 X125.924 Y123.779 E34.03835
G1 X125.533 Y123.576 E34.06033
G1 X124.968 Y123.373 E34.09029
G1 X124.327 Y123.26 E34.12276
G1 X123.708 Y123.259 E34.15364
G1 X123.094 Y123.361 E34.18469
G1 X122.667 Y123.492 E34.20698
G1 X122.123 Y123.747 E34.23695
G1 X121.632 Y124.088 E34.26677
G1 X121.307 Y124.388 E34.28884
G1 X120.961 Y124.799 E34.31564
G1 X120.721 Y125.172 E34.33777
G1 X120.483 Y125.69 E34.36621
G1 X120.317 Y126.284 E34.39698
G1 X120.258 Y126.729 E34.41938
G1 X120.26 Y127.327 E34.44921
G1 X120.361 Y127.913 E34.47888
G1 X120.492 Y128.334 E34.50088
G1 X120.75 Y128.881 E34.53105
G1 X121.126 Y129.415 E34.56363
G1 X121.311 Y129.599 E34.57665
G1 X121.588 Y129.874 E34.59612
G1 X121.695 Y129.95 E34.60267
G1 X121.588 Y129.95 E34.60289
G1 X121.197 Y129.95 E34.6151
G1 X98.776 Y129.95 E35.73369
G1 X98.605 Y129.95 E35.74222
G1 X98.302 Y129.95 E35.75734
G1 X98.605 Y129.701 E35.76566
G1 X98.72 Y129.576 E35.77266
G1 X98.91 Y129.37 E35.78665
G1 X99.221 Y128.924 E35.81377
G1 X99.423 Y128.537 E35.83555
G1 X99.609 Y128.027 E35.86264
G1 X99.704 Y127.597 E35.88461
G1 X99.751 Y127.056 E35.9117
G1 X99.734 Y126.618 E35.93357
G1 X99.626 Y126.024 E35.96369
G1 X99.403 Y125.413 E35.99614
G1 X99.076 Y124.848 E36.0287
G1 X98.697 Y124.392 E36.05829
G1 X98.37 Y124.09 E36.08049
G1 X97.903 Y123.765 E36.10888
G1 X97.321 Y123.486 E36.14108
G1 X96.716 Y123.317 E36.17242
G1 X96.271 Y123.258 E36.19481
G1 X95.67 Y123.26 E36.2248
G1 X95.028 Y123.373 E36.25732
G1 X94.413 Y123.597 E36.28997
G1 X93.845 Y123.925 E36.3227
G1 X93.43 Y124.275 E36.34978
G1 X93.346 Y124.346 E36.35527
G1 X93.05 Y124.697 E36.37818
G1 X93.05 Y124.346 E36.38375
G1 X93.05 Y124.236 E36.38859
G1 X93.05 Y95.758 E37.80937
G1 X93.05 Y95.693 E37.81261
G1 X93.05 Y95.362 E37.82912
G1 X93.05 Y95.311 E37.83167
G1 X93.085 Y95.362
G1 X93.388 Y95.693 E37.84437
G1 X93.437 Y95.734 E37.84733
G1 X93.82 Y96.054 E37.87223
G1 X94.375 Y96.384 E37.90444
G1 X94.989 Y96.616 E37.93719
G1 X95.634 Y96.737 E37.96993
G1 X96.261 Y96.741 E38.00121
G1 X96.706 Y96.685 E38.02359
G1 X97.286 Y96.526 E38.05359
G1 X97.824 Y96.278 E38.08315
G1 X98.2 Y96.04 E38.10535
G1 X98.657 Y95.65 E38.13532
G1 X99.072 Y95.155 E38.16755
G1 X99.403 Y94.587 E38.20035
G1 X99.627 Y93.973 E38.23295
G1 X99.73 Y93.388 E38.26259
G1 X99.752 Y92.949 E38.28452
G1 X99.703 Y92.379 E38.31306
G1 X99.545 Y91.78 E38.34397
G1 X99.378 Y91.365 E38.36629
G1 X99.072 Y90.841 E38.39656
G1 X98.725 Y90.43 E38.42339
G1 X98.654 Y90.346 E38.42888
G1 X98.301 Y90.05 E38.45187
G1 X98.654 Y90.05 E38.45747
G1 X98.764 Y90.05 E38.46232
G1 X120.734 Y90.05 E39.55841
G1 X121.188 Y90.05 E39.58106
G1 X121.613 Y90.05 E39.60226
G1 X121.691 Y90.049 E39.60615
G1 X121.614 Y90.103 E39.60702
G1 X121.31 Y90.399 E39.61968
G1 X121.15 Y90.555 E39.63083
G1 X120.782 Y91.07 E39.66241
G1 X120.577 Y91.466 E39.68466
G1 X120.391 Y91.972 E39.71155
G1 X120.296 Y92.403 E39.73357
G1 X120.249 Y92.944 E39.76067
G1 X120.266 Y93.382 E39.78253
G1 X120.374 Y93.976 E39.81265
G1 X120.597 Y94.587 E39.8451
G1 X120.925 Y95.155 E39.87783
G1 X121.346 Y95.654 E39.9104
G1 X121.845 Y96.075 E39.94297
G1 X122.413 Y96.403 E39.97569
G1 X123.028 Y96.627 E40.00835
G1 X123.674 Y96.74 E40.04107
G0 F7500 X123.744 Y95.94
G1 F1500 X124.256 Y95.94 E40.06661
G1 X124.764 Y95.851 E40.09234
G1 X125.246 Y95.675 E40.11794
G1 X125.659 Y95.439 E40.14167
G1 X125.926 Y95.235 E40.15844
G1 X126.261 Y94.895 E40.18225
G1 X126.557 Y94.475 E40.20788
G1 X126.773 Y94.009 E40.23351
G1 X126.905 Y93.523 E40.25863
G1 X126.942 Y93.216 E40.27406
G1 X126.941 Y92.782 E40.29571
G1 X126.899 Y92.451 E40.31236
G1 X126.785 Y92.028 E40.33422
G1 X126.658 Y91.719 E40.35088
G1 X126.438 Y91.34 E40.37275
G1 X126.235 Y91.074 E40.38944
