;FLAVOR:Marlin
;TIME:3967
;Filament used: 4.74624m
;Layer height: 0.4
;MINX:73.666
;MINY:87.284
;MINZ:0.3
;MAXX:146.334
;MAXY:132.715
;MAXZ:19.9
;Generated with Cura_SteamEngine 4.8.0
M140 S60
M105
M190 S60
M104 S210
M105
M109 S210
M82 ;absolute extrusion mode
G28 ;Home
G1 Z15.0 F2000 ;Move the platform
G92 E0
G92 E0
G1 F1500 E-6.5
;LAYER_COUNT:50
;LAYER:0
M107
M204 S1000
G0 F7500 X75.063 Y92.653 Z0.3
;TYPE:SKIRT
G1 F1500 E0
G1 X75.432 Y92.401 E0.02229
G1 X75.97 Y92.081 E0.05352
G1 X77.031 Y91.471 E0.11458
G1 X79.367 Y90.039 E0.25128
G1 X81.662 Y88.542 E0.38798
G1 X82.447 Y88.004 E0.43546
G1 X82.659 Y87.866 E0.44808
G1 X83.13 Y87.611 E0.4748
G1 X83.634 Y87.428 E0.50155
G1 X84.16 Y87.322 E0.52832
G1 X84.554 Y87.295 E0.54803
G1 X85.271 Y87.285 E0.5838
G1 X89.648 Y87.285 E0.80217
G1 X90.347 Y87.295 E0.83705
G1 X90.953 Y87.356 E0.86743
G1 X92.311 Y87.608 E0.93634
G1 X94.772 Y88.035 E1.06096
G1 X97.436 Y88.423 E1.19527
G1 X100.182 Y88.744 E1.3332
G1 X102.87 Y88.981 E1.46782
G1 X105.63 Y89.146 E1.60576
G1 X108.323 Y89.231 E1.74019
G1 X111.055 Y89.24 E1.87649
G1 X113.784 Y89.171 E2.01268
G1 X116.514 Y89.025 E2.14908
G1 X119.228 Y88.804 E2.28493
G1 X121.922 Y88.506 E2.42015
G1 X124.647 Y88.127 E2.55741
G1 X127.326 Y87.677 E2.69294
G1 X127.877 Y87.568 E2.72096
G1 X129.061 Y87.353 E2.781
G1 X129.649 Y87.295 E2.81047
G1 X130.359 Y87.285 E2.8459
G1 X134.736 Y87.284 E3.06427
G1 X135.448 Y87.294 E3.09979
G1 X135.982 Y87.342 E3.12654
G1 X136.503 Y87.468 E3.15328
G1 X137 Y87.67 E3.18005
G1 X137.365 Y87.88 E3.20106
G1 X137.799 Y88.163 E3.22691
G1 X139.382 Y89.231 E3.32218
G1 X141.671 Y90.682 E3.45739
G1 X143.613 Y91.845 E3.57032
G1 X144.525 Y92.375 E3.62294
G1 X144.967 Y92.678 E3.64968
G1 X145.359 Y93.044 E3.67644
G1 X145.693 Y93.464 E3.70321
G1 X145.96 Y93.929 E3.72996
G1 X146.156 Y94.428 E3.75671
G1 X146.275 Y94.951 E3.78346
G1 X146.314 Y95.415 E3.8067
G1 X146.334 Y96.485 E3.86009
G1 X146.324 Y97.313 E3.9014
G1 X146.263 Y97.929 E3.93228
G1 X146.006 Y99.309 E4.00231
G1 X145.937 Y99.655 E4.01992
G1 X145.483 Y102.327 E4.15513
G1 X145.093 Y105.094 E4.29454
G1 X145.002 Y105.864 E4.33323
G1 X144.961 Y106.155 E4.34789
G1 X144.856 Y106.646 E4.37294
G1 X144.797 Y106.848 E4.38344
G1 X144.668 Y107.263 E4.40512
G1 X144.487 Y107.82 E4.43434
G1 X144.251 Y108.511 E4.47077
G1 X144.006 Y109.068 E4.50113
G1 X143.388 Y110.203 E4.5656
G1 X143.21 Y110.519 E4.5837
G1 X141.93 Y112.955 E4.72098
G1 X140.367 Y116.185 E4.9
G1 X140.282 Y116.367 E4.91003
G1 X139.974 Y116.902 E4.94082
G1 X139.322 Y117.838 E4.99773
G1 X138.831 Y118.496 E5.03869
G1 X138.428 Y118.949 E5.06894
G1 X137.646 Y119.691 E5.12273
G1 X137.297 Y120.012 E5.14638
G1 X135.358 Y121.899 E5.28137
G1 X133.457 Y123.859 E5.41759
G1 X132.805 Y124.563 E5.46546
G1 X132.54 Y124.837 E5.48448
G1 X132.18 Y125.162 E5.50868
G1 X132.003 Y125.299 E5.51984
G1 X131.584 Y125.611 E5.54591
G1 X131.145 Y125.93 E5.57298
G1 X130.58 Y126.327 E5.60743
G1 X130.058 Y126.631 E5.63757
G1 X128.757 Y127.251 E5.70947
G1 X128.225 Y127.5 E5.73877
G1 X125.821 Y128.699 E5.8728
G1 X123.408 Y129.989 E6.00931
G1 X123.022 Y130.205 E6.03137
G1 X122.668 Y130.396 E6.05144
G1 X122.214 Y130.602 E6.07632
G1 X122.027 Y130.67 E6.08624
G1 X121.515 Y130.843 E6.1132
G1 X120.999 Y131.01 E6.14026
G1 X120.33 Y131.217 E6.1752
G1 X119.737 Y131.347 E6.20549
G1 X118.387 Y131.525 E6.27342
G1 X118.001 Y131.57 E6.29281
G1 X115.328 Y131.962 E6.42759
G1 X111.954 Y132.565 E6.59859
G1 X111.634 Y132.628 E6.61486
G1 X111.013 Y132.694 E6.64602
G1 X109.872 Y132.715 E6.70295
G1 X109.067 Y132.705 E6.74312
G1 X108.455 Y132.644 E6.7738
G1 X107.13 Y132.398 E6.84104
G1 X106.735 Y132.319 E6.86113
G1 X104.05 Y131.863 E6.99701
G1 X100.522 Y131.385 E7.17463
G1 X100.212 Y131.34 E7.19025
G1 X99.714 Y131.231 E7.21569
G1 X99.298 Y131.107 E7.23734
G1 X98.56 Y130.867 E7.27606
G1 X97.867 Y130.63 E7.3126
G1 X97.31 Y130.385 E7.34296
G1 X96.271 Y129.819 E7.40199
G1 X95.99 Y129.661 E7.41807
G1 X93.542 Y128.37 E7.55615
G1 X90.188 Y126.744 E7.7421
G1 X90.02 Y126.666 E7.75134
G1 X89.48 Y126.356 E7.78241
G1 X88.582 Y125.731 E7.83699
G1 X88.425 Y125.617 E7.84667
G1 X87.893 Y125.218 E7.87985
G1 X87.751 Y125.106 E7.88887
G1 X87.418 Y124.796 E7.91157
G1 X86.585 Y123.917 E7.97199
G1 X86.281 Y123.588 E7.99434
G1 X84.363 Y121.623 E8.13133
G1 X82.439 Y119.761 E8.26491
G1 X81.797 Y119.167 E8.30855
G1 X81.561 Y118.94 E8.32488
G1 X81.233 Y118.578 E8.34925
G1 X81.083 Y118.385 E8.36145
G1 X80.771 Y117.966 E8.38751
G1 X80.454 Y117.529 E8.41445
G1 X80.062 Y116.972 E8.44843
G1 X79.962 Y116.822 E8.45742
G1 X79.747 Y116.433 E8.47959
G1 X79.125 Y115.124 E8.5519
G1 X78.963 Y114.773 E8.57119
G1 X77.754 Y112.337 E8.70686
G1 X76.217 Y109.489 E8.86832
G1 X75.963 Y109.007 E8.8955
G1 X75.757 Y108.538 E8.92106
G1 X75.639 Y108.202 E8.93883
G1 X75.37 Y107.377 E8.98212
G1 X75.163 Y106.706 E9.01715
G1 X75.034 Y106.115 E9.04733
G1 X74.881 Y104.951 E9.1059
G1 X74.839 Y104.591 E9.12398
G1 X74.45 Y101.898 E9.25973
G1 X73.99 Y99.238 E9.39441
G1 X73.756 Y98.045 E9.45506
G1 X73.725 Y97.866 E9.46413
G1 X73.678 Y97.382 E9.48839
G1 X73.667 Y96.979 E9.5085
G1 X73.666 Y96.144 E9.55016
G1 X73.676 Y95.442 E9.58519
G1 X73.724 Y94.908 E9.61193
G1 X73.85 Y94.386 E9.63872
G1 X74.053 Y93.89 E9.66546
G1 X74.327 Y93.429 E9.69222
G1 X74.666 Y93.013 E9.71899
G1 X75.063 Y92.653 E9.74573
G0 F7500 X75.058 Y93.186
G1 F1500 X75.637 Y92.745 E9.78204
G1 X76.17 Y92.427 E9.813
G1 X77.244 Y91.81 E9.8748
G1 X79.589 Y90.372 E10.01204
G1 X81.874 Y88.881 E10.14816
G1 X82.673 Y88.334 E10.19647
G1 X82.875 Y88.203 E10.20848
G1 X83.32 Y87.964 E10.23368
G1 X83.798 Y87.798 E10.25892
G1 X84.296 Y87.71 E10.28415
G1 X84.559 Y87.695 E10.2973
G1 X85.276 Y87.685 E10.33307
G1 X89.643 Y87.685 E10.55094
G1 X90.342 Y87.695 E10.58582
G1 X90.88 Y87.749 E10.61279
G1 X92.243 Y88.002 E10.68196
G1 X94.683 Y88.425 E10.8055
G1 X97.442 Y88.827 E10.9446
G1 X100.098 Y89.137 E11.07801
G1 X102.882 Y89.383 E11.21745
G1 X105.593 Y89.546 E11.35294
G1 X108.31 Y89.631 E11.48856
G1 X111.063 Y89.64 E11.62591
G1 X113.815 Y89.571 E11.76325
G1 X116.534 Y89.425 E11.8991
G1 X119.234 Y89.205 E12.03425
G1 X121.985 Y88.901 E12.17233
G1 X124.697 Y88.524 E12.30893
G1 X127.409 Y88.068 E12.44614
G1 X127.948 Y87.961 E12.47355
G1 X129.132 Y87.746 E12.53359
G1 X129.655 Y87.695 E12.5598
G1 X130.359 Y87.685 E12.59493
G1 X134.73 Y87.684 E12.813
G1 X135.442 Y87.694 E12.84853
G1 X135.945 Y87.741 E12.87373
G1 X136.435 Y87.867 E12.89897
G1 X136.899 Y88.068 E12.9242
G1 X137.147 Y88.215 E12.93858
G1 X137.575 Y88.495 E12.9641
G1 X139.155 Y89.561 E13.05919
G1 X141.463 Y91.024 E13.19552
G1 X143.412 Y92.191 E13.30885
G1 X144.324 Y92.721 E13.36148
G1 X144.739 Y93.009 E13.38668
G1 X145.104 Y93.358 E13.41187
G1 X145.41 Y93.761 E13.43712
G1 X145.648 Y94.207 E13.46234
G1 X145.813 Y94.685 E13.48757
G1 X145.914 Y95.423 E13.52473
G1 X145.934 Y96.481 E13.57752
G1 X145.924 Y97.309 E13.61884
G1 X145.87 Y97.855 E13.64621
G1 X145.614 Y99.231 E13.71604
G1 X145.544 Y99.581 E13.73384
G1 X145.087 Y102.276 E13.87022
G1 X144.7 Y105.016 E14.00827
G1 X144.606 Y105.808 E14.04806
G1 X144.565 Y106.099 E14.06273
G1 X144.472 Y106.535 E14.08497
G1 X144.416 Y106.729 E14.09504
G1 X144.287 Y107.139 E14.11648
G1 X144.108 Y107.69 E14.14539
G1 X143.872 Y108.381 E14.18182
G1 X143.655 Y108.877 E14.20883
G1 X143.039 Y110.007 E14.27304
G1 X142.865 Y110.316 E14.29073
G1 X141.574 Y112.774 E14.42924
G1 X139.985 Y116.056 E14.61116
G1 X139.919 Y116.198 E14.61898
G1 X139.646 Y116.673 E14.64631
G1 X138.994 Y117.609 E14.70322
G1 X138.929 Y117.699 E14.70876
G1 X138.511 Y118.257 E14.74354
G1 X138.153 Y118.659 E14.7704
G1 X137.375 Y119.397 E14.8239
G1 X137.031 Y119.714 E14.84724
G1 X135.075 Y121.617 E14.98338
G1 X133.158 Y123.593 E15.12074
G1 X132.517 Y124.285 E15.1678
G1 X132.252 Y124.559 E15.18681
G1 X131.932 Y124.848 E15.20833
G1 X131.764 Y124.978 E15.21892
G1 X131.349 Y125.288 E15.24477
G1 X130.915 Y125.602 E15.27149
G1 X130.35 Y125.999 E15.30594
G1 X129.886 Y126.27 E15.33275
G1 X128.587 Y126.888 E15.40452
G1 X128.088 Y127.122 E15.43201
G1 X125.619 Y128.354 E15.56968
G1 X123.201 Y129.646 E15.70645
G1 X122.832 Y129.853 E15.72756
G1 X122.478 Y130.044 E15.74763
G1 X122.075 Y130.227 E15.76971
G1 X121.898 Y130.291 E15.7791
G1 X121.391 Y130.463 E15.80581
G1 X120.881 Y130.628 E15.83255
G1 X120.212 Y130.835 E15.86749
G1 X119.684 Y130.951 E15.89446
G1 X118.34 Y131.127 E15.96209
G1 X117.967 Y131.171 E15.98082
G1 X115.265 Y131.566 E16.11706
G1 X111.875 Y132.173 E16.28888
G1 X111.557 Y132.235 E16.30504
G1 X111.005 Y132.294 E16.33274
G1 X109.877 Y132.315 E16.38902
G1 X109.072 Y132.305 E16.42919
G1 X108.528 Y132.251 E16.45646
G1 X107.208 Y132.006 E16.52344
G1 X106.808 Y131.926 E16.54379
G1 X104.114 Y131.468 E16.68013
G1 X100.579 Y130.989 E16.8581
G1 X100.269 Y130.944 E16.87373
G1 X99.827 Y130.847 E16.8963
G1 X99.421 Y130.727 E16.91743
G1 X98.69 Y130.489 E16.95578
G1 X97.997 Y130.252 E16.99232
G1 X97.501 Y130.034 E17.01935
G1 X96.467 Y129.47 E17.07811
G1 X96.178 Y129.308 E17.09464
G1 X93.736 Y128.02 E17.23238
G1 X90.343 Y126.375 E17.4205
G1 X90.188 Y126.303 E17.42903
G1 X89.709 Y126.028 E17.45659
G1 X88.815 Y125.406 E17.51092
G1 X88.665 Y125.297 E17.52017
G1 X88.133 Y124.898 E17.55335
G1 X88.005 Y124.797 E17.56148
G1 X87.708 Y124.521 E17.58171
G1 X86.879 Y123.646 E17.64185
G1 X86.562 Y123.302 E17.66518
G1 X84.662 Y121.356 E17.80087
G1 X82.683 Y119.441 E17.93826
G1 X82.075 Y118.878 E17.9796
G1 X81.839 Y118.651 E17.99594
G1 X81.547 Y118.33 E18.01759
G1 X81.404 Y118.146 E18.02921
G1 X81.094 Y117.731 E18.05506
G1 X80.781 Y117.299 E18.08167
G1 X80.389 Y116.742 E18.11565
G1 X80.299 Y116.607 E18.12375
G1 X80.108 Y116.262 E18.14342
G1 X79.488 Y114.956 E18.21555
G1 X79.31 Y114.571 E18.23671
G1 X78.119 Y112.171 E18.37038
G1 X76.571 Y109.303 E18.53297
G1 X76.317 Y108.821 E18.56016
G1 X76.134 Y108.404 E18.58288
G1 X76.019 Y108.078 E18.60012
G1 X75.752 Y107.259 E18.6431
G1 X75.545 Y106.588 E18.67813
G1 X75.43 Y106.063 E18.70495
G1 X75.278 Y104.905 E18.76321
G1 X75.234 Y104.525 E18.7823
G1 X74.846 Y101.838 E18.91774
G1 X74.376 Y99.123 E19.05521
G1 X74.149 Y97.968 E19.11394
G1 X74.12 Y97.8 E19.12244
G1 X74.077 Y97.37 E19.144
G1 X74.067 Y96.978 E19.16356
G1 X74.066 Y96.149 E19.20492
G1 X74.076 Y95.447 E19.23995
G1 X74.123 Y94.944 E19.26515
G1 X74.249 Y94.454 E19.2904
G1 X74.451 Y93.991 E19.3156
G1 X74.722 Y93.564 E19.34083
G1 X75.058 Y93.186 E19.36606
G1 F1500 E12.86606
;MESH:Gear barre A (Meshed).stl
G0 F7500 X77.118 Y94.815
G0 X77.583 Y95.679
G0 X78.666 Y96.34
;TYPE:WALL-INNER
G1 F1500 E19.36606
G1 X78.772 Y96.29 E19.37191
G1 X78.907 Y96.227 E19.37934
G1 X79.076 Y96.147 E19.38867
G1 X79.493 Y95.971 E19.41125
G1 X79.948 Y95.801 E19.43548
G1 X80.302 Y95.684 E19.45408
G1 X80.655 Y95.584 E19.47239
G1 X80.957 Y95.512 E19.48788
G1 X81.201 Y95.463 E19.50029
G1 X81.632 Y95.408 E19.52197
G1 X81.84 Y95.404 E19.53235
G1 X82.508 Y95.458 E19.56578
G1 X83.811 Y95.583 E19.63109
G1 X83.857 Y95.588 E19.6334
G1 X83.775 Y95.958 E19.6472
G1 X83.75 Y96.527 E19.67562
G1 X83.804 Y96.929 E19.69585
G1 X83.825 Y97.089 E19.7039
G1 X83.852 Y97.175 E19.7084
G1 X83.834 Y97.176
G1 X83.673 Y97.191 E19.71419
G1 X81.872 Y97.36 E19.80444
G1 X81.547 Y97.348 E19.82067
G1 X81.163 Y97.291 E19.84003
G1 X80.909 Y97.241 E19.85295
G1 X80.612 Y97.167 E19.86822
G1 X80.22 Y97.052 E19.8886
G1 X79.904 Y96.945 E19.90525
G1 X79.484 Y96.788 E19.92762
G1 X79.329 Y96.726 E19.93594
G1 X79.02 Y96.587 E19.95285
G1 X78.884 Y96.527 E19.9591
G1 X78.666 Y96.421 E19.96652
G1 X78.666 Y96.34 E19.97056
G0 F7500 X84.35 Y94.559
G0 X85.611 Y93.451
G1 F1500 X85.626 Y93.353 E19.97551
G1 X85.659 Y93.144 E19.98606
G1 X85.796 Y92.285 E20.02946
G1 X88.337 Y92.285 E20.15623
G1 X88.54 Y92.285 E20.16636
G1 X88.53 Y92.345 E20.16939
G1 X88.493 Y92.545 E20.17623
G1 X88.465 Y92.695 E20.18384
G1 X88.374 Y93.273 E20.21303
G1 X88.366 Y93.331 E20.21595
G1 X88.352 Y93.432 E20.22104
G1 X88.315 Y93.417
G1 X87.978 Y93.278 E20.2346
G1 X87.422 Y93.157 E20.26299
G1 X86.862 Y93.131 E20.29095
G1 X86.294 Y93.206 E20.31954
G1 X85.963 Y93.311 E20.33686
G1 X85.761 Y93.374 E20.34446
G1 X85.611 Y93.451 E20.34789
G0 F7500 X84.83 Y96.098
G0 X84.857 Y96.712
G0 X85.611 Y99.313
G1 F1500 X86.024 Y99.485 E20.37021
G1 X86.036 Y99.487 E20.37081
G1 X86.578 Y99.606 E20.3985
G1 X87.143 Y99.631 E20.42671
G1 X87.706 Y99.557 E20.45504
G1 X88.088 Y99.436 E20.47503
G1 X88.248 Y99.386 E20.4834
G1 X88.353 Y99.331 E20.48931
G1 X88.358 Y99.369
G1 X88.382 Y99.535 E20.49537
G1 X88.43 Y99.855 E20.51152
G1 X88.488 Y100.212 E20.52956
G1 X88.601 Y100.787 E20.5588
G1 X88.676 Y101.137 E20.57665
G1 X88.812 Y101.704 E20.60575
G1 X88.9 Y102.051 E20.6236
G1 X89.059 Y102.616 E20.65289
G1 X89.165 Y102.962 E20.67094
G1 X89.348 Y103.513 E20.69991
G1 X89.467 Y103.853 E20.71788
G1 X89.677 Y104.401 E20.74716
G1 X89.81 Y104.733 E20.765
G1 X90.042 Y105.271 E20.79423
G1 X90.189 Y105.597 E20.81207
G1 X90.443 Y106.124 E20.84126
G1 X90.607 Y106.446 E20.85929
G1 X90.885 Y106.961 E20.88849
G1 X91.061 Y107.273 E20.90636
G1 X91.359 Y107.778 E20.93561
G1 X91.549 Y108.081 E20.95345
G1 X91.867 Y108.571 E20.9826
G1 X92.073 Y108.87 E21.00071
G1 X92.412 Y109.342 E21.0297
G1 X92.625 Y109.63 E21.04758
G1 X92.989 Y110.094 E21.077
G1 X93.217 Y110.37 E21.09486
G1 X93.596 Y110.812 E21.12391
G1 X93.833 Y111.079 E21.14172
G1 X94.236 Y111.508 E21.17108
G1 X94.486 Y111.765 E21.18897
G1 X94.904 Y112.174 E21.21815
G1 X95.163 Y112.42 E21.23597
G1 X95.598 Y112.813 E21.26522
G1 X95.871 Y113.048 E21.28319
G1 X96.324 Y113.422 E21.31249
G1 X96.606 Y113.642 E21.33034
G1 X97.072 Y113.995 E21.3595
G1 X97.364 Y114.204 E21.37742
G1 X97.842 Y114.538 E21.40651
G1 X98.145 Y114.735 E21.42454
G1 X98.639 Y115.045 E21.45364
G1 X98.949 Y115.23 E21.47165
G1 X99.457 Y115.519 E21.50081
G1 X99.774 Y115.689 E21.51875
G1 X100.292 Y115.956 E21.54783
G1 X100.616 Y116.114 E21.56581
G1 X101.148 Y116.356 E21.59497
G1 X101.476 Y116.5 E21.61284
G1 X102.019 Y116.721 E21.64209
G1 X102.355 Y116.849 E21.66003
G1 X102.908 Y117.047 E21.68933
G1 X103.249 Y117.16 E21.70726
G1 X103.804 Y117.333 E21.73626
G1 X104.151 Y117.433 E21.75427
G1 X104.714 Y117.582 E21.78333
G1 X105.062 Y117.666 E21.80119
G1 X105.636 Y117.792 E21.83051
G1 X105.99 Y117.861 E21.8485
G1 X106.567 Y117.959 E21.8777
G1 X106.92 Y118.011 E21.8955
G1 X107.5 Y118.087 E21.92469
G1 X107.858 Y118.124 E21.94264
G1 X108.439 Y118.175 E21.97174
G1 X108.799 Y118.196 E21.98973
G1 X109.384 Y118.223 E22.01895
G1 X109.744 Y118.228 E22.03691
G1 X110.326 Y118.228 E22.06595
G1 X110.685 Y118.22 E22.08386
G1 X111.274 Y118.193 E22.11328
G1 X111.632 Y118.168 E22.13118
G1 X112.21 Y118.118 E22.16013
G1 X112.568 Y118.078 E22.1781
G1 X113.151 Y118.003 E22.20742
G1 X113.506 Y117.947 E22.22535
G1 X114.08 Y117.847 E22.25442
G1 X114.433 Y117.774 E22.27241
G1 X115.004 Y117.651 E22.30155
G1 X115.355 Y117.562 E22.31961
G1 X115.919 Y117.413 E22.34872
G1 X116.263 Y117.312 E22.3666
G1 X116.82 Y117.138 E22.39572
G1 X117.16 Y117.023 E22.41362
G1 X117.711 Y116.826 E22.44282
G1 X118.047 Y116.693 E22.46084
G1 X118.587 Y116.472 E22.48995
G1 X118.917 Y116.328 E22.50792
G1 X119.447 Y116.082 E22.53707
G1 X119.768 Y115.923 E22.55494
G1 X120.29 Y115.656 E22.58419
G1 X120.606 Y115.482 E22.60219
G1 X121.115 Y115.192 E22.63142
G1 X121.914 Y114.697 E22.67831
G1 X122.213 Y114.496 E22.69628
G1 X122.695 Y114.164 E22.72548
G1 X122.984 Y113.951 E22.74339
G1 X123.453 Y113.599 E22.77265
G1 X124.183 Y113.003 E22.81966
G1 X124.454 Y112.765 E22.83766
G1 X124.887 Y112.373 E22.8668
G1 X125.146 Y112.126 E22.88465
G1 X125.565 Y111.715 E22.91394
G1 X125.814 Y111.456 E22.93186
G1 X126.213 Y111.028 E22.96105
G1 X126.449 Y110.758 E22.97894
G1 X126.828 Y110.316 E23.00799
G1 X127.055 Y110.036 E23.02598
G1 X127.418 Y109.575 E23.05525
G1 X127.63 Y109.285 E23.07317
G1 X127.971 Y108.81 E23.10234
G1 X128.171 Y108.512 E23.12025
G1 X128.493 Y108.018 E23.14967
G1 X128.978 Y107.21 E23.19668
G1 X129.425 Y106.383 E23.24358
G1 X129.585 Y106.061 E23.26152
G1 X129.843 Y105.53 E23.29098
G1 X130.217 Y104.669 E23.33781
G1 X130.346 Y104.333 E23.35576
G1 X130.559 Y103.782 E23.38524
G1 X130.858 Y102.889 E23.43222
G1 X131.116 Y101.987 E23.47903
G1 X131.201 Y101.638 E23.49695
